;Generated with Cura_SteamEngine 15.01
; Default start code
G28 ; Home extruder
G1 Z15 F100
M107 ; Turn off fan
G90 ; Absolute positioning
M82 ; Extruder in absolute mode
M190 S80
; Activate all used extruder
M104 T0 S220
G92 E0 ; Reset extruder position
; Wait for all used extruders to reach temperature
M109 T0 S220
;Layer count: 175
;LAYER:0
M107
G0 F9000 X91.033 Y65.518 Z0.300
;TYPE:SKIRT
G1 F1800 X91.742 Y64.705 E0.05382
G1 X92.550 Y63.995 E0.10748
G1 X93.443 Y63.396 E0.16113
G1 X94.409 Y62.920 E0.21485
G1 X95.425 Y62.574 E0.26840
G1 X96.479 Y62.364 E0.32202
G1 X97.448 Y62.300 E0.37047
G1 X104.530 Y62.300 E0.72379
G1 X105.433 Y62.396 E0.76910
G1 X106.439 Y62.720 E0.82182
G1 X107.350 Y63.229 E0.87389
G1 X108.152 Y63.925 E0.92687
G1 X108.790 Y64.757 E0.97917
G1 X109.186 Y65.573 E1.02442
G1 X109.640 Y66.849 E1.09199
G1 X110.031 Y67.990 E1.15217
G1 X110.454 Y69.277 E1.21976
G1 X110.647 Y70.195 E1.26656
G1 X110.640 Y71.302 E1.32179
G1 X110.407 Y72.365 E1.37608
G1 X109.957 Y73.359 E1.43051
G1 X109.312 Y74.235 E1.48479
G1 X108.510 Y74.948 E1.53832
G1 X107.588 Y75.484 E1.59153
G1 X106.790 Y75.746 E1.63343
G1 X106.072 Y75.939 E1.67053
G1 X105.597 Y76.122 E1.69592
G1 X105.158 Y76.345 E1.72049
G1 X104.732 Y76.623 E1.74587
G1 X104.346 Y76.936 E1.77066
G1 X103.989 Y77.293 E1.79585
G1 X103.673 Y77.684 E1.82093
G1 X103.400 Y78.104 E1.84592
G1 X103.173 Y78.551 E1.87093
G1 X102.991 Y79.023 E1.89617
G1 X102.865 Y79.496 E1.92059
G1 X102.785 Y80.002 E1.94615
G1 X102.754 Y80.579 E1.97498
G1 X102.754 Y119.428 E3.91316
G1 X102.785 Y119.997 E3.94159
G1 X102.862 Y120.490 E3.96649
G1 X102.990 Y120.974 E3.99146
G1 X103.173 Y121.450 E4.01691
G1 X103.396 Y121.890 E4.04152
G1 X103.665 Y122.305 E4.06619
G1 X103.983 Y122.700 E4.09149
G1 X104.345 Y123.063 E4.11706
G1 X104.725 Y123.372 E4.14150
G1 X105.143 Y123.645 E4.16641
G1 X105.593 Y123.875 E4.19162
G1 X106.066 Y124.058 E4.21692
G1 X106.795 Y124.254 E4.25458
G1 X107.609 Y124.524 E4.29737
G1 X108.546 Y125.075 E4.35160
G1 X109.349 Y125.805 E4.40574
G1 X109.978 Y126.680 E4.45951
G1 X110.416 Y127.658 E4.51297
G1 X110.643 Y128.724 E4.56734
G1 X110.646 Y129.815 E4.62177
G1 X110.453 Y130.720 E4.66794
G1 X110.032 Y132.007 E4.73550
G1 X109.644 Y133.141 E4.79529
G1 X109.194 Y134.409 E4.86242
G1 X108.790 Y135.244 E4.90870
G1 X108.152 Y136.074 E4.96093
G1 X107.348 Y136.772 E5.01405
G1 X106.419 Y137.289 E5.06709
G1 X105.413 Y137.607 E5.11972
G1 X104.525 Y137.700 E5.16427
G1 X97.440 Y137.700 E5.51774
G1 X96.486 Y137.637 E5.56544
G1 X95.440 Y137.429 E5.61865
G1 X94.519 Y137.119 E5.66713
G1 X94.310 Y137.031 E5.67844
G1 X93.457 Y136.610 E5.72590
G1 X92.568 Y136.017 E5.77921
G1 X91.759 Y135.311 E5.83278
G1 X91.050 Y134.504 E5.88638
G1 X90.549 Y133.756 E5.93129
G1 X90.427 Y133.565 E5.94260
G1 X90.023 Y132.743 E5.98829
G1 X89.938 Y132.541 E5.99923
G1 X89.628 Y131.632 E6.04714
G1 X89.420 Y130.579 E6.10069
G1 X89.355 Y129.618 E6.14875
G1 X89.354 Y70.395 E9.10339
G1 X89.404 Y69.632 E9.14154
G1 X89.421 Y69.413 E9.15250
G1 X89.622 Y68.390 E9.20451
G1 X89.967 Y67.372 E9.25814
G1 X90.440 Y66.410 E9.31162
G1 X91.033 Y65.518 E9.36506
G1 F2400 E5.36506
G0 F9000 X94.063 Y67.824
;TYPE:WALL-INNER
G1 F2400 E9.36506
G1 F1800 X94.436 Y67.396 E9.39338
G1 X94.875 Y67.011 E9.42251
G1 X95.349 Y66.693 E9.45099
G1 X95.866 Y66.438 E9.47975
G1 X96.416 Y66.251 E9.50873
G1 X96.972 Y66.140 E9.53702
G1 X97.577 Y66.100 E9.56727
G1 X104.326 Y66.100 E9.90398
G1 X104.644 Y66.134 E9.91993
G1 X104.912 Y66.220 E9.93398
G1 X105.158 Y66.358 E9.94805
G1 X105.371 Y66.542 E9.96209
G1 X105.538 Y66.760 E9.97579
G1 X105.678 Y67.049 E9.99181
G1 X106.051 Y68.098 E10.04736
G1 X106.427 Y69.195 E10.10521
G1 X106.779 Y70.264 E10.16136
G1 X106.845 Y70.577 E10.17732
G1 X106.842 Y70.879 E10.19239
G1 X106.781 Y71.160 E10.20673
G1 X106.660 Y71.428 E10.22140
G1 X106.488 Y71.661 E10.23585
G1 X106.269 Y71.856 E10.25048
G1 X106.025 Y71.998 E10.26457
G1 X104.891 Y72.322 E10.32341
G1 X104.052 Y72.645 E10.36826
G1 X103.249 Y73.053 E10.41320
G1 X102.495 Y73.544 E10.45809
G1 X101.797 Y74.111 E10.50295
G1 X101.160 Y74.747 E10.54786
G1 X100.595 Y75.446 E10.59270
G1 X100.104 Y76.202 E10.63767
G1 X99.697 Y77.003 E10.68250
G1 X99.374 Y77.843 E10.72740
G1 X99.141 Y78.713 E10.77233
G1 X99.002 Y79.600 E10.81712
G1 X98.954 Y80.484 E10.86129
G1 X98.954 Y119.526 E12.80911
G1 X99.002 Y120.399 E12.85273
G1 X99.138 Y121.275 E12.89695
G1 X99.369 Y122.145 E12.94186
G1 X99.692 Y122.986 E12.98681
G1 X100.098 Y123.788 E13.03165
G1 X100.587 Y124.542 E13.07649
G1 X101.152 Y125.242 E13.12137
G1 X101.787 Y125.880 E13.16628
G1 X102.485 Y126.447 E13.21114
G1 X103.239 Y126.940 E13.25609
G1 X104.040 Y127.348 E13.30093
G1 X104.879 Y127.673 E13.34582
G1 X105.702 Y127.895 E13.38835
G1 X106.030 Y128.004 E13.40559
G1 X106.279 Y128.150 E13.42000
G1 X106.498 Y128.350 E13.43479
G1 X106.666 Y128.582 E13.44908
G1 X106.783 Y128.845 E13.46344
G1 X106.844 Y129.130 E13.47798
G1 X106.845 Y129.419 E13.49240
G1 X106.778 Y129.732 E13.50837
G1 X106.429 Y130.797 E13.56428
G1 X106.054 Y131.894 E13.62212
G1 X105.684 Y132.937 E13.67734
G1 X105.538 Y133.240 E13.69412
G1 X105.372 Y133.456 E13.70771
G1 X105.157 Y133.643 E13.72192
G1 X104.908 Y133.781 E13.73613
G1 X104.636 Y133.867 E13.75036
G1 X104.323 Y133.900 E13.76606
G1 X97.569 Y133.900 E14.10302
G1 X96.978 Y133.861 E14.13257
G1 X96.430 Y133.752 E14.16044
G1 X95.868 Y133.563 E14.19003
G1 X95.359 Y133.311 E14.21836
G1 X94.879 Y132.991 E14.24714
G1 X94.450 Y132.617 E14.27554
G1 X94.066 Y132.179 E14.30460
G1 X93.743 Y131.697 E14.33354
G1 X93.492 Y131.187 E14.36190
G1 X93.307 Y130.646 E14.39043
G1 X93.195 Y130.081 E14.41916
G1 X93.155 Y129.482 E14.44912
G1 X93.154 Y70.517 E17.39089
G1 X93.193 Y69.925 E17.42049
G1 X93.303 Y69.365 E17.44896
G1 X93.486 Y68.826 E17.47736
G1 X93.739 Y68.311 E17.50599
G1 X94.063 Y67.824 E17.53517
G0 F9000 X95.429 Y69.178
G1 F1800 X95.191 Y69.672 E17.56253
G1 X95.066 Y70.221 E17.59062
G1 X95.068 Y70.793 E17.61916
G1 X95.196 Y71.337 E17.64704
G1 X95.434 Y71.831 E17.67439
G1 X95.785 Y72.271 E17.70247
G1 X96.232 Y72.624 E17.73089
G1 X96.726 Y72.863 E17.75827
G1 X97.275 Y72.988 E17.78636
G1 X97.848 Y72.986 E17.81495
G1 X98.393 Y72.858 E17.84288
G1 X98.886 Y72.619 E17.87021
G1 X99.326 Y72.269 E17.89826
G1 X99.679 Y71.820 E17.92676
G1 X99.917 Y71.327 E17.95407
G1 X100.042 Y70.778 E17.98216
G1 X100.040 Y70.206 E18.01070
G1 X99.912 Y69.662 E18.03858
G1 X99.674 Y69.168 E18.06593
G1 X99.324 Y68.728 E18.09398
G1 X98.876 Y68.375 E18.12244
G1 X98.382 Y68.136 E18.14982
G1 X97.833 Y68.011 E18.17791
G1 X97.260 Y68.013 E18.20650
G1 X96.715 Y68.141 E18.23443
G1 X96.221 Y68.380 E18.26180
G1 X95.783 Y68.730 E18.28978
G1 X95.429 Y69.178 E18.31826
G0 F9000 X95.070 Y70.792
G0 X97.260 Y127.013
G1 F1800 X96.715 Y127.141 E18.34619
G1 X96.221 Y127.380 E18.37357
G1 X95.783 Y127.730 E18.40154
G1 X95.429 Y128.178 E18.43003
G1 X95.191 Y128.672 E18.45739
G1 X95.066 Y129.221 E18.48548
G1 X95.068 Y129.793 E18.51401
G1 X95.196 Y130.337 E18.54190
G1 X95.434 Y130.831 E18.56925
G1 X95.785 Y131.271 E18.59733
G1 X96.232 Y131.624 E18.62575
G1 X96.726 Y131.863 E18.65313
G1 X97.275 Y131.988 E18.68122
G1 X97.848 Y131.986 E18.70981
G1 X98.393 Y131.858 E18.73774
G1 X98.886 Y131.619 E18.76507
G1 X99.326 Y131.269 E18.79312
G1 X99.679 Y130.820 E18.82161
G1 X99.917 Y130.327 E18.84893
G1 X100.042 Y129.778 E18.87702
G1 X100.040 Y129.206 E18.90555
G1 X99.912 Y128.662 E18.93344
G1 X99.674 Y128.168 E18.96079
G1 X99.324 Y127.728 E18.98884
G1 X98.876 Y127.375 E19.01730
G1 X98.382 Y127.136 E19.04468
G1 X97.833 Y127.011 E19.07277
G1 X97.260 Y127.013 E19.10135
G0 F9000 X97.307 Y127.413
;TYPE:WALL-OUTER
G1 F1800 X96.850 Y127.520 E19.12477
G1 X96.436 Y127.721 E19.14773
G1 X96.068 Y128.014 E19.17120
G1 X95.770 Y128.391 E19.19517
G1 X95.571 Y128.805 E19.21809
G1 X95.466 Y129.265 E19.24163
G1 X95.468 Y129.746 E19.26563
G1 X95.575 Y130.203 E19.28904
G1 X95.775 Y130.617 E19.31198
G1 X96.069 Y130.986 E19.33552
G1 X96.445 Y131.283 E19.35943
G1 X96.859 Y131.483 E19.38236
G1 X97.319 Y131.588 E19.40590
G1 X97.801 Y131.586 E19.42995
G1 X98.258 Y131.479 E19.45337
G1 X98.672 Y131.278 E19.47633
G1 X99.041 Y130.985 E19.49984
G1 X99.338 Y130.607 E19.52382
G1 X99.537 Y130.194 E19.54669
G1 X99.642 Y129.734 E19.57023
G1 X99.640 Y129.253 E19.59423
G1 X99.533 Y128.796 E19.61764
G1 X99.333 Y128.382 E19.64058
G1 X99.040 Y128.013 E19.66409
G1 X98.663 Y127.716 E19.68803
G1 X98.249 Y127.516 E19.71097
G1 X97.789 Y127.411 E19.73451
G1 X97.307 Y127.413 E19.75856
G0 F9000 X97.240 Y127.121
G0 X100.679 Y124.494
G0 X100.912 Y124.307
G1 F1800 X101.450 Y124.975 E19.80135
G1 X102.056 Y125.583 E19.84418
G1 X102.721 Y126.124 E19.88695
G1 X103.440 Y126.593 E19.92977
G1 X104.203 Y126.983 E19.97253
G1 X105.004 Y127.292 E20.01536
G1 X105.810 Y127.510 E20.05701
G1 X106.200 Y127.639 E20.07751
G1 X106.516 Y127.825 E20.09580
G1 X106.798 Y128.082 E20.11484
G1 X107.014 Y128.381 E20.13324
G1 X107.165 Y128.720 E20.15175
G1 X107.244 Y129.089 E20.17058
G1 X107.245 Y129.459 E20.18904
G1 X107.164 Y129.839 E20.20842
G1 X106.808 Y130.926 E20.26549
G1 X106.434 Y132.021 E20.32322
G1 X106.054 Y133.093 E20.37996
G1 X105.882 Y133.447 E20.39960
G1 X105.663 Y133.733 E20.41757
G1 X105.387 Y133.972 E20.43578
G1 X105.067 Y134.150 E20.45405
G1 X104.715 Y134.261 E20.47246
G1 X104.346 Y134.300 E20.49098
G1 X97.558 Y134.300 E20.82963
G1 X96.927 Y134.259 E20.86118
G1 X96.324 Y134.139 E20.89185
G1 X95.716 Y133.934 E20.92386
G1 X95.159 Y133.659 E20.95485
G1 X94.639 Y133.312 E20.98604
G1 X94.164 Y132.898 E21.01748
G1 X93.750 Y132.426 E21.04880
G1 X93.394 Y131.895 E21.08070
G1 X93.123 Y131.343 E21.11138
G1 X93.118 Y131.331 E21.11202
G1 X92.919 Y130.749 E21.14271
G1 X92.799 Y130.138 E21.17378
G1 X92.755 Y129.496 E21.20588
G1 X92.754 Y70.513 E24.14855
G1 X92.796 Y69.872 E24.18060
G1 X92.915 Y69.265 E24.21146
G1 X93.116 Y68.672 E24.24270
G1 X93.390 Y68.115 E24.27367
G1 X93.744 Y67.581 E24.30563
G1 X94.155 Y67.110 E24.33682
G1 X94.628 Y66.695 E24.36821
G1 X95.151 Y66.344 E24.39964
G1 X95.713 Y66.067 E24.43090
G1 X96.307 Y65.865 E24.46220
G1 X96.921 Y65.742 E24.49344
G1 X97.566 Y65.700 E24.52569
G1 X104.349 Y65.700 E24.86409
G1 X104.728 Y65.740 E24.88311
G1 X105.070 Y65.850 E24.90103
G1 X105.389 Y66.029 E24.91928
G1 X105.662 Y66.265 E24.93728
G1 X105.882 Y66.553 E24.95536
G1 X106.047 Y66.892 E24.97417
G1 X106.430 Y67.969 E25.03120
G1 X106.807 Y69.070 E25.08926
G1 X107.165 Y70.158 E25.14640
G1 X107.245 Y70.538 E25.16578
G1 X107.242 Y70.924 E25.18504
G1 X107.162 Y71.289 E25.20368
G1 X107.009 Y71.628 E25.22223
G1 X106.784 Y71.933 E25.24114
G1 X106.506 Y72.181 E25.25973
G1 X106.190 Y72.365 E25.27797
G1 X105.015 Y72.703 E25.33897
G1 X104.215 Y73.011 E25.38174
G1 X103.450 Y73.400 E25.42456
G1 X102.731 Y73.868 E25.46736
G1 X102.065 Y74.408 E25.51013
G1 X101.458 Y75.015 E25.55296
G1 X100.919 Y75.681 E25.59570
G1 X100.451 Y76.402 E25.63859
G1 X100.063 Y77.166 E25.68134
G1 X99.755 Y77.967 E25.72415
G1 X99.533 Y78.796 E25.76697
G1 X99.400 Y79.642 E25.80970
G1 X99.354 Y80.495 E25.85231
G1 X99.354 Y119.515 E27.79903
G1 X99.400 Y120.357 E27.84110
G1 X99.530 Y121.192 E27.88326
G1 X99.750 Y122.022 E27.92610
G1 X100.058 Y122.823 E27.96891
G1 X100.445 Y123.588 E28.01168
G1 X100.912 Y124.307 E28.05446
G0 F9000 X100.679 Y124.494
G0 X99.370 Y122.144
G0 X98.954 Y119.526
G0 X97.868 Y72.878
G0 X97.801 Y72.586
G1 F1800 X98.258 Y72.479 E28.07787
G1 X98.672 Y72.278 E28.10083
G1 X99.041 Y71.985 E28.12434
G1 X99.338 Y71.607 E28.14832
G1 X99.537 Y71.194 E28.17120
G1 X99.642 Y70.734 E28.19474
G1 X99.640 Y70.253 E28.21873
G1 X99.533 Y69.796 E28.24215
G1 X99.333 Y69.382 E28.26509
G1 X99.040 Y69.013 E28.28860
G1 X98.663 Y68.716 E28.31254
G1 X98.249 Y68.516 E28.33548
G1 X97.789 Y68.411 E28.35902
G1 X97.307 Y68.413 E28.38307
G1 X96.850 Y68.520 E28.40648
G1 X96.436 Y68.721 E28.42944
G1 X96.068 Y69.014 E28.45291
G1 X95.770 Y69.391 E28.47689
G1 X95.571 Y69.805 E28.49980
G1 X95.466 Y70.265 E28.52334
G1 X95.468 Y70.746 E28.54734
G1 X95.575 Y71.203 E28.57076
G1 X95.775 Y71.617 E28.59369
G1 X96.069 Y71.986 E28.61723
G1 X96.445 Y72.283 E28.64114
G1 X96.859 Y72.483 E28.66408
G1 X97.319 Y72.588 E28.68762
G1 X97.801 Y72.586 E28.71166
G0 F9000 X97.734 Y73.126
;TYPE:SKIN
G1 F1800 X100.280 Y75.673 E28.89133
G0 F9000 X100.506 Y75.333
G1 F1800 X98.217 Y73.044 E29.05283
G0 F9000 X98.635 Y72.897
G1 F1800 X100.759 Y75.020 E29.20266
G0 F9000 X101.012 Y74.707
G1 F1800 X99.006 Y72.701 E29.34419
G0 F9000 X99.321 Y72.451
G1 F1800 X101.288 Y74.418 E29.48297
G0 F9000 X101.571 Y74.135
G1 F1800 X99.592 Y72.156 E29.62260
G0 F9000 X99.830 Y71.828
G1 F1800 X101.870 Y73.869 E29.76657
G0 F9000 X102.183 Y73.616
G1 F1800 X100.013 Y71.446 E29.91968
G0 F9000 X100.132 Y70.999
G1 F1800 X102.502 Y73.370 E30.08693
G0 F9000 X102.845 Y73.147
G1 F1800 X100.179 Y70.480 E30.27506
G0 F9000 X100.095 Y69.831
G1 F1800 X103.188 Y72.924 E30.49329
G0 F9000 X103.564 Y72.734
G1 F1800 X97.101 Y66.271 E30.94929
G0 F9000 X96.617 Y66.353
G1 F1800 X98.219 Y67.955 E31.06232
G0 F9000 X97.569 Y67.870
G1 F1800 X96.177 Y66.479 E31.16050
G0 F9000 X95.771 Y66.639
G1 F1800 X97.049 Y67.916 E31.25063
G0 F9000 X96.604 Y68.037
G1 F1800 X95.396 Y66.829 E31.33587
G0 F9000 X95.057 Y67.056
G1 F1800 X96.223 Y68.222 E31.41813
G0 F9000 X95.894 Y68.459
G1 F1800 X94.745 Y67.310 E31.49920
G0 F9000 X94.455 Y67.585
G1 F1800 X95.602 Y68.732 E31.58013
G0 F9000 X95.351 Y69.047
G1 F1800 X94.191 Y67.887 E31.66197
G0 F9000 X93.963 Y68.225
G1 F1800 X95.157 Y69.418 E31.74618
G0 F9000 X95.010 Y69.837
G1 F1800 X93.759 Y68.586 E31.83444
G0 F9000 X93.581 Y68.974
G1 F1800 X94.925 Y70.318 E31.92927
G0 F9000 X94.951 Y70.909
G1 F1800 X93.438 Y69.396 E32.03602
G0 F9000 X93.345 Y69.869
G1 F1800 X95.251 Y71.775 E32.17050
G0 F9000 X96.280 Y72.804
G1 F1800 X99.856 Y76.380 E32.42281
G0 F9000 X100.057 Y76.015
G1 F1800 X97.143 Y73.102 E32.62837
G0 F9000 X93.292 Y73.211
G1 F1800 X98.970 Y78.889 E33.02898
G0 F9000 X99.072 Y78.425
G1 F1800 X93.292 Y72.645 E33.43679
G0 F9000 X93.292 Y72.079
G1 F1800 X99.192 Y77.979 E33.85307
G0 F9000 X99.335 Y77.556
G1 F1800 X93.292 Y71.513 E34.27944
G0 F9000 X93.292 Y70.948
G1 F1800 X99.492 Y77.147 E34.71684
G0 F9000 X99.665 Y76.755
G1 F1800 X93.301 Y70.391 E35.16586
G0 F9000 X93.292 Y73.776
G1 F1800 X98.894 Y79.378 E35.56111
G0 F9000 X98.845 Y79.895
G1 F1800 X93.292 Y74.342 E35.95290
G0 F9000 X93.292 Y74.908
G1 F1800 X98.816 Y80.431 E36.34262
G0 F9000 X98.813 Y80.994
G1 F1800 X93.292 Y75.473 E36.73215
G0 F9000 X93.292 Y76.039
G1 F1800 X98.813 Y81.560 E37.12169
G0 F9000 X98.813 Y82.126
G1 F1800 X93.292 Y76.605 E37.51123
G0 F9000 X93.292 Y77.170
G1 F1800 X98.813 Y82.691 E37.90076
G0 F9000 X98.813 Y83.257
G1 F1800 X93.292 Y77.736 E38.29030
G0 F9000 X93.292 Y78.302
G1 F1800 X98.813 Y83.823 E38.67984
G0 F9000 X98.813 Y84.388
G1 F1800 X93.292 Y78.867 E39.06937
G0 F9000 X93.292 Y79.433
G1 F1800 X98.813 Y84.954 E39.45891
G0 F9000 X98.813 Y85.520
G1 F1800 X93.292 Y79.999 E39.84844
G0 F9000 X103.939 Y72.544
G1 F1800 X97.635 Y66.240 E40.29323
G0 F9000 X98.201 Y66.240
G1 F1800 X104.343 Y72.382 E40.72658
G0 F9000 X104.751 Y72.224
G1 F1800 X98.767 Y66.240 E41.14878
G0 F9000 X99.332 Y66.240
G1 F1800 X105.184 Y72.091 E41.56164
G0 F9000 X105.624 Y71.966
G1 F1800 X99.898 Y66.240 E41.96564
G0 F9000 X100.464 Y66.240
G1 F1800 X106.046 Y71.822 E42.35948
G0 F9000 X106.368 Y71.579
G1 F1800 X101.030 Y66.240 E42.73614
G0 F9000 X101.595 Y66.240
G1 F1800 X106.592 Y71.237 E43.08870
G0 F9000 X106.702 Y70.781
G1 F1800 X102.161 Y66.240 E43.40909
G0 F9000 X102.727 Y66.240
G1 F1800 X106.571 Y70.084 E43.68031
G0 F9000 X106.293 Y69.241
G1 F1800 X103.292 Y66.240 E43.89205
G0 F9000 X103.858 Y66.240
G1 F1800 X105.991 Y68.373 E44.04254
G0 F9000 X105.689 Y67.505
G1 F1800 X104.436 Y66.253 E44.13091
G0 F9000 X93.292 Y80.564
G1 F1800 X98.813 Y86.086 E44.52048
G0 F9000 X98.813 Y86.651
G1 F1800 X93.292 Y81.130 E44.91002
G0 F9000 X93.292 Y81.696
G1 F1800 X98.813 Y87.217 E45.29956
G0 F9000 X98.813 Y87.783
G1 F1800 X93.292 Y82.261 E45.68913
G0 F9000 X93.292 Y82.827
G1 F1800 X98.813 Y88.348 E46.07866
G0 F9000 X98.813 Y88.914
G1 F1800 X93.292 Y83.393 E46.46820
G0 F9000 X93.292 Y83.959
G1 F1800 X98.813 Y89.480 E46.85774
