;Generated with Cura_SteamEngine 15.01
; Default start code
G28 ; Home extruder
G1 Z15 F100
M107 ; Turn off fan
G90 ; Absolute positioning
M82 ; Extruder in absolute mode
M190 S60
; Activate all used extruder
M104 T0 S225
G92 E0 ; Reset extruder position
; Wait for all used extruders to reach temperature
M109 T0 S225
;Layer count: 195
;LAYER:0
M107
G0 F9000 X62.408 Y69.206 Z0.300
;TYPE:SKIRT
G1 F1800 X138.933 Y69.206 E3.81785
G1 X138.945 Y75.706 E4.14213
G1 X141.128 Y75.706 E4.25104
G1 X141.128 Y100.091 E5.46762
G1 X141.328 Y100.291 E5.48173
G1 X141.328 Y107.119 E5.82238
G1 X136.720 Y108.654 E6.06469
G1 X135.908 Y108.856 E6.10644
G1 X134.117 Y109.455 E6.20066
G1 X133.300 Y109.659 E6.24267
G1 X131.517 Y110.255 E6.33646
G1 X130.700 Y110.459 E6.37847
G1 X128.917 Y111.055 E6.47226
G1 X128.100 Y111.259 E6.51428
G1 X126.317 Y111.855 E6.60807
G1 X125.500 Y112.059 E6.65008
G1 X123.717 Y112.655 E6.74387
G1 X122.899 Y112.859 E6.78593
G1 X121.117 Y113.454 E6.87966
G1 X120.315 Y113.655 E6.92091
G1 X119.118 Y114.055 E6.98388
G1 X118.302 Y114.258 E7.02583
G1 X116.517 Y114.855 E7.11973
G1 X115.700 Y115.059 E7.16174
G1 X113.917 Y115.655 E7.25553
G1 X113.100 Y115.859 E7.29755
G1 X111.317 Y116.455 E7.39134
G1 X110.500 Y116.659 E7.43335
G1 X108.717 Y117.255 E7.52714
G1 X107.900 Y117.459 E7.56915
G1 X106.117 Y118.055 E7.66295
G1 X105.300 Y118.259 E7.70496
G1 X103.517 Y118.855 E7.79875
G1 X102.699 Y119.059 E7.84081
G1 X100.917 Y119.654 E7.93454
G1 X100.114 Y119.855 E7.97584
G1 X98.916 Y120.255 E8.03885
G1 X98.119 Y120.453 E8.07982
G1 X97.929 Y120.517 E8.08982
G1 X97.120 Y120.920 E8.13492
G1 X96.833 Y121.016 E8.15001
G1 X96.733 Y121.115 E8.15703
G1 X96.334 Y121.314 E8.17928
G1 X95.734 Y121.912 E8.22154
G1 X95.339 Y122.110 E8.24358
G1 X94.736 Y122.712 E8.28609
G1 X94.338 Y122.911 E8.30829
G1 X93.137 Y124.112 E8.39303
G1 X92.737 Y124.312 E8.41534
G1 X91.933 Y125.115 E8.47203
G1 X89.791 Y126.184 E8.59147
G1 X84.071 Y127.615 E8.88564
G1 X83.743 Y128.472 E8.93142
G1 X78.120 Y128.784 E9.21238
G1 X77.634 Y128.882 E9.23711
G1 X77.530 Y128.916 E9.24257
G1 X77.117 Y129.122 E9.26560
G1 X76.532 Y129.316 E9.29635
G1 X76.333 Y129.514 E9.31035
G1 X75.534 Y129.913 E9.35491
G1 X75.128 Y130.319 E9.38355
G1 X75.128 Y130.321 E9.38365
G1 X70.678 Y134.771 E9.69763
G1 X66.228 Y130.321 E10.01160
G1 X66.228 Y129.921 E10.03155
G1 X66.028 Y129.721 E10.04566
G1 X66.028 Y129.321 E10.06562
G1 X65.828 Y129.121 E10.07973
G1 X65.828 Y128.721 E10.09969
G1 X65.628 Y128.521 E10.11380
G1 X65.628 Y124.291 E10.32483
G1 X65.828 Y124.091 E10.33895
G1 X65.828 Y123.892 E10.34887
G1 X68.023 Y121.697 E10.50374
G1 X69.453 Y120.985 E10.58344
G1 X70.726 Y120.729 E10.64822
G1 X72.325 Y120.197 E10.73230
G1 X73.828 Y118.691 E10.83845
G1 X73.828 Y116.638 E10.94087
G1 X78.180 Y115.910 E11.16101
G1 X79.240 Y115.557 E11.21675
G1 X80.048 Y115.356 E11.25829
G1 X81.839 Y114.757 E11.35251
G1 X82.657 Y114.553 E11.39457
G1 X84.439 Y113.958 E11.48830
G1 X85.241 Y113.757 E11.52955
G1 X86.438 Y113.357 E11.59251
G1 X87.254 Y113.154 E11.63446
G1 X89.039 Y112.557 E11.72836
G1 X89.856 Y112.353 E11.77038
G1 X91.639 Y111.757 E11.86417
G1 X92.457 Y111.553 E11.90623
G1 X94.239 Y110.958 E11.99996
G1 X95.041 Y110.757 E12.04121
G1 X96.238 Y110.357 E12.10417
G1 X97.054 Y110.154 E12.14612
G1 X98.839 Y109.557 E12.24003
G1 X99.656 Y109.353 E12.28204
G1 X101.439 Y108.757 E12.37583
G1 X102.257 Y108.553 E12.41789
G1 X104.039 Y107.958 E12.51162
G1 X104.841 Y107.757 E12.55287
G1 X106.038 Y107.357 E12.61583
G1 X106.854 Y107.154 E12.65778
G1 X108.639 Y106.557 E12.75169
G1 X109.456 Y106.353 E12.79370
G1 X111.239 Y105.757 E12.88749
G1 X112.057 Y105.553 E12.92955
G1 X113.839 Y104.958 E13.02328
G1 X114.641 Y104.757 E13.06453
G1 X115.838 Y104.357 E13.12749
G1 X116.654 Y104.154 E13.16945
G1 X118.439 Y103.557 E13.26335
G1 X119.256 Y103.353 E13.30536
G1 X121.039 Y102.757 E13.39915
G1 X121.857 Y102.553 E13.44121
G1 X123.639 Y101.958 E13.53494
G1 X124.441 Y101.757 E13.57619
G1 X125.638 Y101.357 E13.63916
G1 X126.454 Y101.154 E13.68111
G1 X128.239 Y100.557 E13.77501
G1 X128.628 Y100.460 E13.79501
G1 X128.628 Y82.106 E14.71070
G1 X69.871 Y82.106 E17.64210
G1 X69.871 Y105.106 E18.78957
G1 X62.407 Y105.106 E19.16195
G1 X62.405 Y97.928 E19.52006
G1 X62.406 Y95.705 E19.63097
G1 X62.405 Y91.728 E19.82938
G1 X62.406 Y89.505 E19.94029
G1 X62.405 Y85.528 E20.13870
G1 X62.406 Y83.305 E20.24961
G1 X62.405 Y79.328 E20.44802
G1 X62.406 Y77.105 E20.55893
G1 X62.405 Y74.091 E20.70930
G1 X62.408 Y69.206 E20.95301
G1 F2400 E16.95301
G0 F9000 X66.206 Y73.006
;TYPE:WALL-INNER
G1 F2400 E20.95301
G1 F1800 X135.140 Y73.006 E24.39214
G1 X135.147 Y77.422 E24.61246
G1 X135.142 Y78.306 E24.65656
G1 X66.206 Y78.306 E28.09579
G1 X66.206 Y73.006 E28.36021
G0 F9000 X65.806 Y72.606
;TYPE:WALL-OUTER
G1 F1800 X135.539 Y72.606 E31.83920
G1 X135.547 Y77.425 E32.07962
G1 X135.539 Y78.706 E32.14353
G1 X66.471 Y78.706 E35.58935
G1 X66.471 Y101.706 E36.73682
G1 X65.806 Y101.706 E36.77000
G1 X65.806 Y72.606 E38.22181
G0 F9000 X66.345 Y73.416
;TYPE:SKIN
G1 F1800 X71.094 Y78.165 E38.55687
G0 F9000 X70.528 Y78.165
G1 F1800 X66.345 Y73.982 E38.85201
G0 F9000 X66.345 Y74.548
G1 F1800 X69.963 Y78.165 E39.10724
G0 F9000 X69.397 Y78.165
G1 F1800 X66.345 Y75.113 E39.32258
G0 F9000 X66.345 Y75.679
G1 F1800 X68.831 Y78.165 E39.49798
G0 F9000 X68.266 Y78.165
G1 F1800 X66.345 Y76.245 E39.63348
G0 F9000 X66.345 Y76.810
G1 F1800 X67.700 Y78.165 E39.72908
G0 F9000 X67.134 Y78.165
G1 F1800 X66.345 Y77.376 E39.78475
G0 F9000 X66.345 Y77.942
G1 F1800 X66.569 Y78.165 E39.80052
G0 F9000 X66.005 Y78.733
G1 F1800 X66.138 Y79.149 E39.81926
G1 X66.138 Y79.714 E39.83800
G1 X66.138 Y80.280 E39.85671
G1 X66.138 Y80.846 E39.87542
G1 X66.138 Y81.411 E39.89416
G1 X66.138 Y81.977 E39.91287
G1 X66.138 Y82.543 E39.93158
G1 X66.138 Y83.108 E39.95032
G1 X66.138 Y83.674 E39.96903
G1 X66.138 Y84.240 E39.98774
G1 X66.138 Y84.806 E40.00645
G1 X66.138 Y85.371 E40.02512
G1 X66.138 Y85.937 E40.04383
G1 X66.138 Y86.503 E40.06254
G1 X66.138 Y87.068 E40.08121
G1 X66.138 Y87.634 E40.09992
G1 X66.138 Y88.200 E40.11863
G1 X66.138 Y88.765 E40.13737
G1 X66.138 Y89.331 E40.15608
G1 X66.138 Y89.897 E40.17479
G1 X66.138 Y90.462 E40.19353
G1 X66.138 Y91.028 E40.21224
G1 X66.138 Y91.594 E40.23095
G1 X66.138 Y92.159 E40.24969
G1 X66.138 Y92.725 E40.26840
G1 X66.138 Y93.291 E40.28711
G1 X66.138 Y93.857 E40.30581
G1 X66.138 Y94.422 E40.32449
G1 X66.138 Y94.988 E40.34320
G1 X66.138 Y95.554 E40.36190
G1 X66.138 Y96.119 E40.38058
G1 X66.138 Y96.685 E40.39928
G1 X66.138 Y97.251 E40.41799
G1 X66.138 Y97.816 E40.43674
G1 X66.138 Y98.382 E40.45545
G1 X66.138 Y98.948 E40.47415
G1 X66.138 Y99.513 E40.49290
G1 X66.138 Y100.079 E40.51161
G1 X66.138 Y100.645 E40.53031
G1 X66.138 Y101.210 E40.54906
G1 X66.149 Y101.505 E40.56379
G0 F9000 X66.130 Y78.365
G0 X71.660 Y78.165
G1 F1800 X66.640 Y73.145 E40.91797
G0 F9000 X67.206 Y73.145
G1 F1800 X72.226 Y78.165 E41.27216
G0 F9000 X72.791 Y78.165
G1 F1800 X67.771 Y73.145 E41.62635
G0 F9000 X68.337 Y73.145
G1 F1800 X73.357 Y78.165 E41.98054
G0 F9000 X73.923 Y78.165
G1 F1800 X68.903 Y73.145 E42.33473
G0 F9000 X69.468 Y73.145
G1 F1800 X74.488 Y78.165 E42.68891
G0 F9000 X75.054 Y78.165
G1 F1800 X70.034 Y73.145 E43.04310
G0 F9000 X70.600 Y73.145
G1 F1800 X75.620 Y78.165 E43.39729
G0 F9000 X76.185 Y78.165
G1 F1800 X71.166 Y73.145 E43.75144
G0 F9000 X71.731 Y73.145
G1 F1800 X76.751 Y78.165 E44.10563
G0 F9000 X77.317 Y78.165
G1 F1800 X72.297 Y73.145 E44.45982
G0 F9000 X72.863 Y73.145
G1 F1800 X77.882 Y78.165 E44.81397
G0 F9000 X78.448 Y78.165
G1 F1800 X73.428 Y73.145 E45.16816
G0 F9000 X73.994 Y73.145
G1 F1800 X79.014 Y78.165 E45.52235
G0 F9000 X79.579 Y78.165
G1 F1800 X74.560 Y73.145 E45.87650
G0 F9000 X75.125 Y73.145
G1 F1800 X80.145 Y78.165 E46.23069
G0 F9000 X80.711 Y78.165
G1 F1800 X75.691 Y73.145 E46.58488
G0 F9000 X76.257 Y73.145
G1 F1800 X81.276 Y78.165 E46.93903
G0 F9000 X81.842 Y78.165
G1 F1800 X76.822 Y73.145 E47.29322
G0 F9000 X77.388 Y73.145
G1 F1800 X82.408 Y78.165 E47.64741
G0 F9000 X82.974 Y78.165
G1 F1800 X77.954 Y73.145 E48.00159
G0 F9000 X78.519 Y73.145
G1 F1800 X83.539 Y78.165 E48.35578
G0 F9000 X84.105 Y78.165
G1 F1800 X79.085 Y73.145 E48.70997
G0 F9000 X79.651 Y73.145
G1 F1800 X84.671 Y78.165 E49.06416
G0 F9000 X85.236 Y78.165
G1 F1800 X80.217 Y73.145 E49.41831
G0 F9000 X80.782 Y73.145
G1 F1800 X85.802 Y78.165 E49.77250
G0 F9000 X86.368 Y78.165
G1 F1800 X81.348 Y73.145 E50.12669
G0 F9000 X81.914 Y73.145
G1 F1800 X86.933 Y78.165 E50.48084
G0 F9000 X87.499 Y78.165
G1 F1800 X82.479 Y73.145 E50.83503
G0 F9000 X83.045 Y73.145
G1 F1800 X88.065 Y78.165 E51.18922
G0 F9000 X88.630 Y78.165
G1 F1800 X83.611 Y73.145 E51.54337
G0 F9000 X84.176 Y73.145
G1 F1800 X89.196 Y78.165 E51.89756
G0 F9000 X89.762 Y78.165
G1 F1800 X84.742 Y73.145 E52.25175
G0 F9000 X85.308 Y73.145
G1 F1800 X90.327 Y78.165 E52.60590
G0 F9000 X90.893 Y78.165
G1 F1800 X85.873 Y73.145 E52.96009
G0 F9000 X86.439 Y73.145
G1 F1800 X91.459 Y78.165 E53.31428
G0 F9000 X92.024 Y78.165
G1 F1800 X87.005 Y73.145 E53.66843
G0 F9000 X87.570 Y73.145
G1 F1800 X92.590 Y78.165 E54.02262
G0 F9000 X93.156 Y78.165
G1 F1800 X88.136 Y73.145 E54.37680
G0 F9000 X88.702 Y73.145
G1 F1800 X93.722 Y78.165 E54.73099
G0 F9000 X94.287 Y78.165
G1 F1800 X89.267 Y73.145 E55.08518
G0 F9000 X89.833 Y73.145
G1 F1800 X94.853 Y78.165 E55.43937
G0 F9000 X95.419 Y78.165
G1 F1800 X90.399 Y73.145 E55.79356
G0 F9000 X90.965 Y73.145
G1 F1800 X95.984 Y78.165 E56.14771
G0 F9000 X96.550 Y78.165
G1 F1800 X91.530 Y73.145 E56.50190
G0 F9000 X92.096 Y73.145
G1 F1800 X97.116 Y78.165 E56.85609
G0 F9000 X97.681 Y78.165
G1 F1800 X92.662 Y73.145 E57.21024
G0 F9000 X93.227 Y73.145
G1 F1800 X98.247 Y78.165 E57.56443
G0 F9000 X98.813 Y78.165
G1 F1800 X93.793 Y73.145 E57.91862
G0 F9000 X94.359 Y73.145
G1 F1800 X99.378 Y78.165 E58.27277
G0 F9000 X99.944 Y78.165
G1 F1800 X94.924 Y73.145 E58.62696
G0 F9000 X95.490 Y73.145
G1 F1800 X100.510 Y78.165 E58.98114
G0 F9000 X101.075 Y78.165
G1 F1800 X96.056 Y73.145 E59.33530
G0 F9000 X96.621 Y73.145
G1 F1800 X101.641 Y78.165 E59.68949
G0 F9000 X102.207 Y78.165
G1 F1800 X97.187 Y73.145 E60.04367
G0 F9000 X97.753 Y73.145
G1 F1800 X102.773 Y78.165 E60.39786
G0 F9000 X103.338 Y78.165
G1 F1800 X98.318 Y73.145 E60.75205
G0 F9000 X98.884 Y73.145
G1 F1800 X103.904 Y78.165 E61.10624
G0 F9000 X104.470 Y78.165
G1 F1800 X99.450 Y73.145 E61.46043
G0 F9000 X100.016 Y73.145
G1 F1800 X105.035 Y78.165 E61.81458
G0 F9000 X105.601 Y78.165
G1 F1800 X100.581 Y73.145 E62.16877
G0 F9000 X101.147 Y73.145
G1 F1800 X106.167 Y78.165 E62.52295
G0 F9000 X106.732 Y78.165
G1 F1800 X101.713 Y73.145 E62.87711
G0 F9000 X102.278 Y73.145
G1 F1800 X107.298 Y78.165 E63.23130
G0 F9000 X107.864 Y78.165
G1 F1800 X102.844 Y73.145 E63.58548
G0 F9000 X103.410 Y73.145
G1 F1800 X108.429 Y78.165 E63.93964
G0 F9000 X108.995 Y78.165
G1 F1800 X103.975 Y73.145 E64.29382
G0 F9000 X104.541 Y73.145
G1 F1800 X109.561 Y78.165 E64.64801
G0 F9000 X110.126 Y78.165
G1 F1800 X105.107 Y73.145 E65.00217
G0 F9000 X105.672 Y73.145
G1 F1800 X110.692 Y78.165 E65.35635
G0 F9000 X111.258 Y78.165
G1 F1800 X106.238 Y73.145 E65.71054
G0 F9000 X106.804 Y73.145
G1 F1800 X111.823 Y78.165 E66.06469
G0 F9000 X112.389 Y78.165
G1 F1800 X107.369 Y73.145 E66.41888
G0 F9000 X107.935 Y73.145
G1 F1800 X112.955 Y78.165 E66.77307
G0 F9000 X113.521 Y78.165
G1 F1800 X108.501 Y73.145 E67.12726
G0 F9000 X109.066 Y73.145
G1 F1800 X114.086 Y78.165 E67.48145
G0 F9000 X114.652 Y78.165
G1 F1800 X109.632 Y73.145 E67.83564
G0 F9000 X110.198 Y73.145
G1 F1800 X115.218 Y78.165 E68.18982
G0 F9000 X115.783 Y78.165
G1 F1800 X110.764 Y73.145 E68.54398
G0 F9000 X111.329 Y73.145
G1 F1800 X116.349 Y78.165 E68.89816
G0 F9000 X116.915 Y78.165
G1 F1800 X111.895 Y73.145 E69.25235
G0 F9000 X112.461 Y73.145
G1 F1800 X117.480 Y78.165 E69.60651
G0 F9000 X118.046 Y78.165
G1 F1800 X113.026 Y73.145 E69.96069
G0 F9000 X113.592 Y73.145
G1 F1800 X118.612 Y78.165 E70.31488
G0 F9000 X119.177 Y78.165
G1 F1800 X114.158 Y73.145 E70.66903
G0 F9000 X114.723 Y73.145
G1 F1800 X119.743 Y78.165 E71.02322
G0 F9000 X120.309 Y78.165
G1 F1800 X115.289 Y73.145 E71.37741
G0 F9000 X115.855 Y73.145
G1 F1800 X120.874 Y78.165 E71.73156
G0 F9000 X121.440 Y78.165
G1 F1800 X116.420 Y73.145 E72.08575
G0 F9000 X116.986 Y73.145
G1 F1800 X122.006 Y78.165 E72.43994
G0 F9000 X122.572 Y78.165
G1 F1800 X117.552 Y73.145 E72.79413
G0 F9000 X118.117 Y73.145
G1 F1800 X123.137 Y78.165 E73.14832
G0 F9000 X123.703 Y78.165
G1 F1800 X118.683 Y73.145 E73.50250
G0 F9000 X119.249 Y73.145
G1 F1800 X124.269 Y78.165 E73.85669
G0 F9000 X124.834 Y78.165
G1 F1800 X119.815 Y73.145 E74.21085
G0 F9000 X120.380 Y73.145
G1 F1800 X125.400 Y78.165 E74.56503
G0 F9000 X125.966 Y78.165
G1 F1800 X120.946 Y73.145 E74.91922
G0 F9000 X121.512 Y73.145
G1 F1800 X126.531 Y78.165 E75.27337
G0 F9000 X127.097 Y78.165
G1 F1800 X122.077 Y73.145 E75.62756
G0 F9000 X122.643 Y73.145
G1 F1800 X127.663 Y78.165 E75.98175
G0 F9000 X128.228 Y78.165
G1 F1800 X123.209 Y73.145 E76.33590
G0 F9000 X123.774 Y73.145
G1 F1800 X128.794 Y78.165 E76.69009
G0 F9000 X129.360 Y78.165
G1 F1800 X124.340 Y73.145 E77.04428
G0 F9000 X124.906 Y73.145
G1 F1800 X129.925 Y78.165 E77.39843
G0 F9000 X130.491 Y78.165
G1 F1800 X125.471 Y73.145 E77.75262
G0 F9000 X126.037 Y73.145
G1 F1800 X131.057 Y78.165 E78.10681
G0 F9000 X131.622 Y78.165
G1 F1800 X126.603 Y73.145 E78.46096
G0 F9000 X127.168 Y73.145
G1 F1800 X132.188 Y78.165 E78.81515
G0 F9000 X132.754 Y78.165
G1 F1800 X127.734 Y73.145 E79.16934
G0 F9000 X128.300 Y73.145
G1 F1800 X133.320 Y78.165 E79.52353
G0 F9000 X133.885 Y78.165
G1 F1800 X128.865 Y73.145 E79.87771
G0 F9000 X129.431 Y73.145
G1 F1800 X134.451 Y78.165 E80.23190
G0 F9000 X135.002 Y78.150
G1 F1800 X129.997 Y73.145 E80.58503
G0 F9000 X130.563 Y73.145
G1 F1800 X135.002 Y77.585 E80.89826
G0 F9000 X135.002 Y77.019
G1 F1800 X131.128 Y73.145 E81.17159
G0 F9000 X131.694 Y73.145
G1 F1800 X135.001 Y76.453 E81.40496
G0 F9000 X135.001 Y75.887
G1 F1800 X132.260 Y73.145 E81.59838
G0 F9000 X132.825 Y73.145
G1 F1800 X135.000 Y75.321 E81.75188
G0 F9000 X135.000 Y74.755
G1 F1800 X133.391 Y73.145 E81.86544
G0 F9000 X133.957 Y73.145
G1 F1800 X135.000 Y74.188 E81.93903
G0 F9000 X135.000 Y73.623
G1 F1800 X134.522 Y73.145 E81.97275
G1 F2400 E77.97275
G0 F9000 X131.828 Y79.606
;TYPE:SUPPORT
G1 F2400 E81.97275
G1 F1800 X137.928 Y79.606 E82.27708
G1 X137.928 Y101.416 E83.36519
G1 X138.128 Y101.616 E83.37930
G1 X138.128 Y104.812 E83.53875
G1 X135.826 Y105.579 E83.65980
G1 X135.015 Y105.781 E83.70150
G1 X133.221 Y106.380 E83.79586
G1 X132.412 Y106.582 E83.83746
G1 X130.621 Y107.180 E83.93166
G1 X129.812 Y107.382 E83.97326
G1 X128.021 Y107.980 E84.06746
G1 X127.212 Y108.182 E84.10906
G1 X125.421 Y108.780 E84.20327
G1 X124.612 Y108.982 E84.24487
G1 X122.821 Y109.580 E84.33907
G1 X122.012 Y109.782 E84.38067
G1 X120.221 Y110.380 E84.47487
G1 X119.413 Y110.582 E84.51642
G1 X118.222 Y110.980 E84.57907
G1 X117.412 Y111.182 E84.62072
G1 X115.621 Y111.780 E84.71492
G1 X114.812 Y111.982 E84.75652
G1 X113.021 Y112.580 E84.85073
G1 X112.212 Y112.782 E84.89233
G1 X110.421 Y113.380 E84.98653
G1 X109.612 Y113.582 E85.02813
G1 X107.821 Y114.180 E85.12233
G1 X107.012 Y114.382 E85.16393
G1 X105.221 Y114.980 E85.25814
G1 X104.412 Y115.182 E85.29974
G1 X102.621 Y115.780 E85.39394
G1 X101.812 Y115.982 E85.43554
G1 X100.021 Y116.580 E85.52974
G1 X99.213 Y116.782 E85.57129
G1 X98.022 Y117.180 E85.63394
G1 X97.224 Y117.378 E85.67496
G1 X96.701 Y117.553 E85.70248
G1 X95.894 Y117.956 E85.74748
G1 X95.302 Y118.153 E85.77861
G1 X95.043 Y118.282 E85.79304
G1 X94.841 Y118.483 E85.80726
G1 X94.441 Y118.683 E85.82957
G1 X93.840 Y119.282 E85.87190
G1 X93.443 Y119.481 E85.89406
G1 X92.842 Y120.081 E85.93643
G1 X92.442 Y120.281 E85.95874
G1 X91.241 Y121.482 E86.04348
G1 X90.843 Y121.681 E86.06568
G1 X90.039 Y122.484 E86.12237
G1 X88.675 Y123.165 E86.19843
G1 X86.428 Y123.727 E86.31398
G1 X86.428 Y121.616 E86.41930
G1 X86.628 Y121.416 E86.43341
G1 X86.628 Y120.679 E86.47018
G1 X86.216 Y120.781 E86.49136
G1 X85.621 Y120.980 E86.52266
G1 X84.025 Y121.378 E86.60472
G1 X83.418 Y121.581 E86.63665
