;Generated with Cura_SteamEngine 15.01
; Default start code
G28 ; Home extruder
G1 Z15 F100
M107 ; Turn off fan
G90 ; Absolute positioning
M82 ; Extruder in absolute mode
M190 S60
; Activate all used extruder
M104 T0 S225
G92 E0 ; Reset extruder position
; Wait for all used extruders to reach temperature
M109 T0 S225
;Layer count: 150
;LAYER:0
M107
G0 F9000 X78.448 Y64.564 Z0.300
;TYPE:SKIRT
G1 F1800 X79.136 Y63.755 E0.05298
G1 X79.668 Y63.291 E0.08820
G1 X80.246 Y62.884 E0.12347
G1 X81.199 Y62.405 E0.17668
G1 X81.881 Y62.182 E0.21248
G1 X82.426 Y62.063 E0.24031
G1 X84.414 Y61.756 E0.34067
G1 X86.350 Y61.492 E0.43815
G1 X88.289 Y61.264 E0.53555
G1 X90.232 Y61.070 E0.63297
G1 X92.180 Y60.911 E0.73048
G1 X94.129 Y60.788 E0.82791
G1 X96.080 Y60.699 E0.92535
G1 X98.034 Y60.646 E1.02287
G1 X99.851 Y60.630 E1.11352
G1 X99.891 Y60.627 E1.11552
G1 X101.939 Y60.644 E1.21770
G1 X103.893 Y60.697 E1.31522
G1 X105.843 Y60.786 E1.41261
G1 X107.792 Y60.908 E1.51004
G1 X109.740 Y61.066 E1.60754
G1 X111.684 Y61.260 E1.70501
G1 X113.623 Y61.488 E1.80242
G1 X115.560 Y61.752 E1.89995
G1 X117.627 Y62.072 E2.00430
G1 X118.612 Y62.332 E2.05512
G1 X119.278 Y62.623 E2.09138
G1 X119.821 Y62.931 E2.12253
G1 X120.398 Y63.338 E2.15776
G1 X121.174 Y64.086 E2.21153
G1 X121.609 Y64.654 E2.24722
G1 X121.936 Y65.185 E2.27833
G1 X122.206 Y65.736 E2.30895
G1 X122.426 Y66.338 E2.34092
G1 X122.582 Y66.948 E2.37233
G1 X122.684 Y67.643 E2.40738
G1 X122.700 Y133.256 E5.68083
G1 X122.669 Y133.832 E5.70960
G1 X122.553 Y134.554 E5.74609
G1 X122.209 Y135.613 E5.80164
G1 X121.868 Y136.283 E5.83914
G1 X121.509 Y136.832 E5.87187
G1 X121.101 Y137.332 E5.90407
G1 X120.639 Y137.794 E5.93666
G1 X120.128 Y138.203 E5.96932
G1 X119.591 Y138.549 E6.00119
G1 X119.010 Y138.846 E6.03374
G1 X118.399 Y139.077 E6.06633
G1 X117.773 Y139.243 E6.09864
G1 X117.050 Y139.355 E6.13514
G1 X84.259 Y139.371 E7.77109
G1 X83.634 Y139.371 E7.80227
G1 X82.873 Y139.347 E7.84026
G1 X82.192 Y139.237 E7.87467
G1 X81.566 Y139.066 E7.90705
G1 X80.964 Y138.834 E7.93924
G1 X80.384 Y138.537 E7.97175
G1 X79.842 Y138.182 E8.00407
G1 X79.342 Y137.776 E8.03620
G1 X78.883 Y137.317 E8.06859
G1 X78.481 Y136.820 E8.10048
G1 X78.127 Y136.275 E8.13290
G1 X77.826 Y135.683 E8.16604
G1 X77.593 Y135.071 E8.19871
G1 X77.427 Y134.441 E8.23121
G1 X77.316 Y133.722 E8.26751
G1 X77.300 Y68.093 E11.54175
G1 X77.327 Y67.542 E11.56927
G1 X77.435 Y66.842 E11.60461
G1 X77.726 Y65.906 E11.65351
G1 X77.826 Y65.666 E11.66648
G1 X78.075 Y65.158 E11.69471
G1 X78.448 Y64.564 E11.72970
G1 F2400 E7.72970
G0 F9000 X81.520 Y66.817
;TYPE:WALL-INNER
G1 F2400 E11.72970
G1 F1800 X81.847 Y66.434 E11.75483
G1 X82.209 Y66.150 E11.77778
G1 X82.650 Y65.929 E11.80239
G1 X82.881 Y65.853 E11.81452
G1 X84.955 Y65.518 E11.91934
G1 X86.834 Y65.262 E12.01395
G1 X88.705 Y65.041 E12.10794
G1 X90.575 Y64.855 E12.20169
G1 X92.449 Y64.702 E12.29550
G1 X94.341 Y64.582 E12.39008
G1 X96.212 Y64.497 E12.48352
G1 X98.107 Y64.446 E12.57810
G1 X100.013 Y64.429 E12.67319
G1 X101.866 Y64.444 E12.76564
G1 X103.761 Y64.495 E12.86022
G1 X105.632 Y64.580 E12.95366
G1 X107.524 Y64.699 E13.04824
G1 X109.392 Y64.850 E13.14174
G1 X111.268 Y65.037 E13.23580
G1 X113.139 Y65.258 E13.32979
G1 X115.018 Y65.514 E13.42440
G1 X116.852 Y65.798 E13.51699
G1 X117.357 Y65.931 E13.54304
G1 X117.575 Y66.026 E13.55491
G1 X117.780 Y66.143 E13.56668
G1 X117.972 Y66.277 E13.57836
G1 X118.334 Y66.627 E13.60348
G1 X118.474 Y66.809 E13.61494
G1 X118.606 Y67.025 E13.62757
G1 X118.701 Y67.219 E13.63835
G1 X118.793 Y67.470 E13.65168
G1 X118.850 Y67.692 E13.66312
G1 X118.884 Y67.924 E13.67482
G1 X118.900 Y133.158 E16.92935
G1 X118.886 Y133.428 E16.94284
G1 X118.849 Y133.657 E16.95441
G1 X118.687 Y134.156 E16.98059
G1 X118.573 Y134.380 E16.99313
G1 X118.440 Y134.584 E17.00528
G1 X118.277 Y134.783 E17.01811
G1 X118.107 Y134.953 E17.03011
G1 X117.900 Y135.119 E17.04334
G1 X117.470 Y135.366 E17.06808
G1 X116.992 Y135.519 E17.09312
G1 X116.757 Y135.555 E17.10498
G1 X83.704 Y135.571 E18.75401
G1 X83.233 Y135.556 E18.77752
G1 X83.001 Y135.519 E18.78924
G1 X82.754 Y135.451 E18.80202
G1 X82.291 Y135.244 E18.82732
G1 X82.088 Y135.111 E18.83943
G1 X81.886 Y134.947 E18.85241
G1 X81.715 Y134.776 E18.86447
G1 X81.562 Y134.587 E18.87661
G1 X81.307 Y134.143 E18.90215
G1 X81.214 Y133.901 E18.91508
G1 X81.116 Y133.429 E18.93914
G1 X81.100 Y68.171 E22.19487
G1 X81.112 Y67.927 E22.20706
G1 X81.147 Y67.701 E22.21847
G1 X81.297 Y67.219 E22.24365
G1 X81.520 Y66.817 E22.26659
G0 F9000 X81.055 Y66.805
;TYPE:WALL-OUTER
G1 F1800 X81.195 Y66.581 E22.27977
G1 X81.559 Y66.154 E22.30776
G1 X81.773 Y65.967 E22.32194
G1 X81.997 Y65.810 E22.33558
G1 X82.502 Y65.556 E22.36379
G1 X82.777 Y65.466 E22.37822
G1 X83.042 Y65.408 E22.39176
G1 X84.905 Y65.121 E22.48580
G1 X86.776 Y64.866 E22.58001
G1 X88.658 Y64.644 E22.67455
G1 X90.541 Y64.456 E22.76896
G1 X92.424 Y64.302 E22.86322
G1 X94.316 Y64.183 E22.95780
G1 X96.205 Y64.097 E23.05214
G1 X98.096 Y64.046 E23.14651
G1 X99.996 Y64.029 E23.24131
G1 X101.877 Y64.044 E23.33515
G1 X103.768 Y64.095 E23.42953
G1 X105.657 Y64.181 E23.52387
G1 X107.549 Y64.300 E23.61845
G1 X109.432 Y64.452 E23.71270
G1 X111.315 Y64.640 E23.80711
G1 X113.197 Y64.862 E23.90165
G1 X115.068 Y65.116 E23.99585
G1 X116.938 Y65.407 E24.09027
G1 X117.490 Y65.552 E24.11875
G1 X117.750 Y65.666 E24.13291
G1 X117.999 Y65.807 E24.14718
G1 X118.227 Y65.967 E24.16108
G1 X118.629 Y66.355 E24.18896
G1 X118.809 Y66.590 E24.20372
G1 X118.950 Y66.818 E24.21710
G1 X119.071 Y67.065 E24.23082
G1 X119.173 Y67.345 E24.24569
G1 X119.284 Y67.893 E24.27358
G1 X119.300 Y133.160 E27.52977
G1 X119.283 Y133.476 E27.54555
G1 X119.239 Y133.752 E27.55950
G1 X119.058 Y134.309 E27.58872
G1 X118.920 Y134.581 E27.60393
G1 X118.764 Y134.819 E27.61813
G1 X118.573 Y135.053 E27.63320
G1 X118.372 Y135.254 E27.64738
G1 X117.895 Y135.598 E27.67672
G1 X117.633 Y135.731 E27.69138
G1 X117.354 Y135.837 E27.70627
G1 X117.081 Y135.909 E27.72036
G1 X116.786 Y135.955 E27.73525
G1 X83.691 Y135.971 E29.38637
G1 X83.195 Y135.955 E29.41113
G1 X82.918 Y135.911 E29.42512
G1 X82.631 Y135.832 E29.43997
G1 X82.351 Y135.724 E29.45494
G1 X81.851 Y135.434 E29.48378
G1 X81.618 Y135.245 E29.49875
G1 X81.421 Y135.048 E29.51265
G1 X81.236 Y134.819 E29.52734
G1 X81.076 Y134.572 E29.54202
G1 X80.940 Y134.304 E29.55701
G1 X80.833 Y134.025 E29.57192
G1 X80.762 Y133.753 E29.58594
G1 X80.716 Y133.458 E29.60084
G1 X80.700 Y68.181 E32.85752
G1 X80.715 Y67.878 E32.87266
G1 X80.757 Y67.608 E32.88629
G1 X80.922 Y67.077 E32.91403
G1 X81.055 Y66.805 E32.92914
G0 F9000 X81.523 Y67.098
;TYPE:SKIN
G1 F1800 X118.752 Y104.327 E35.55584
G0 F9000 X118.752 Y103.762
G1 F1800 X81.750 Y66.760 E38.16654
G0 F9000 X82.026 Y66.470
G1 F1800 X118.752 Y103.195 E40.75772
G0 F9000 X118.752 Y102.630
G1 F1800 X82.356 Y66.233 E43.32569
G0 F9000 X82.735 Y66.048
G1 F1800 X118.752 Y102.064 E45.86685
G0 F9000 X118.752 Y101.498
G1 F1800 X83.197 Y65.944 E48.37541
G0 F9000 X83.684 Y65.865
G1 F1800 X118.752 Y100.933 E50.84964
G0 F9000 X118.751 Y100.366
G1 F1800 X84.171 Y65.787 E53.28942
G0 F9000 X84.658 Y65.707
G1 F1800 X118.751 Y99.801 E55.69490
G0 F9000 X118.751 Y99.235
G1 F1800 X85.149 Y65.632 E58.06573
G0 F9000 X85.646 Y65.565
G1 F1800 X118.751 Y98.669 E60.40143
G0 F9000 X118.751 Y98.103
G1 F1800 X86.144 Y65.497 E62.70200
G0 F9000 X86.642 Y65.429
G1 F1800 X118.750 Y97.537 E64.96739
G0 F9000 X118.750 Y96.971
G1 F1800 X87.145 Y65.366 E67.19730
G0 F9000 X87.651 Y65.306
G1 F1800 X118.750 Y96.406 E69.39153
G0 F9000 X118.750 Y95.840
G1 F1800 X88.157 Y65.247 E71.55003
G0 F9000 X88.663 Y65.187
G1 F1800 X118.750 Y95.274 E73.67284
G0 F9000 X118.750 Y94.708
G1 F1800 X89.176 Y65.135 E75.75941
G0 F9000 X89.691 Y65.084
G1 F1800 X118.750 Y94.142 E77.80964
G0 F9000 X118.750 Y93.577
G1 F1800 X90.205 Y65.032 E79.82364
G0 F9000 X90.721 Y64.983
G1 F1800 X118.750 Y93.011 E81.80121
G0 F9000 X118.750 Y92.445
G1 F1800 X91.245 Y64.940 E83.74183
G0 F9000 X91.767 Y64.897
G1 F1800 X118.749 Y91.879 E85.64556
G0 F9000 X118.749 Y91.313
G1 F1800 X92.290 Y64.855 E87.51235
G0 F9000 X92.821 Y64.819
G1 F1800 X118.749 Y90.747 E89.34171
G0 F9000 X118.749 Y90.182
G1 F1800 X93.352 Y64.785 E91.13360
G0 F9000 X93.884 Y64.751
G1 F1800 X118.748 Y89.615 E92.88789
G0 F9000 X118.748 Y89.050
G1 F1800 X94.417 Y64.719 E94.60458
G0 F9000 X94.958 Y64.694
G1 F1800 X118.748 Y88.484 E96.28309
G0 F9000 X118.748 Y87.918
G1 F1800 X95.500 Y64.670 E97.92336
G0 F9000 X96.041 Y64.645
G1 F1800 X118.748 Y87.353 E99.52550
G0 F9000 X118.747 Y86.786
G1 F1800 X96.588 Y64.627 E101.08894
G0 F9000 X97.139 Y64.612
G1 F1800 X118.747 Y86.221 E102.61353
G0 F9000 X118.747 Y85.655
G1 F1800 X97.690 Y64.597 E104.09925
G0 F9000 X98.244 Y64.585
G1 F1800 X118.747 Y85.089 E105.54589
G0 F9000 X118.747 Y84.524
G1 F1800 X98.804 Y64.580 E106.95301
G0 F9000 X99.365 Y64.575
G1 F1800 X118.747 Y83.957 E108.32051
G0 F9000 X118.747 Y83.391
G1 F1800 X99.926 Y64.570 E109.64843
G0 F9000 X81.356 Y67.496
G1 F1800 X118.752 Y104.893 E112.28696
G0 F9000 X118.752 Y105.459
G1 F1800 X81.250 Y67.956 E114.93296
G0 F9000 X81.238 Y68.510
G1 F1800 X118.753 Y106.025 E117.57985
G0 F9000 X118.753 Y106.591
G1 F1800 X81.238 Y69.076 E120.22674
G0 F9000 X81.238 Y69.642
G1 F1800 X118.753 Y107.157 E122.87362
G0 F9000 X118.753 Y107.722
G1 F1800 X81.238 Y70.207 E125.52051
G0 F9000 X81.238 Y70.773
G1 F1800 X118.753 Y108.288 E128.16739
G0 F9000 X118.754 Y108.854
G1 F1800 X81.239 Y71.340 E130.81424
G0 F9000 X81.239 Y71.905
G1 F1800 X118.754 Y109.420 E133.46113
G0 F9000 X118.754 Y109.986
G1 F1800 X81.239 Y72.471 E136.10802
G0 F9000 X81.239 Y73.037
G1 F1800 X118.754 Y110.551 E138.75487
G0 F9000 X118.754 Y111.117
G1 F1800 X81.239 Y73.602 E141.40175
G0 F9000 X81.240 Y74.169
G1 F1800 X118.755 Y111.683 E144.04860
G0 F9000 X118.755 Y112.249
G1 F1800 X81.240 Y74.734 E146.69549
G0 F9000 X81.240 Y75.300
G1 F1800 X118.755 Y112.815 E149.34237
G0 F9000 X118.755 Y113.381
G1 F1800 X81.240 Y75.866 E151.98926
G0 F9000 X81.240 Y76.432
G1 F1800 X118.755 Y113.946 E154.63611
G0 F9000 X118.755 Y114.513
G1 F1800 X81.240 Y76.998 E157.28300
G0 F9000 X81.240 Y77.563
G1 F1800 X118.755 Y115.078 E159.92988
G0 F9000 X118.755 Y115.644
G1 F1800 X81.240 Y78.129 E162.57677
G0 F9000 X81.240 Y78.695
G1 F1800 X118.755 Y116.210 E165.22365
G0 F9000 X118.755 Y116.775
G1 F1800 X81.241 Y79.261 E167.87047
G0 F9000 X81.241 Y79.827
G1 F1800 X118.756 Y117.342 E170.51736
G0 F9000 X118.756 Y117.907
G1 F1800 X81.241 Y80.393 E173.16421
G0 F9000 X81.241 Y80.958
G1 F1800 X118.756 Y118.473 E175.81109
G0 F9000 X118.756 Y119.039
G1 F1800 X81.241 Y81.524 E178.45798
G0 F9000 X81.242 Y82.090
G1 F1800 X118.757 Y119.605 E181.10486
G0 F9000 X118.757 Y120.171
G1 F1800 X81.242 Y82.656 E183.75175
G0 F9000 X81.242 Y83.222
G1 F1800 X118.757 Y120.737 E186.39864
G0 F9000 X118.757 Y121.302
G1 F1800 X81.242 Y83.787 E189.04552
G0 F9000 X81.242 Y84.353
G1 F1800 X118.757 Y121.868 E191.69241
G0 F9000 X118.757 Y122.434
G1 F1800 X81.243 Y84.919 E194.33926
G0 F9000 X81.243 Y85.485
G1 F1800 X118.757 Y123.000 E196.98611
G0 F9000 X118.757 Y123.566
G1 F1800 X81.243 Y86.051 E199.63296
G0 F9000 X81.243 Y86.617
G1 F1800 X118.757 Y124.131 E202.27977
G0 F9000 X118.757 Y124.697
G1 F1800 X81.243 Y87.182 E204.92662
G0 F9000 X81.243 Y87.749
G1 F1800 X118.758 Y125.263 E207.57348
G0 F9000 X118.758 Y125.829
G1 F1800 X81.243 Y88.314 E210.22036
G0 F9000 X81.243 Y88.880
G1 F1800 X118.758 Y126.395 E212.86725
G0 F9000 X118.758 Y126.961
G1 F1800 X81.243 Y89.446 E215.51413
G0 F9000 X81.244 Y90.012
G1 F1800 X118.758 Y127.526 E218.16095
G0 F9000 X118.759 Y128.093
G1 F1800 X81.244 Y90.578 E220.80783
G0 F9000 X81.244 Y91.143
G1 F1800 X118.759 Y128.658 E223.45472
G0 F9000 X118.759 Y129.224
G1 F1800 X81.244 Y91.709 E226.10161
G0 F9000 X81.244 Y92.275
G1 F1800 X118.759 Y129.790 E228.74849
G0 F9000 X118.759 Y130.355
G1 F1800 X81.245 Y92.841 E231.39531
G0 F9000 X81.245 Y93.407
G1 F1800 X118.759 Y130.922 E234.04216
G0 F9000 X118.759 Y131.487
G1 F1800 X81.245 Y93.973 E236.68897
G0 F9000 X81.245 Y94.538
G1 F1800 X118.759 Y132.053 E239.33582
G0 F9000 X118.759 Y132.619
G1 F1800 X81.245 Y95.104 E241.98267
G0 F9000 X81.245 Y95.670
G1 F1800 X118.758 Y133.183 E244.62942
G0 F9000 X118.694 Y133.684
G1 F1800 X81.245 Y96.236 E247.27161
G0 F9000 X81.245 Y96.802
G1 F1800 X118.553 Y134.109 E249.90386
G0 F9000 X118.347 Y134.469
G1 F1800 X81.245 Y97.367 E252.52160
G0 F9000 X81.245 Y97.933
G1 F1800 X118.087 Y134.775 E255.12101
G0 F9000 X117.775 Y135.029
G1 F1800 X81.246 Y98.499 E257.69836
G0 F9000 X81.246 Y99.065
G1 F1800 X117.415 Y135.234 E260.25028
G0 F9000 X116.987 Y135.372
G1 F1800 X81.246 Y99.631 E262.77200
G0 F9000 X81.246 Y100.197
G1 F1800 X116.464 Y135.414 E265.25678
G0 F9000 X115.898 Y135.414
G1 F1800 X81.246 Y100.762 E267.70167
G0 F9000 X81.247 Y101.329
G1 F1800 X115.332 Y135.414 E270.10655
G0 F9000 X114.767 Y135.415
G1 F1800 X81.247 Y101.894 E272.47160
G0 F9000 X81.247 Y102.460
G1 F1800 X114.201 Y135.415 E274.79672
G0 F9000 X113.637 Y135.415
G1 F1800 X81.247 Y103.026 E277.08198
G0 F9000 X81.247 Y103.592
G1 F1800 X113.071 Y135.415 E279.32730
G0 F9000 X112.505 Y135.415
G1 F1800 X81.247 Y104.158 E281.53268
G0 F9000 X81.247 Y104.723
G1 F1800 X111.940 Y135.416 E283.69824
G0 F9000 X111.374 Y135.416
G1 F1800 X81.247 Y105.289 E285.82386
G0 F9000 X81.247 Y105.855
G1 F1800 X110.809 Y135.416 E287.90958
G0 F9000 X110.244 Y135.417
G1 F1800 X81.248 Y106.421 E289.95541
G0 F9000 X81.248 Y106.987
G1 F1800 X109.678 Y135.417 E291.96130
G0 F9000 X109.113 Y135.418
G1 F1800 X81.248 Y107.553 E293.92732
G0 F9000 X81.248 Y108.118
G1 F1800 X108.547 Y135.418 E295.85345
G0 F9000 X107.982 Y135.418
G1 F1800 X81.248 Y108.684 E297.73968
G0 F9000 X81.249 Y109.250
G1 F1800 X107.417 Y135.418 E299.58597
G0 F9000 X106.851 Y135.418
G1 F1800 X81.249 Y109.816 E301.39233
G0 F9000 X81.249 Y110.382
G1 F1800 X106.285 Y135.418 E303.15876
G0 F9000 X105.720 Y135.419
G1 F1800 X81.249 Y110.947 E304.88535
G0 F9000 X81.249 Y111.513
G1 F1800 X105.155 Y135.419 E306.57205
G0 F9000 X104.590 Y135.420
G1 F1800 X81.250 Y112.079 E308.21885
G0 F9000 X81.250 Y112.645
G1 F1800 X104.024 Y135.420 E309.82571
G0 F9000 X103.458 Y135.420
G1 F1800 X81.250 Y113.211 E311.39264
G0 F9000 X81.250 Y113.777
G1 F1800 X102.893 Y135.420 E312.91967
G0 F9000 X102.328 Y135.420
G1 F1800 X81.250 Y114.342 E314.40684
G0 F9000 X81.250 Y114.909
G1 F1800 X101.762 Y135.420 E315.85404
G0 F9000 X101.197 Y135.421
G1 F1800 X81.250 Y115.474 E317.26141
G0 F9000 X81.250 Y116.040
G1 F1800 X100.631 Y135.421 E318.62884
G0 F9000 X100.066 Y135.422
G1 F1800 X81.250 Y116.606 E319.95641
G0 F9000 X81.251 Y117.172
G1 F1800 X99.501 Y135.422 E321.24405
G0 F9000 X98.935 Y135.422
G1 F1800 X81.251 Y117.738 E322.49175
G0 F9000 X81.251 Y118.303
G1 F1800 X98.370 Y135.422 E323.69959
G0 F9000 X97.804 Y135.422
G1 F1800 X81.251 Y118.869 E324.86749
G0 F9000 X81.251 Y119.435
G1 F1800 X97.239 Y135.422 E325.99549
G0 F9000 X96.674 Y135.423
G1 F1800 X81.252 Y120.001 E327.08360
G0 F9000 X81.252 Y120.567
G1 F1800 X96.108 Y135.423 E328.13177
G0 F9000 X95.543 Y135.424
G1 F1800 X81.252 Y121.133 E329.14008
G0 F9000 X81.252 Y121.698
G1 F1800 X94.977 Y135.424 E330.10849
G0 F9000 X94.412 Y135.424
G1 F1800 X81.252 Y122.264 E331.03700
G0 F9000 X81.252 Y122.830
G1 F1800 X93.847 Y135.425 E331.92564
G0 F9000 X93.281 Y135.425
G1 F1800 X81.252 Y123.396 E332.77435
G0 F9000 X81.252 Y123.962
G1 F1800 X92.716 Y135.425 E333.58316
G0 F9000 X92.150 Y135.425
G1 F1800 X81.252 Y124.527 E334.35208
G0 F9000 X81.252 Y125.093
G1 F1800 X91.585 Y135.425 E335.08109
G0 F9000 X91.020 Y135.426
G1 F1800 X81.253 Y125.659 E335.77020
G0 F9000 X81.253 Y126.225
G1 F1800 X90.454 Y135.426 E336.41939
G0 F9000 X89.888 Y135.426
G1 F1800 X81.253 Y126.791 E337.02863
G0 F9000 X81.253 Y127.357
G1 F1800 X89.323 Y135.427 E337.59801
G0 F9000 X88.758 Y135.427
G1 F1800 X81.253 Y127.922 E338.12753
G0 F9000 X81.254 Y128.489
G1 F1800 X88.193 Y135.427 E338.61708
G0 F9000 X87.627 Y135.427
G1 F1800 X81.254 Y129.054 E339.06673
G0 F9000 X81.254 Y129.620
G1 F1800 X87.061 Y135.427 E339.47644
G0 F9000 X86.496 Y135.428
G1 F1800 X81.254 Y130.186 E339.84630
G0 F9000 X81.255 Y130.752
G1 F1800 X85.931 Y135.428 E340.17621
