;Generated with Cura_SteamEngine 15.01
; Default start code
G28 ; Home extruder
G1 Z15 F100
M107 ; Turn off fan
G90 ; Absolute positioning
M82 ; Extruder in absolute mode
M190 S60
; Activate all used extruder
M104 T0 S225
G92 E0 ; Reset extruder position
; Wait for all used extruders to reach temperature
M109 T0 S225
;Layer count: 195
;LAYER:0
M107
G0 F9000 X66.676 Y69.107 Z0.300
;TYPE:SKIRT
G1 F1800 X71.032 Y66.928 E0.24300
G1 X74.575 Y66.928 E0.41976
G1 X76.760 Y68.021 E0.54164
G1 X77.363 Y68.622 E0.58412
G1 X79.354 Y69.617 E0.69516
G1 X79.354 Y71.013 E0.76481
G1 X79.554 Y71.213 E0.77892
G1 X79.554 Y71.613 E0.79888
G1 X79.754 Y71.813 E0.81299
G1 X79.754 Y72.213 E0.83294
G1 X79.954 Y72.413 E0.84706
G1 X79.954 Y72.813 E0.86701
G1 X80.154 Y73.013 E0.88112
G1 X80.154 Y73.413 E0.90108
G1 X80.354 Y73.613 E0.91519
G1 X80.354 Y73.925 E0.93076
G1 X81.767 Y74.026 E1.00143
G1 X84.354 Y76.613 E1.18396
G1 X84.354 Y77.013 E1.20391
G1 X84.554 Y77.213 E1.21802
G1 X84.554 Y77.613 E1.23798
G1 X84.754 Y77.813 E1.25209
G1 X84.754 Y78.213 E1.27205
G1 X84.954 Y78.413 E1.28616
G1 X84.954 Y79.013 E1.31609
G1 X85.154 Y79.213 E1.33020
G1 X85.154 Y79.613 E1.35016
G1 X85.354 Y79.813 E1.36427
G1 X85.354 Y80.213 E1.38423
G1 X85.554 Y80.413 E1.39834
G1 X85.554 Y80.813 E1.41829
G1 X85.754 Y81.013 E1.43241
G1 X85.754 Y81.613 E1.46234
G1 X85.954 Y81.813 E1.47645
G1 X85.954 Y82.213 E1.49641
G1 X86.154 Y82.413 E1.51052
G1 X86.154 Y82.813 E1.53047
G1 X86.354 Y83.013 E1.54459
G1 X86.354 Y83.613 E1.57452
G1 X86.554 Y83.813 E1.58863
G1 X86.554 Y84.213 E1.60859
G1 X86.754 Y84.413 E1.62270
G1 X86.754 Y84.813 E1.64265
G1 X86.954 Y85.013 E1.65676
G1 X86.954 Y85.413 E1.67672
G1 X87.154 Y85.613 E1.69083
G1 X87.154 Y86.213 E1.72077
G1 X87.354 Y86.413 E1.73488
G1 X87.354 Y86.813 E1.75483
G1 X87.554 Y87.013 E1.76894
G1 X87.554 Y87.413 E1.78890
G1 X87.754 Y87.613 E1.80301
G1 X87.754 Y88.213 E1.83295
G1 X87.954 Y88.413 E1.84706
G1 X87.954 Y88.813 E1.86701
G1 X88.154 Y89.013 E1.88112
G1 X88.154 Y89.413 E1.90108
G1 X88.354 Y89.613 E1.91519
G1 X88.354 Y90.013 E1.93515
G1 X88.554 Y90.213 E1.94926
G1 X88.554 Y90.813 E1.97919
G1 X88.754 Y91.013 E1.99330
G1 X88.754 Y91.413 E2.01326
G1 X88.954 Y91.613 E2.02737
G1 X88.954 Y92.013 E2.04733
G1 X89.154 Y92.213 E2.06144
G1 X89.154 Y92.613 E2.08139
G1 X89.354 Y92.813 E2.09550
G1 X89.354 Y93.413 E2.12544
G1 X89.554 Y93.613 E2.13955
G1 X89.554 Y94.013 E2.15951
G1 X89.754 Y94.213 E2.17362
G1 X89.754 Y94.613 E2.19357
G1 X89.954 Y94.813 E2.20768
G1 X89.954 Y95.413 E2.23762
G1 X90.154 Y95.613 E2.25173
G1 X90.154 Y96.013 E2.27169
G1 X90.354 Y96.213 E2.28580
G1 X90.354 Y96.613 E2.30575
G1 X90.554 Y96.813 E2.31986
G1 X90.554 Y97.213 E2.33982
G1 X90.754 Y97.413 E2.35393
G1 X90.754 Y98.013 E2.38386
G1 X90.954 Y98.213 E2.39798
G1 X90.954 Y98.613 E2.41793
G1 X91.154 Y98.813 E2.43204
G1 X91.154 Y99.213 E2.45200
G1 X91.354 Y99.413 E2.46611
G1 X91.354 Y100.013 E2.49604
G1 X91.554 Y100.213 E2.51016
G1 X91.554 Y100.613 E2.53011
G1 X91.754 Y100.813 E2.54422
G1 X91.754 Y101.213 E2.56418
G1 X91.954 Y101.413 E2.57829
G1 X91.954 Y101.813 E2.59825
G1 X92.154 Y102.013 E2.61236
G1 X92.154 Y102.613 E2.64229
G1 X92.354 Y102.813 E2.65640
G1 X92.354 Y103.213 E2.67636
G1 X92.554 Y103.413 E2.69047
G1 X92.554 Y103.813 E2.71043
G1 X92.754 Y104.013 E2.72454
G1 X92.754 Y104.613 E2.75447
G1 X92.954 Y104.813 E2.76858
G1 X92.954 Y105.213 E2.78854
G1 X93.154 Y105.413 E2.80265
G1 X93.154 Y105.813 E2.82261
G1 X93.354 Y106.013 E2.83672
G1 X93.354 Y106.413 E2.85667
G1 X93.554 Y106.613 E2.87078
G1 X93.554 Y107.213 E2.90072
G1 X93.754 Y107.413 E2.91483
G1 X93.754 Y107.813 E2.93478
G1 X93.954 Y108.013 E2.94890
G1 X93.954 Y108.413 E2.96885
G1 X94.154 Y108.613 E2.98296
G1 X94.154 Y109.013 E3.00292
G1 X94.354 Y109.213 E3.01703
G1 X94.354 Y109.813 E3.04696
G1 X94.554 Y110.013 E3.06108
G1 X94.554 Y110.413 E3.08103
G1 X94.754 Y110.613 E3.09514
G1 X94.754 Y111.013 E3.11510
G1 X94.954 Y111.213 E3.12921
G1 X94.954 Y111.813 E3.15914
G1 X95.154 Y112.013 E3.17325
G1 X95.154 Y112.413 E3.19321
G1 X95.354 Y112.613 E3.20732
G1 X95.354 Y113.013 E3.22728
G1 X95.554 Y113.213 E3.24139
G1 X95.554 Y113.613 E3.26135
G1 X95.754 Y113.813 E3.27546
G1 X95.754 Y114.413 E3.30539
G1 X95.954 Y114.613 E3.31950
G1 X95.954 Y115.013 E3.33946
G1 X96.154 Y115.213 E3.35357
G1 X96.154 Y115.613 E3.37352
G1 X96.354 Y115.813 E3.38764
G1 X96.354 Y116.413 E3.41757
G1 X96.554 Y116.613 E3.43168
G1 X96.554 Y117.013 E3.45164
G1 X96.754 Y117.213 E3.46575
G1 X96.754 Y117.613 E3.48570
G1 X96.954 Y117.813 E3.49982
G1 X96.954 Y118.213 E3.51977
G1 X97.154 Y118.413 E3.53388
G1 X97.154 Y119.013 E3.56382
G1 X97.354 Y119.213 E3.57793
G1 X97.354 Y119.613 E3.59788
G1 X97.554 Y119.813 E3.61199
G1 X97.554 Y120.213 E3.63195
G1 X97.754 Y120.413 E3.64606
G1 X97.754 Y120.813 E3.66602
G1 X97.954 Y121.013 E3.68013
G1 X97.954 Y121.613 E3.71006
G1 X98.154 Y121.813 E3.72417
G1 X98.154 Y122.213 E3.74413
G1 X98.354 Y122.413 E3.75824
G1 X98.354 Y122.813 E3.77820
G1 X98.554 Y123.013 E3.79231
G1 X98.554 Y123.613 E3.82224
G1 X98.754 Y123.813 E3.83635
G1 X98.754 Y124.213 E3.85631
G1 X98.954 Y124.413 E3.87042
G1 X98.954 Y124.813 E3.89038
G1 X99.154 Y125.013 E3.90449
G1 X99.154 Y125.413 E3.92444
G1 X99.354 Y125.613 E3.93856
G1 X99.354 Y126.213 E3.96849
G1 X99.554 Y126.413 E3.98260
G1 X99.554 Y126.813 E4.00256
G1 X99.754 Y127.013 E4.01667
G1 X99.754 Y127.413 E4.03662
G1 X99.869 Y127.528 E4.04474
G1 X117.745 Y127.528 E4.93657
G1 X117.745 Y69.871 E7.81309
G1 X94.745 Y69.871 E8.96057
G1 X94.745 Y62.407 E9.33295
G1 X101.923 Y62.405 E9.69106
G1 X104.145 Y62.406 E9.80192
G1 X108.123 Y62.405 E10.00038
G1 X110.345 Y62.406 E10.11124
G1 X114.323 Y62.405 E10.30970
G1 X116.545 Y62.406 E10.42056
G1 X120.523 Y62.405 E10.61902
G1 X122.745 Y62.406 E10.72988
G1 X125.760 Y62.405 E10.88029
G1 X130.645 Y62.408 E11.12401
G1 X130.645 Y138.933 E14.94186
G1 X124.145 Y138.945 E15.26614
G1 X124.145 Y141.128 E15.37505
G1 X91.454 Y141.128 E17.00601
G1 X91.454 Y138.243 E17.14995
G1 X91.254 Y138.043 E17.16406
G1 X91.254 Y137.643 E17.18401
G1 X91.054 Y137.443 E17.19812
G1 X91.054 Y137.043 E17.21808
G1 X90.854 Y136.843 E17.23219
G1 X90.854 Y136.243 E17.26213
G1 X90.654 Y136.043 E17.27624
G1 X90.654 Y135.643 E17.29619
G1 X90.454 Y135.443 E17.31030
G1 X90.454 Y135.043 E17.33026
G1 X90.254 Y134.843 E17.34437
G1 X90.254 Y134.243 E17.37431
G1 X90.054 Y134.043 E17.38842
G1 X90.054 Y133.643 E17.40837
G1 X89.854 Y133.443 E17.42248
G1 X89.854 Y133.043 E17.44244
G1 X89.654 Y132.843 E17.45655
G1 X89.654 Y132.443 E17.47651
G1 X89.454 Y132.243 E17.49062
G1 X89.454 Y131.643 E17.52055
G1 X89.254 Y131.443 E17.53466
G1 X89.254 Y131.043 E17.55462
G1 X89.054 Y130.843 E17.56873
G1 X89.054 Y130.443 E17.58869
G1 X88.854 Y130.243 E17.60280
G1 X88.854 Y129.643 E17.63273
G1 X88.654 Y129.443 E17.64684
G1 X88.654 Y129.043 E17.66680
G1 X88.454 Y128.843 E17.68091
G1 X88.454 Y128.443 E17.70087
G1 X88.254 Y128.243 E17.71498
G1 X88.254 Y127.643 E17.74491
G1 X88.054 Y127.443 E17.75902
G1 X88.054 Y127.043 E17.77898
G1 X87.854 Y126.843 E17.79309
G1 X87.854 Y126.443 E17.81305
G1 X87.654 Y126.243 E17.82716
G1 X87.654 Y125.843 E17.84711
G1 X87.454 Y125.643 E17.86122
G1 X87.454 Y125.043 E17.89116
G1 X87.254 Y124.843 E17.90527
G1 X87.254 Y124.443 E17.92523
G1 X87.054 Y124.243 E17.93934
G1 X87.054 Y123.843 E17.95929
G1 X86.854 Y123.643 E17.97340
G1 X86.854 Y123.043 E18.00334
G1 X86.654 Y122.843 E18.01745
G1 X86.654 Y122.443 E18.03740
G1 X86.454 Y122.243 E18.05152
G1 X86.454 Y121.843 E18.07147
G1 X86.254 Y121.643 E18.08558
G1 X86.254 Y121.243 E18.10554
G1 X86.054 Y121.043 E18.11965
G1 X86.054 Y120.443 E18.14958
G1 X85.854 Y120.243 E18.16370
G1 X85.854 Y119.843 E18.18365
G1 X85.654 Y119.643 E18.19776
G1 X85.654 Y119.243 E18.21772
G1 X85.454 Y119.043 E18.23183
G1 X85.454 Y118.443 E18.26176
G1 X85.254 Y118.243 E18.27587
G1 X85.254 Y117.843 E18.29583
G1 X85.054 Y117.643 E18.30994
G1 X85.054 Y117.243 E18.32990
G1 X84.854 Y117.043 E18.34401
G1 X84.854 Y116.443 E18.37394
G1 X84.654 Y116.243 E18.38805
G1 X84.654 Y115.843 E18.40801
G1 X84.454 Y115.643 E18.42212
G1 X84.454 Y115.243 E18.44208
G1 X84.254 Y115.043 E18.45619
G1 X84.254 Y114.643 E18.47614
G1 X84.054 Y114.443 E18.49026
G1 X84.054 Y113.843 E18.52019
G1 X83.854 Y113.643 E18.53430
G1 X83.854 Y113.243 E18.55426
G1 X83.654 Y113.043 E18.56837
G1 X83.654 Y112.643 E18.58832
G1 X83.454 Y112.443 E18.60244
G1 X83.454 Y111.843 E18.63237
G1 X83.254 Y111.643 E18.64648
G1 X83.254 Y111.243 E18.66644
G1 X83.054 Y111.043 E18.68055
G1 X83.054 Y110.643 E18.70050
G1 X82.854 Y110.443 E18.71461
G1 X82.854 Y110.043 E18.73457
G1 X82.654 Y109.843 E18.74868
G1 X82.654 Y109.243 E18.77862
G1 X82.454 Y109.043 E18.79273
G1 X82.454 Y108.643 E18.81268
G1 X82.254 Y108.443 E18.82679
G1 X82.254 Y108.043 E18.84675
G1 X82.054 Y107.843 E18.86086
G1 X82.054 Y107.243 E18.89080
G1 X81.854 Y107.043 E18.90491
G1 X81.854 Y106.643 E18.92486
G1 X81.654 Y106.443 E18.93897
G1 X81.654 Y106.043 E18.95893
G1 X81.454 Y105.843 E18.97304
G1 X81.454 Y105.243 E19.00298
G1 X81.254 Y105.043 E19.01709
G1 X81.254 Y104.643 E19.03704
G1 X81.054 Y104.443 E19.05115
G1 X81.054 Y104.043 E19.07111
G1 X80.854 Y103.843 E19.08522
G1 X80.854 Y103.443 E19.10518
G1 X80.654 Y103.243 E19.11929
G1 X80.654 Y102.643 E19.14922
G1 X80.454 Y102.443 E19.16333
G1 X80.454 Y102.043 E19.18329
G1 X80.254 Y101.843 E19.19740
G1 X80.254 Y101.443 E19.21736
G1 X80.054 Y101.243 E19.23147
G1 X80.054 Y100.643 E19.26140
G1 X79.854 Y100.443 E19.27551
G1 X79.854 Y100.043 E19.29547
G1 X79.654 Y99.843 E19.30958
G1 X79.654 Y99.443 E19.32954
G1 X79.454 Y99.243 E19.34365
G1 X79.454 Y98.840 E19.36375
G1 X79.054 Y98.439 E19.39201
G1 X79.054 Y98.243 E19.40179
G1 X78.854 Y98.043 E19.41590
G1 X78.854 Y97.440 E19.44598
G1 X78.454 Y97.039 E19.47424
G1 X78.454 Y96.843 E19.48402
G1 X78.254 Y96.643 E19.49813
G1 X78.254 Y96.440 E19.50826
G1 X77.854 Y96.039 E19.53652
G1 X77.854 Y95.840 E19.54644
G1 X77.454 Y95.439 E19.57470
G1 X77.454 Y95.243 E19.58448
G1 X76.454 Y94.242 E19.65507
G1 X76.454 Y94.040 E19.66515
G1 X76.054 Y93.639 E19.69341
G1 X76.054 Y93.443 E19.70318
G1 X75.054 Y92.442 E19.77377
G1 X75.054 Y92.243 E19.78370
G1 X73.854 Y91.042 E19.86840
G1 X73.854 Y90.840 E19.87848
G1 X73.454 Y90.439 E19.90674
G1 X73.454 Y85.128 E20.17171
G1 X71.254 Y85.128 E20.28147
G1 X71.254 Y82.443 E20.41542
G1 X71.054 Y82.243 E20.42953
G1 X71.054 Y82.043 E20.43951
G1 X69.142 Y80.128 E20.57452
G1 X70.854 Y78.413 E20.69541
G1 X70.854 Y77.643 E20.73383
G1 X70.654 Y77.443 E20.74794
G1 X70.654 Y76.643 E20.78785
G1 X70.454 Y76.443 E20.80196
G1 X70.454 Y76.043 E20.82192
G1 X70.362 Y75.951 E20.82841
G1 X67.347 Y75.199 E20.98344
G1 X66.676 Y69.107 E21.28921
G1 F2400 E17.28921
G0 F9000 X121.545 Y66.206
;TYPE:WALL-INNER
G1 F2400 E21.28921
G1 F1800 X126.845 Y66.206 E21.55363
G1 X126.845 Y135.140 E24.99276
G1 X122.428 Y135.147 E25.21312
G1 X121.545 Y135.142 E25.25718
G1 X121.545 Y66.206 E28.69641
G0 F9000 X121.145 Y66.471
;TYPE:WALL-OUTER
G1 F1800 X98.145 Y66.471 E29.84388
G1 X98.145 Y65.806 E29.87706
G1 X127.245 Y65.806 E31.32886
G1 X127.245 Y135.539 E34.80786
G1 X122.426 Y135.547 E35.04828
G1 X121.145 Y135.539 E35.11219
G1 X121.145 Y66.471 E38.55801
G0 F9000 X121.364 Y66.209
;TYPE:SKIN
G1 F1800 X121.009 Y66.138 E38.57232
G1 X120.443 Y66.138 E38.59096
G1 X120.029 Y66.006 E38.61264
G0 F9000 X121.486 Y66.130
G0 X121.683 Y66.529
G1 F1800 X126.705 Y71.550 E38.96693
G0 F9000 X126.705 Y70.985
G1 F1800 X122.065 Y66.345 E39.29431
G0 F9000 X122.631 Y66.345
G1 F1800 X126.705 Y70.419 E39.58175
G0 F9000 X126.705 Y69.853
G1 F1800 X123.197 Y66.345 E39.82926
G0 F9000 X123.762 Y66.345
G1 F1800 X126.705 Y69.287 E40.03687
G0 F9000 X126.705 Y68.722
G1 F1800 X124.328 Y66.345 E40.20458
G0 F9000 X124.894 Y66.345
G1 F1800 X126.705 Y68.156 E40.33235
G0 F9000 X126.705 Y67.590
G1 F1800 X125.459 Y66.345 E40.42023
G0 F9000 X126.025 Y66.345
G1 F1800 X126.705 Y67.025 E40.46821
G0 F9000 X126.705 Y66.459
G1 F1800 X126.591 Y66.345 E40.47625
G0 F9000 X121.683 Y67.095
G1 F1800 X126.705 Y72.116 E40.83054
G0 F9000 X126.705 Y72.682
G1 F1800 X121.683 Y67.660 E41.18487
G0 F9000 X121.683 Y68.226
G1 F1800 X126.705 Y73.247 E41.53917
G0 F9000 X126.705 Y73.813
G1 F1800 X121.683 Y68.792 E41.89346
G0 F9000 X121.683 Y69.357
G1 F1800 X126.705 Y74.379 E42.24779
G0 F9000 X126.705 Y74.944
G1 F1800 X121.683 Y69.923 E42.60208
G0 F9000 X121.683 Y70.489
G1 F1800 X126.705 Y75.510 E42.95638
G0 F9000 X126.705 Y76.076
G1 F1800 X121.683 Y71.055 E43.31067
G0 F9000 X121.683 Y71.620
G1 F1800 X126.705 Y76.641 E43.66497
G0 F9000 X126.705 Y77.207
G1 F1800 X121.683 Y72.186 E44.01926
G0 F9000 X121.683 Y72.752
G1 F1800 X126.705 Y77.773 E44.37355
G0 F9000 X126.705 Y78.338
G1 F1800 X121.683 Y73.317 E44.72785
G0 F9000 X121.683 Y73.883
G1 F1800 X126.705 Y78.904 E45.08214
G0 F9000 X126.705 Y79.470
G1 F1800 X121.683 Y74.449 E45.43644
G0 F9000 X121.683 Y75.014
G1 F1800 X126.705 Y80.036 E45.79077
G0 F9000 X126.705 Y80.601
G1 F1800 X121.683 Y75.580 E46.14506
G0 F9000 X121.683 Y76.146
G1 F1800 X126.705 Y81.167 E46.49935
G0 F9000 X126.705 Y81.733
G1 F1800 X121.683 Y76.711 E46.85368
G0 F9000 X121.683 Y77.277
G1 F1800 X126.705 Y82.298 E47.20798
G0 F9000 X126.705 Y82.864
G1 F1800 X121.683 Y77.843 E47.56227
G0 F9000 X121.683 Y78.408
G1 F1800 X126.705 Y83.430 E47.91660
G0 F9000 X126.705 Y83.995
G1 F1800 X121.683 Y78.974 E48.27089
G0 F9000 X121.683 Y79.540
G1 F1800 X126.705 Y84.561 E48.62519
G0 F9000 X126.705 Y85.127
G1 F1800 X121.683 Y80.106 E48.97948
G0 F9000 X121.683 Y80.671
G1 F1800 X126.705 Y85.692 E49.33378
G0 F9000 X126.705 Y86.258
G1 F1800 X121.683 Y81.237 E49.68807
G0 F9000 X121.683 Y81.803
G1 F1800 X126.705 Y86.824 E50.04236
G0 F9000 X126.705 Y87.389
G1 F1800 X121.683 Y82.368 E50.39666
G0 F9000 X121.683 Y82.934
G1 F1800 X126.705 Y87.955 E50.75095
G0 F9000 X126.705 Y88.521
G1 F1800 X121.683 Y83.500 E51.10525
G0 F9000 X121.683 Y84.065
G1 F1800 X126.705 Y89.086 E51.45954
G0 F9000 X126.705 Y89.652
G1 F1800 X121.683 Y84.631 E51.81383
G0 F9000 X121.683 Y85.197
G1 F1800 X126.705 Y90.218 E52.16813
G0 F9000 X126.705 Y90.784
G1 F1800 X121.683 Y85.762 E52.52246
G0 F9000 X121.683 Y86.328
G1 F1800 X126.705 Y91.349 E52.87675
G0 F9000 X126.705 Y91.915
G1 F1800 X121.683 Y86.894 E53.23104
G0 F9000 X121.683 Y87.459
G1 F1800 X126.705 Y92.481 E53.58537
G0 F9000 X126.705 Y93.046
G1 F1800 X121.683 Y88.025 E53.93967
G0 F9000 X121.683 Y88.591
G1 F1800 X126.705 Y93.612 E54.29396
G0 F9000 X126.705 Y94.178
G1 F1800 X121.683 Y89.156 E54.64829
G0 F9000 X121.683 Y89.722
G1 F1800 X126.705 Y94.743 E55.00258
G0 F9000 X126.705 Y95.309
G1 F1800 X121.683 Y90.288 E55.35688
G0 F9000 X121.683 Y90.854
G1 F1800 X126.705 Y95.875 E55.71117
G0 F9000 X126.705 Y96.440
G1 F1800 X121.683 Y91.419 E56.06547
G0 F9000 X121.683 Y91.985
G1 F1800 X126.705 Y97.006 E56.41976
G0 F9000 X126.705 Y97.572
G1 F1800 X121.683 Y92.551 E56.77405
G0 F9000 X121.683 Y93.116
G1 F1800 X126.705 Y98.137 E57.12835
G0 F9000 X126.705 Y98.703
G1 F1800 X121.683 Y93.682 E57.48264
G0 F9000 X121.683 Y94.248
G1 F1800 X126.705 Y99.269 E57.83694
G0 F9000 X126.705 Y99.834
G1 F1800 X121.683 Y94.813 E58.19123
G0 F9000 X121.683 Y95.379
G1 F1800 X126.705 Y100.400 E58.54552
G0 F9000 X126.705 Y100.966
G1 F1800 X121.683 Y95.945 E58.89982
G0 F9000 X121.683 Y96.510
G1 F1800 X126.705 Y101.532 E59.25415
G0 F9000 X126.705 Y102.097
G1 F1800 X121.683 Y97.076 E59.60844
G0 F9000 X121.683 Y97.642
G1 F1800 X126.705 Y102.663 E59.96273
G0 F9000 X126.705 Y103.229
G1 F1800 X121.683 Y98.207 E60.31706
G0 F9000 X121.683 Y98.773
G1 F1800 X126.705 Y103.794 E60.67136
G0 F9000 X126.705 Y104.360
G1 F1800 X121.683 Y99.339 E61.02565
G0 F9000 X121.683 Y99.904
G1 F1800 X126.705 Y104.926 E61.37998
G0 F9000 X126.705 Y105.491
G1 F1800 X121.683 Y100.470 E61.73428
G0 F9000 X121.683 Y101.036
G1 F1800 X126.705 Y106.057 E62.08857
G0 F9000 X126.705 Y106.623
G1 F1800 X121.683 Y101.602 E62.44286
G0 F9000 X121.683 Y102.167
G1 F1800 X126.705 Y107.188 E62.79716
G0 F9000 X126.705 Y107.754
G1 F1800 X121.683 Y102.733 E63.15145
G0 F9000 X121.683 Y103.299
G1 F1800 X126.705 Y108.320 E63.50574
G0 F9000 X126.705 Y108.885
G1 F1800 X121.683 Y103.864 E63.86004
G0 F9000 X121.683 Y104.430
