;Generated with Cura_SteamEngine 15.01
; Default start code
G28 ; Home extruder
G1 Z15 F100
M107 ; Turn off fan
G90 ; Absolute positioning
M82 ; Extruder in absolute mode
M190 S60
; Activate all used extruder
M104 T0 S225
G92 E0 ; Reset extruder position
; Wait for all used extruders to reach temperature
M109 T0 S225
;Layer count: 182
;LAYER:0
M107
G0 F9000 X73.300 Y75.906 Z0.300
;TYPE:SKIRT
G1 F1800 X77.029 Y72.176 E0.26314
G1 X78.342 Y71.970 E0.32944
G1 X78.471 Y71.937 E0.33609
G1 X78.575 Y71.900 E0.34159
G1 X78.687 Y71.846 E0.34780
G1 X78.800 Y71.778 E0.35438
G1 X79.864 Y71.001 E0.42011
G1 X92.163 Y71.001 E1.03371
G1 X92.163 Y70.658 E1.05082
G1 X92.363 Y70.458 E1.06493
G1 X92.363 Y70.258 E1.07491
G1 X92.563 Y70.058 E1.08902
G1 X92.563 Y69.858 E1.09900
G1 X92.763 Y69.658 E1.11311
G1 X92.763 Y68.662 E1.16280
G1 X93.363 Y68.362 E1.19627
G1 X93.363 Y68.060 E1.21133
G1 X97.542 Y65.973 E1.44438
G1 X102.483 Y65.973 E1.69089
G1 X104.672 Y67.067 E1.81297
G1 X107.063 Y69.459 E1.98171
G1 X107.063 Y69.658 E1.99164
G1 X107.263 Y69.858 E2.00575
G1 X107.263 Y70.058 E2.01572
G1 X108.068 Y70.863 E2.07252
G1 X108.380 Y71.018 E2.08990
G1 X117.837 Y71.001 E2.56172
G1 X120.129 Y71.001 E2.67606
G1 X121.204 Y71.780 E2.74230
G1 X121.322 Y71.850 E2.74914
G1 X121.423 Y71.897 E2.75470
G1 X121.542 Y71.940 E2.76101
G1 X121.671 Y71.972 E2.76764
G1 X122.971 Y72.177 E2.83330
G1 X126.700 Y75.906 E3.09640
G1 X126.700 Y118.138 E5.20337
G1 X126.923 Y118.194 E5.21484
G1 X128.268 Y118.866 E5.28985
G1 X128.467 Y119.064 E5.30385
G1 X130.015 Y119.837 E5.39018
G1 X130.503 Y119.594 E5.41737
G1 X131.578 Y119.324 E5.47267
G1 X132.968 Y118.860 E5.54578
G1 X133.372 Y118.659 E5.56829
G1 X133.966 Y118.462 E5.59952
G1 X134.503 Y118.194 E5.62946
G1 X135.578 Y117.924 E5.68476
G1 X136.968 Y117.460 E5.75787
G1 X138.172 Y116.858 E5.82502
G1 X138.770 Y116.660 E5.85645
G1 X139.151 Y116.469 E5.87771
G1 X140.048 Y115.573 E5.94097
G1 X143.083 Y115.573 E6.09238
G1 X144.872 Y116.467 E6.19216
G1 X148.263 Y119.859 E6.43145
G1 X148.263 Y123.888 E6.63246
G1 X148.063 Y124.088 E6.64657
G1 X148.063 Y125.084 E6.69626
G1 X142.302 Y127.964 E7.01759
G1 X142.097 Y127.966 E7.02782
G1 X141.857 Y128.086 E7.04120
G1 X141.261 Y128.284 E7.07254
G1 X140.856 Y128.487 E7.09514
G1 X140.262 Y128.685 E7.12638
G1 X139.851 Y128.889 E7.14927
G1 X139.257 Y129.086 E7.18049
G1 X138.283 Y129.573 E7.23482
G1 X138.084 Y129.573 E7.24475
G1 X137.860 Y129.685 E7.25724
G1 X135.834 Y130.361 E7.36380
G1 X135.267 Y130.372 E7.39209
G1 X134.711 Y130.668 E7.42352
G1 X134.063 Y130.884 E7.45759
G1 X133.657 Y131.086 E7.48022
G1 X131.451 Y131.822 E7.59624
G1 X130.648 Y132.023 E7.63754
G1 X130.052 Y132.222 E7.66888
G1 X128.457 Y132.619 E7.75089
G1 X127.852 Y132.821 E7.78271
G1 X126.026 Y133.277 E7.87661
G1 X124.168 Y133.649 E7.97114
G1 X123.650 Y133.822 E7.99839
G1 X122.243 Y134.173 E8.07073
G1 X119.743 Y134.173 E8.19546
G1 X116.163 Y132.384 E8.39513
G1 X116.163 Y131.288 E8.44981
G1 X115.963 Y131.088 E8.46392
G1 X115.963 Y130.164 E8.51002
G1 X114.163 Y129.964 E8.60037
G1 X114.163 Y127.262 E8.73517
G1 X112.755 Y127.456 E8.80608
G1 X110.650 Y127.703 E8.91182
G1 X108.541 Y127.904 E9.01752
G1 X106.429 Y128.062 E9.12318
G1 X104.313 Y128.175 E9.22890
G1 X102.222 Y128.242 E9.33327
G1 X100.126 Y128.267 E9.43785
G1 X99.892 Y128.268 E9.44952
G1 X97.980 Y128.247 E9.54492
G1 X95.863 Y128.183 E9.65059
G1 X93.672 Y128.070 E9.76004
G1 X91.559 Y127.913 E9.86575
G1 X89.449 Y127.715 E9.97148
G1 X87.344 Y127.469 E10.07721
G1 X85.463 Y127.211 E10.17194
G1 X85.463 Y130.213 E10.32171
G1 X83.663 Y130.288 E10.41159
G1 X83.663 Y131.487 E10.47140
G1 X80.977 Y134.173 E10.66092
G1 X78.028 Y134.173 E10.80804
G1 X76.378 Y133.622 E10.89483
G1 X75.799 Y133.477 E10.92461
G1 X74.971 Y133.312 E10.96673
G1 X73.521 Y133.069 E11.04008
G1 X72.771 Y132.820 E11.07951
G1 X71.170 Y132.421 E11.16182
G1 X69.980 Y132.023 E11.22442
G1 X69.178 Y131.823 E11.26566
G1 X68.578 Y131.622 E11.29723
G1 X66.705 Y131.152 E11.39357
G1 X66.172 Y130.886 E11.42329
G1 X65.572 Y130.687 E11.45483
G1 X65.168 Y130.486 E11.47734
G1 X63.778 Y130.022 E11.55045
G1 X62.703 Y129.752 E11.60575
G1 X62.166 Y129.484 E11.63569
G1 X61.573 Y129.287 E11.66687
G1 X61.173 Y129.088 E11.68915
G1 X60.571 Y128.888 E11.72080
G1 X60.160 Y128.682 E11.74374
G1 X58.373 Y128.088 E11.83769
G1 X57.965 Y127.885 E11.86042
G1 X57.372 Y127.688 E11.89160
G1 X56.961 Y127.483 E11.91451
G1 X56.370 Y127.286 E11.94559
G1 X51.763 Y124.984 E12.20253
G1 X51.763 Y118.861 E12.50801
G1 X53.363 Y118.062 E12.59724
G1 X53.363 Y117.199 E12.64029
G1 X56.792 Y115.573 E12.82962
G1 X58.799 Y115.573 E12.92975
G1 X60.261 Y116.062 E13.00666
G1 X61.457 Y116.660 E13.07338
G1 X62.051 Y116.857 E13.10460
G1 X62.461 Y117.061 E13.12744
G1 X63.054 Y117.258 E13.15862
G1 X63.464 Y117.462 E13.18147
G1 X64.654 Y117.859 E13.24405
G1 X64.924 Y117.994 E13.25911
G1 X65.719 Y118.193 E13.30000
G1 X66.661 Y118.661 E13.35248
G1 X66.851 Y118.725 E13.36248
G1 X67.650 Y118.924 E13.40356
G1 X70.162 Y119.762 E13.53567
G1 X71.559 Y119.064 E13.61358
G1 X71.758 Y118.866 E13.62759
G1 X73.104 Y118.193 E13.70267
G1 X73.300 Y118.144 E13.71275
G1 X73.300 Y75.906 E15.82001
G1 F2400 E11.82001
G0 F9000 X77.100 Y77.479
;TYPE:WALL-INNER
G1 F2400 E15.82001
G1 F1800 X78.839 Y75.739 E15.94274
G1 X79.110 Y75.696 E15.95643
G1 X79.583 Y75.575 E15.98079
G1 X80.042 Y75.409 E16.00514
G1 X80.479 Y75.202 E16.02926
G1 X80.894 Y74.954 E16.05338
G1 X81.104 Y74.801 E16.06635
G1 X93.417 Y74.801 E16.68064
G1 X93.725 Y74.819 E16.69604
G1 X94.000 Y74.869 E16.70998
G1 X94.271 Y74.951 E16.72411
G1 X94.534 Y75.067 E16.73845
G1 X94.775 Y75.209 E16.75240
G1 X95.004 Y75.383 E16.76675
G1 X95.205 Y75.578 E16.78072
G1 X95.383 Y75.796 E16.79476
G1 X95.774 Y76.420 E16.83150
G1 X96.094 Y76.850 E16.85824
G1 X96.432 Y77.214 E16.88303
G1 X96.801 Y77.541 E16.90762
G1 X97.200 Y77.832 E16.93226
G1 X97.625 Y78.083 E16.95689
G1 X98.074 Y78.291 E16.98157
G1 X98.539 Y78.455 E17.00617
G1 X99.018 Y78.573 E17.03079
G1 X99.506 Y78.645 E17.05540
G1 X100.000 Y78.669 E17.08007
G1 X100.493 Y78.645 E17.10470
G1 X100.981 Y78.573 E17.12931
G1 X101.460 Y78.455 E17.15392
G1 X101.925 Y78.291 E17.17852
G1 X102.374 Y78.083 E17.20320
G1 X102.799 Y77.832 E17.22783
G1 X103.198 Y77.541 E17.25247
G1 X103.567 Y77.214 E17.27707
G1 X103.903 Y76.852 E17.30171
G1 X104.201 Y76.459 E17.32631
G1 X104.599 Y75.823 E17.36374
G1 X104.797 Y75.575 E17.37958
G1 X104.995 Y75.383 E17.39334
G1 X105.224 Y75.209 E17.40768
G1 X105.465 Y75.067 E17.42164
G1 X105.728 Y74.951 E17.43598
G1 X105.999 Y74.869 E17.45011
G1 X106.258 Y74.822 E17.46324
G1 X117.841 Y74.801 E18.04112
G1 X118.897 Y74.801 E18.09380
G1 X119.122 Y74.964 E18.10766
G1 X119.537 Y75.210 E18.13173
G1 X119.980 Y75.418 E18.15615
G1 X120.440 Y75.581 E18.18050
G1 X120.906 Y75.698 E18.20447
G1 X121.159 Y75.738 E18.21725
G1 X122.900 Y77.479 E18.34008
G1 X122.900 Y120.695 E20.49614
G1 X122.444 Y120.817 E20.51969
G1 X121.970 Y120.995 E20.54495
G1 X121.514 Y121.220 E20.57032
G1 X121.047 Y121.517 E20.59793
G1 X120.650 Y121.830 E20.62315
G1 X120.288 Y122.179 E20.64824
G1 X120.140 Y122.349 E20.65948
G1 X118.476 Y122.688 E20.74420
G1 X116.395 Y123.070 E20.84976
G1 X114.296 Y123.408 E20.95583
G1 X112.279 Y123.686 E21.05741
G1 X110.242 Y123.925 E21.15973
G1 X108.218 Y124.118 E21.26117
G1 X106.192 Y124.269 E21.36253
G1 X104.157 Y124.378 E21.46420
G1 X102.133 Y124.443 E21.56523
G1 X100.092 Y124.467 E21.66706
G1 X99.904 Y124.468 E21.67644
G1 X98.064 Y124.448 E21.76824
G1 X96.012 Y124.386 E21.87067
G1 X93.904 Y124.277 E21.97597
G1 X91.877 Y124.126 E22.07738
G1 X89.854 Y123.936 E22.17875
G1 X87.817 Y123.698 E22.28107
G1 X85.809 Y123.423 E22.38219
G1 X83.783 Y123.101 E22.48453
G1 X81.694 Y122.723 E22.59045
G1 X79.860 Y122.350 E22.68382
G1 X79.680 Y122.144 E22.69747
G1 X79.312 Y121.796 E22.72273
G1 X78.912 Y121.487 E22.74795
G1 X78.480 Y121.218 E22.77334
G1 X77.983 Y120.978 E22.80088
G1 X77.507 Y120.804 E22.82616
G1 X77.100 Y120.700 E22.84712
G1 X77.100 Y77.479 E25.00342
G0 F9000 X76.700 Y77.313
;TYPE:WALL-OUTER
G1 F1800 X78.648 Y75.364 E25.14090
G1 X79.029 Y75.304 E25.16014
G1 X79.465 Y75.192 E25.18260
G1 X79.888 Y75.040 E25.20503
G1 X80.290 Y74.849 E25.22723
G1 X80.673 Y74.620 E25.24949
G1 X80.974 Y74.401 E25.26806
G1 X93.423 Y74.401 E25.88915
G1 X93.770 Y74.421 E25.90649
G1 X94.100 Y74.481 E25.92322
G1 X94.407 Y74.574 E25.93923
G1 X94.720 Y74.712 E25.95629
G1 X94.998 Y74.875 E25.97237
G1 X95.261 Y75.076 E25.98888
G1 X95.504 Y75.311 E26.00575
G1 X95.707 Y75.561 E26.02181
G1 X96.104 Y76.194 E26.05909
G1 X96.402 Y76.593 E26.08394
G1 X96.712 Y76.927 E26.10667
G1 X97.052 Y77.229 E26.12936
G1 X97.420 Y77.497 E26.15207
G1 X97.812 Y77.728 E26.17477
G1 X98.225 Y77.920 E26.19750
G1 X98.654 Y78.071 E26.22019
G1 X99.095 Y78.180 E26.24285
G1 X99.545 Y78.246 E26.26554
G1 X100.000 Y78.268 E26.28827
G1 X100.454 Y78.246 E26.31094
G1 X100.904 Y78.180 E26.33363
G1 X101.345 Y78.071 E26.35630
G1 X101.774 Y77.920 E26.37899
G1 X102.187 Y77.728 E26.40171
G1 X102.579 Y77.497 E26.42441
G1 X102.947 Y77.229 E26.44712
G1 X103.287 Y76.927 E26.46981
G1 X103.596 Y76.594 E26.49247
G1 X103.872 Y76.232 E26.51518
G1 X104.273 Y75.591 E26.55291
G1 X104.500 Y75.306 E26.57108
G1 X104.738 Y75.076 E26.58760
G1 X105.001 Y74.875 E26.60411
G1 X105.279 Y74.712 E26.62019
G1 X105.592 Y74.574 E26.63725
G1 X105.899 Y74.481 E26.65326
G1 X106.226 Y74.422 E26.66984
G1 X119.027 Y74.401 E27.30848
G1 X119.341 Y74.629 E27.32784
G1 X119.724 Y74.856 E27.35005
G1 X120.132 Y75.047 E27.37253
G1 X120.556 Y75.198 E27.39498
G1 X120.986 Y75.306 E27.41710
G1 X121.351 Y75.364 E27.43554
G1 X123.300 Y77.313 E27.57305
G1 X123.300 Y121.033 E29.75425
G1 X123.017 Y121.078 E29.76855
G1 X122.566 Y121.198 E29.79183
G1 X122.129 Y121.362 E29.81512
G1 X121.711 Y121.569 E29.83839
G1 X121.279 Y121.844 E29.86394
G1 X120.913 Y122.132 E29.88717
G1 X120.578 Y122.455 E29.91039
G1 X120.353 Y122.714 E29.92751
G1 X118.560 Y123.079 E30.01880
G1 X116.467 Y123.463 E30.12496
G1 X114.355 Y123.803 E30.23168
G1 X112.326 Y124.083 E30.33387
G1 X110.289 Y124.322 E30.43619
G1 X108.251 Y124.516 E30.53833
G1 X106.213 Y124.669 E30.64029
G1 X104.165 Y124.778 E30.74261
G1 X102.146 Y124.843 E30.84339
G1 X100.097 Y124.867 E30.94562
G1 X99.902 Y124.868 E30.95535
G1 X98.052 Y124.848 E31.04765
G1 X96.004 Y124.786 E31.14988
G1 X93.883 Y124.676 E31.25584
G1 X91.846 Y124.525 E31.35774
G1 X89.807 Y124.333 E31.45992
G1 X87.770 Y124.095 E31.56223
G1 X85.746 Y123.818 E31.66415
G1 X83.720 Y123.496 E31.76650
G1 X81.611 Y123.114 E31.87343
G1 X79.647 Y122.715 E31.97342
G1 X79.391 Y122.421 E31.99287
G1 X79.052 Y122.101 E32.01612
G1 X78.683 Y121.816 E32.03938
G1 X78.287 Y121.569 E32.06267
G1 X77.827 Y121.347 E32.08815
G1 X77.388 Y121.187 E32.11146
G1 X76.937 Y121.071 E32.13469
G1 X76.700 Y121.033 E32.14667
G1 X76.700 Y77.313 E34.32787
G0 F9000 X77.245 Y77.528
;TYPE:SKIN
G1 F1800 X121.059 Y121.342 E37.41918
G0 F9000 X120.734 Y121.583
G1 F1800 X77.240 Y78.088 E40.48796
G0 F9000 X77.240 Y78.654
G1 F1800 X120.430 Y121.845 E43.53528
G0 F9000 X120.147 Y122.127
G1 F1800 X77.240 Y79.220 E46.56260
G0 F9000 X77.240 Y79.785
G1 F1800 X119.740 Y122.285 E49.56120
G0 F9000 X119.270 Y122.381
G1 F1800 X77.240 Y80.351 E52.52665
G0 F9000 X77.240 Y80.917
G1 F1800 X118.801 Y122.477 E55.45897
G0 F9000 X118.328 Y122.571
G1 F1800 X77.240 Y81.482 E58.35798
G0 F9000 X77.240 Y82.048
G1 F1800 X117.850 Y122.658 E61.22324
G0 F9000 X117.372 Y122.746
G1 F1800 X77.240 Y82.614 E64.05477
G0 F9000 X77.240 Y83.179
G1 F1800 X116.895 Y122.835 E66.85267
G0 F9000 X116.418 Y122.924
G1 F1800 X77.240 Y83.745 E69.61693
G0 F9000 X77.240 Y84.311
G1 F1800 X115.930 Y123.001 E72.34672
G0 F9000 X115.443 Y123.080
G1 F1800 X77.240 Y84.876 E75.04218
G0 F9000 X77.240 Y85.442
G1 F1800 X114.956 Y123.158 E77.70325
G0 F9000 X114.469 Y123.237
G1 F1800 X77.240 Y86.008 E80.32996
G0 F9000 X77.240 Y86.573
G1 F1800 X113.975 Y123.309 E82.92184
G0 F9000 X113.478 Y123.378
G1 F1800 X77.240 Y87.139 E85.47867
G0 F9000 X77.240 Y87.705
G1 F1800 X112.981 Y123.446 E88.00039
G0 F9000 X112.484 Y123.515
G1 F1800 X77.240 Y88.270 E90.48708
G0 F9000 X77.240 Y88.836
G1 F1800 X111.982 Y123.578 E92.93831
G0 F9000 X111.476 Y123.638
G1 F1800 X77.240 Y89.402 E95.35385
G0 F9000 X77.240 Y89.968
G1 F1800 X110.969 Y123.697 E97.73361
G0 F9000 X110.463 Y123.757
G1 F1800 X77.240 Y90.533 E100.07771
G0 F9000 X77.240 Y91.099
G1 F1800 X109.951 Y123.810 E102.38564
G0 F9000 X109.435 Y123.860
G1 F1800 X77.240 Y91.665 E104.65718
G0 F9000 X77.240 Y92.230
G1 F1800 X108.919 Y123.909 E106.89230
G0 F9000 X108.403 Y123.959
G1 F1800 X77.240 Y92.796 E109.09102
G0 F9000 X77.240 Y93.362
G1 F1800 X107.880 Y124.002 E111.25284
G0 F9000 X107.353 Y124.041
G1 F1800 X77.240 Y93.927 E113.37751
G0 F9000 X77.240 Y94.493
G1 F1800 X106.827 Y124.080 E115.46503
G0 F9000 X106.300 Y124.119
G1 F1800 X77.240 Y95.059 E117.51537
G0 F9000 X77.240 Y95.624
G1 F1800 X105.765 Y124.150 E119.52800
G0 F9000 X105.228 Y124.178
G1 F1800 X77.240 Y96.190 E121.50270
G0 F9000 X77.240 Y96.756
G1 F1800 X104.691 Y124.207 E123.43952
G0 F9000 X104.154 Y124.236
G1 F1800 X77.240 Y97.321 E125.33848
G0 F9000 X77.240 Y97.887
G1 F1800 X103.606 Y124.254 E127.19878
G0 F9000 X103.058 Y124.271
G1 F1800 X77.240 Y98.453 E129.02038
G0 F9000 X77.240 Y99.018
G1 F1800 X102.510 Y124.289 E130.80335
G0 F9000 X101.959 Y124.303
G1 F1800 X77.240 Y99.584 E132.54741
G0 F9000 X77.240 Y100.150
G1 F1800 X101.399 Y124.310 E134.25199
G0 F9000 X100.840 Y124.316
G1 F1800 X77.240 Y100.716 E135.91710
G0 F9000 X77.240 Y101.281
G1 F1800 X100.281 Y124.322 E137.54277
G0 F9000 X99.717 Y124.324
G1 F1800 X77.240 Y101.847 E139.12864
G0 F9000 X77.240 Y102.413
G1 F1800 X99.145 Y124.318 E140.67416
G0 F9000 X98.573 Y124.312
G1 F1800 X77.240 Y102.978 E142.17935
G0 F9000 X77.240 Y103.544
G1 F1800 X98.000 Y124.305 E143.64412
G0 F9000 X97.417 Y124.287
G1 F1800 X77.240 Y104.110 E145.06771
G0 F9000 X77.240 Y104.675
G1 F1800 X96.833 Y124.269 E146.45014
G0 F9000 X96.249 Y124.251
G1 F1800 X77.240 Y105.241 E147.79136
G0 F9000 X77.240 Y105.807
G1 F1800 X95.658 Y124.225 E149.09085
G0 F9000 X95.062 Y124.194
G1 F1800 X77.240 Y106.372 E150.34829
G0 F9000 X77.240 Y106.938
G1 F1800 X94.465 Y124.164 E151.56364
G0 F9000 X93.869 Y124.134
G1 F1800 X77.240 Y107.504 E152.73694
G0 F9000 X77.240 Y108.069
G1 F1800 X93.258 Y124.088 E153.86713
G0 F9000 X92.647 Y124.042
G1 F1800 X77.240 Y108.635 E154.95418
G0 F9000 X77.240 Y109.201
G1 F1800 X92.035 Y123.996 E155.99805
G0 F9000 X91.414 Y123.940
G1 F1800 X77.240 Y109.767 E156.99807
G0 F9000 X77.240 Y110.332
G1 F1800 X90.789 Y123.882 E157.95406
G0 F9000 X90.166 Y123.824
G1 F1800 X77.240 Y110.898 E158.86605
G0 F9000 X77.240 Y111.464
G1 F1800 X89.533 Y123.757 E159.73339
G0 F9000 X88.892 Y123.682
G1 F1800 X77.240 Y112.029 E160.55554
G0 F9000 X77.240 Y112.595
G1 F1800 X88.251 Y123.607 E161.33246
G0 F9000 X87.606 Y123.527
G1 F1800 X77.240 Y113.161 E162.06384
G0 F9000 X77.240 Y113.726
G1 F1800 X86.950 Y123.437 E162.74897
G0 F9000 X86.295 Y123.347
G1 F1800 X77.240 Y114.292 E163.38784
G0 F9000 X77.240 Y114.858
G1 F1800 X85.633 Y123.251 E163.98002
G0 F9000 X84.960 Y123.144
G1 F1800 X77.240 Y115.423 E164.52474
G0 F9000 X77.240 Y115.989
G1 F1800 X84.287 Y123.037 E165.02198
G0 F9000 X83.610 Y122.925
G1 F1800 X77.240 Y116.555 E165.47142
G0 F9000 X77.240 Y117.120
G1 F1800 X82.920 Y122.801 E165.87221
G0 F9000 X82.229 Y122.675
G1 F1800 X77.240 Y117.686 E166.22421
G0 F9000 X77.240 Y118.252
G1 F1800 X81.534 Y122.546 E166.52717
G0 F9000 X80.824 Y122.402
G1 F1800 X77.240 Y118.817 E166.78008
G0 F9000 X77.240 Y119.383
G1 F1800 X80.115 Y122.258 E166.98292
G0 F9000 X78.233 Y120.942
G1 F1800 X77.240 Y119.949 E167.05299
G0 F9000 X77.240 Y120.515
G1 F1800 X77.341 Y120.616 E167.06011
G0 F9000 X77.528 Y77.245
G1 F1800 X121.405 Y121.122 E170.15587
G0 F9000 X121.780 Y120.931
G1 F1800 X77.811 Y76.962 E173.25812
G0 F9000 X78.094 Y76.680
G1 F1800 X122.179 Y120.765 E176.36856
G0 F9000 X122.607 Y120.627
G1 F1800 X78.377 Y76.397 E179.48922
G0 F9000 X78.659 Y76.114
G1 F1800 X122.759 Y120.213 E182.60068
G0 F9000 X122.759 Y119.648
G1 F1800 X78.971 Y75.860 E185.69016
G0 F9000 X79.434 Y75.757
