;Generated with Cura_SteamEngine 15.01
; Default start code
G28 ; Home extruder
G1 Z15 F100
M107 ; Turn off fan
G90 ; Absolute positioning
M82 ; Extruder in absolute mode
M190 S60
; Activate all used extruder
M104 T0 S225
G92 E0 ; Reset extruder position
; Wait for all used extruders to reach temperature
M109 T0 S225
;Layer count: 150
;LAYER:0
M107
G0 F9000 X78.448 Y65.564 Z0.300
;TYPE:SKIRT
G1 F1800 X79.136 Y64.755 E0.05298
G1 X79.668 Y64.291 E0.08820
G1 X80.246 Y63.884 E0.12347
G1 X81.199 Y63.405 E0.17668
G1 X81.881 Y63.182 E0.21248
G1 X82.562 Y63.034 E0.24725
G1 X82.674 Y63.026 E0.25285
G1 X84.425 Y62.754 E0.34126
G1 X86.363 Y62.490 E0.43884
G1 X88.302 Y62.262 E0.53624
G1 X90.245 Y62.068 E0.63366
G1 X92.294 Y61.901 E0.73622
G1 X92.329 Y61.901 E0.73797
G1 X94.215 Y61.782 E0.83225
G1 X94.248 Y61.782 E0.83390
G1 X96.093 Y61.698 E0.92604
G1 X98.047 Y61.645 E1.02356
G1 X100.000 Y61.628 E1.12100
G1 X101.952 Y61.645 E1.21839
G1 X103.839 Y61.696 E1.31257
G1 X103.875 Y61.696 E1.31436
G1 X105.763 Y61.782 E1.40865
G1 X105.796 Y61.782 E1.41030
G1 X107.806 Y61.909 E1.51078
G1 X109.754 Y62.068 E1.60829
G1 X111.697 Y62.262 E1.70571
G1 X113.636 Y62.490 E1.80311
G1 X115.573 Y62.754 E1.90064
G1 X117.643 Y63.075 E2.00515
G1 X118.615 Y63.333 E2.05532
G1 X119.278 Y63.623 E2.09142
G1 X119.821 Y63.931 E2.12257
G1 X120.398 Y64.338 E2.15779
G1 X121.174 Y65.086 E2.21157
G1 X121.609 Y65.654 E2.24726
G1 X121.936 Y66.185 E2.27837
G1 X122.206 Y66.736 E2.30898
G1 X122.426 Y67.338 E2.34096
G1 X122.580 Y67.942 E2.37206
G1 X122.684 Y68.631 E2.40682
G1 X122.700 Y132.256 E5.58109
G1 X122.669 Y132.832 E5.60987
G1 X122.553 Y133.554 E5.64635
G1 X122.209 Y134.613 E5.70190
G1 X121.868 Y135.283 E5.73941
G1 X121.509 Y135.832 E5.77213
G1 X121.101 Y136.332 E5.80433
G1 X120.639 Y136.794 E5.83692
G1 X120.128 Y137.203 E5.86958
G1 X119.591 Y137.549 E5.90145
G1 X119.010 Y137.846 E5.93400
G1 X118.399 Y138.077 E5.96659
G1 X117.773 Y138.243 E5.99890
G1 X117.050 Y138.355 E6.03540
G1 X84.316 Y138.371 E7.66851
G1 X83.571 Y138.371 E7.70568
G1 X82.867 Y138.346 E7.74082
G1 X82.192 Y138.237 E7.77494
G1 X81.566 Y138.066 E7.80731
G1 X80.964 Y137.834 E7.83950
G1 X80.384 Y137.537 E7.87201
G1 X79.842 Y137.182 E7.90433
G1 X79.342 Y136.776 E7.93646
G1 X78.883 Y136.317 E7.96885
G1 X78.481 Y135.820 E8.00074
G1 X78.127 Y135.275 E8.03316
G1 X77.826 Y134.683 E8.06630
G1 X77.593 Y134.071 E8.09897
G1 X77.427 Y133.441 E8.13147
G1 X77.316 Y132.722 E8.16777
G1 X77.300 Y69.093 E11.34223
G1 X77.327 Y68.542 E11.36975
G1 X77.435 Y67.842 E11.40509
G1 X77.726 Y66.906 E11.45399
G1 X77.826 Y66.666 E11.46696
G1 X78.075 Y66.158 E11.49519
G1 X78.448 Y65.564 E11.53018
G1 F2400 E7.53018
G0 F9000 X81.520 Y67.817
;TYPE:WALL-INNER
G1 F2400 E11.53018
G1 F1800 X81.847 Y67.434 E11.55531
G1 X82.209 Y67.150 E11.57826
G1 X82.650 Y66.929 E11.60287
G1 X82.881 Y66.853 E11.61500
G1 X84.968 Y66.516 E11.72047
G1 X86.847 Y66.260 E11.81508
G1 X88.718 Y66.039 E11.90908
G1 X90.588 Y65.853 E12.00283
G1 X92.448 Y65.701 E12.09594
G1 X94.338 Y65.582 E12.19042
G1 X96.225 Y65.496 E12.28466
G1 X98.120 Y65.445 E12.37923
G1 X100.000 Y65.428 E12.47303
G1 X101.879 Y65.445 E12.56678
G1 X103.782 Y65.496 E12.66175
G1 X103.797 Y65.496 E12.66250
G1 X105.669 Y65.582 E12.75599
G1 X107.537 Y65.700 E12.84937
G1 X109.411 Y65.853 E12.94318
G1 X111.281 Y66.039 E13.03693
G1 X113.152 Y66.260 E13.13093
G1 X115.031 Y66.516 E13.22554
G1 X116.862 Y66.799 E13.31797
G1 X117.357 Y66.931 E13.34353
G1 X117.575 Y67.026 E13.35539
G1 X117.780 Y67.143 E13.36717
G1 X117.972 Y67.277 E13.37885
G1 X118.334 Y67.627 E13.40397
G1 X118.474 Y67.809 E13.41543
G1 X118.606 Y68.025 E13.42806
G1 X118.701 Y68.219 E13.43883
G1 X118.793 Y68.470 E13.45217
G1 X118.852 Y68.700 E13.46402
G1 X118.884 Y68.914 E13.47481
G1 X118.900 Y132.158 E16.63007
G1 X118.886 Y132.428 E16.64356
G1 X118.849 Y132.657 E16.65513
G1 X118.687 Y133.156 E16.68130
G1 X118.573 Y133.380 E16.69384
G1 X118.440 Y133.584 E16.70599
G1 X118.277 Y133.783 E16.71883
G1 X118.107 Y133.953 E16.73082
G1 X117.900 Y134.119 E16.74406
G1 X117.470 Y134.366 E16.76880
G1 X116.992 Y134.519 E16.79384
G1 X116.757 Y134.555 E16.80570
G1 X83.649 Y134.571 E18.45746
G1 X83.234 Y134.556 E18.47818
G1 X83.001 Y134.519 E18.48995
G1 X82.754 Y134.451 E18.50273
G1 X82.291 Y134.244 E18.52804
G1 X82.088 Y134.111 E18.54014
G1 X81.886 Y133.947 E18.55313
G1 X81.715 Y133.776 E18.56519
G1 X81.562 Y133.587 E18.57732
G1 X81.307 Y133.143 E18.60287
G1 X81.214 Y132.901 E18.61580
G1 X81.116 Y132.429 E18.63985
G1 X81.100 Y69.171 E21.79581
G1 X81.112 Y68.927 E21.80799
G1 X81.147 Y68.701 E21.81940
G1 X81.297 Y68.219 E21.84459
G1 X81.520 Y67.817 E21.86752
G0 F9000 X81.055 Y67.805
;TYPE:WALL-OUTER
G1 F1800 X81.195 Y67.581 E21.88070
G1 X81.559 Y67.154 E21.90869
G1 X81.773 Y66.967 E21.92287
G1 X81.997 Y66.810 E21.93652
G1 X82.502 Y66.556 E21.96472
G1 X82.777 Y66.466 E21.97916
G1 X83.034 Y66.410 E21.99228
G1 X83.048 Y66.409 E21.99298
G1 X84.918 Y66.119 E22.08739
G1 X86.789 Y65.864 E22.18160
G1 X88.671 Y65.642 E22.27614
G1 X90.554 Y65.454 E22.37055
G1 X92.428 Y65.301 E22.46436
G1 X92.442 Y65.301 E22.46506
G1 X94.329 Y65.182 E22.55939
G1 X96.218 Y65.096 E22.65373
G1 X98.109 Y65.045 E22.74810
G1 X100.000 Y65.028 E22.84245
G1 X101.890 Y65.045 E22.93675
G1 X103.787 Y65.096 E23.03142
G1 X105.678 Y65.182 E23.12586
G1 X107.562 Y65.301 E23.22004
G1 X109.445 Y65.454 E23.31430
G1 X111.328 Y65.642 E23.40871
G1 X113.210 Y65.864 E23.50325
G1 X115.081 Y66.118 E23.59745
G1 X116.951 Y66.409 E23.69187
G1 X117.489 Y66.552 E23.71964
G1 X117.750 Y66.666 E23.73385
G1 X117.999 Y66.807 E23.74813
G1 X118.227 Y66.967 E23.76202
G1 X118.629 Y67.355 E23.78990
G1 X118.809 Y67.590 E23.80466
G1 X118.950 Y67.818 E23.81804
G1 X119.071 Y68.065 E23.83176
G1 X119.173 Y68.345 E23.84663
G1 X119.244 Y68.620 E23.86080
G1 X119.284 Y68.888 E23.87432
G1 X119.300 Y132.160 E27.03097
G1 X119.283 Y132.476 E27.04676
G1 X119.239 Y132.752 E27.06070
G1 X119.058 Y133.309 E27.08992
G1 X118.920 Y133.581 E27.10514
G1 X118.764 Y133.819 E27.11933
G1 X118.573 Y134.053 E27.13440
G1 X118.372 Y134.254 E27.14859
G1 X117.895 Y134.598 E27.17793
G1 X117.633 Y134.731 E27.19259
G1 X117.354 Y134.837 E27.20748
G1 X117.081 Y134.909 E27.22156
G1 X116.786 Y134.955 E27.23646
G1 X83.635 Y134.971 E28.89037
G1 X83.195 Y134.955 E28.91233
G1 X82.918 Y134.911 E28.92633
G1 X82.631 Y134.832 E28.94118
G1 X82.351 Y134.724 E28.95615
G1 X81.851 Y134.434 E28.98499
G1 X81.618 Y134.245 E28.99995
G1 X81.421 Y134.048 E29.01385
G1 X81.236 Y133.819 E29.02854
G1 X81.076 Y133.572 E29.04322
G1 X80.940 Y133.304 E29.05822
G1 X80.833 Y133.025 E29.07313
G1 X80.762 Y132.753 E29.08715
G1 X80.716 Y132.458 E29.10205
G1 X80.700 Y69.181 E32.25895
G1 X80.714 Y68.884 E32.27378
G1 X80.757 Y68.608 E32.28772
G1 X80.922 Y68.077 E32.31546
G1 X81.055 Y67.805 E32.33056
G0 F9000 X81.476 Y68.182
;TYPE:SKIN
G1 F1800 X118.752 Y105.459 E34.96062
G0 F9000 X118.752 Y104.893
G1 F1800 X81.690 Y67.831 E37.57555
G0 F9000 X81.952 Y67.527
G1 F1800 X118.752 Y104.327 E40.17199
G0 F9000 X118.752 Y103.762
G1 F1800 X82.270 Y67.279 E42.74602
G0 F9000 X82.644 Y67.088
G1 F1800 X118.752 Y103.196 E45.29364
G0 F9000 X118.752 Y102.630
G1 F1800 X83.084 Y66.962 E47.81021
G0 F9000 X83.571 Y66.883
G1 F1800 X118.752 Y102.064 E50.29242
G0 F9000 X118.752 Y101.498
G1 F1800 X84.058 Y66.805 E52.74023
G0 F9000 X84.545 Y66.726
G1 F1800 X118.752 Y100.933 E55.15372
G0 F9000 X118.751 Y100.366
G1 F1800 X85.033 Y66.649 E57.53267
G0 F9000 X85.531 Y66.581
G1 F1800 X118.751 Y99.801 E59.87652
G0 F9000 X118.751 Y99.235
G1 F1800 X86.029 Y66.513 E62.18524
G0 F9000 X86.526 Y66.444
G1 F1800 X118.751 Y98.669 E64.45888
G0 F9000 X118.751 Y98.103
G1 F1800 X87.027 Y66.379 E66.69718
G0 F9000 X87.533 Y66.320
G1 F1800 X118.750 Y97.537 E68.89971
G0 F9000 X118.750 Y96.971
G1 F1800 X88.039 Y66.260 E71.06654
G0 F9000 X88.545 Y66.200
G1 F1800 X118.750 Y96.406 E73.19770
G0 F9000 X118.750 Y95.840
G1 F1800 X89.056 Y66.146 E75.29277
G0 F9000 X89.571 Y66.095
G1 F1800 X118.750 Y95.274 E77.35151
G0 F9000 X118.750 Y94.708
G1 F1800 X90.085 Y66.043 E79.37398
G0 F9000 X90.600 Y65.992
G1 F1800 X118.750 Y94.142 E81.36011
G0 F9000 X118.750 Y93.577
G1 F1800 X91.122 Y65.949 E83.30942
G0 F9000 X91.645 Y65.907
G1 F1800 X118.750 Y93.011 E85.22179
G0 F9000 X118.749 Y92.445
G1 F1800 X92.168 Y65.864 E87.09722
G0 F9000 X92.696 Y65.826
G1 F1800 X118.749 Y91.879 E88.93540
G0 F9000 X118.749 Y91.313
G1 F1800 X93.228 Y65.792 E90.73604
G0 F9000 X93.760 Y65.759
G1 F1800 X118.749 Y90.747 E92.49912
G0 F9000 X118.749 Y90.182
G1 F1800 X94.292 Y65.725 E94.22469
G0 F9000 X94.832 Y65.700
G1 F1800 X118.748 Y89.615 E95.91206
G0 F9000 X118.748 Y89.050
G1 F1800 X95.373 Y65.675 E97.56129
G0 F9000 X95.914 Y65.650
G1 F1800 X118.748 Y88.484 E99.17235
G0 F9000 X118.748 Y87.918
G1 F1800 X96.459 Y65.630 E100.74493
G0 F9000 X97.010 Y65.615
G1 F1800 X118.747 Y87.352 E102.27859
G0 F9000 X118.747 Y86.786
G1 F1800 X97.561 Y65.600 E103.77338
G0 F9000 X98.112 Y65.585
G1 F1800 X118.747 Y86.221 E105.22932
G0 F9000 X118.747 Y85.655
G1 F1800 X98.672 Y65.579 E106.64576
G0 F9000 X99.233 Y65.574
G1 F1800 X118.747 Y85.089 E108.02261
G0 F9000 X118.747 Y84.523
G1 F1800 X99.793 Y65.570 E109.35988
G0 F9000 X81.324 Y68.596
G1 F1800 X118.753 Y106.025 E112.00070
G0 F9000 X118.753 Y106.591
G1 F1800 X81.243 Y69.081 E114.64723
G0 F9000 X81.239 Y69.642
G1 F1800 X118.753 Y107.157 E117.29408
G0 F9000 X118.753 Y107.722
G1 F1800 X81.239 Y70.208 E119.94090
G0 F9000 X81.239 Y70.774
G1 F1800 X118.753 Y108.288 E122.58771
G0 F9000 X118.754 Y108.854
G1 F1800 X81.239 Y71.340 E125.23457
G0 F9000 X81.239 Y71.905
G1 F1800 X118.754 Y109.420 E127.88145
G0 F9000 X118.754 Y109.986
G1 F1800 X81.240 Y72.472 E130.52827
G0 F9000 X81.240 Y73.037
G1 F1800 X118.754 Y110.551 E133.17508
G0 F9000 X118.755 Y111.118
G1 F1800 X81.240 Y73.603 E135.82197
G0 F9000 X81.240 Y74.169
G1 F1800 X118.755 Y111.683 E138.46882
G0 F9000 X118.755 Y112.249
G1 F1800 X81.240 Y74.735 E141.11567
G0 F9000 X81.240 Y75.301
G1 F1800 X118.755 Y112.815 E143.76252
G0 F9000 X118.755 Y113.381
G1 F1800 X81.240 Y75.866 E146.40941
G0 F9000 X81.240 Y76.432
G1 F1800 X118.755 Y113.947 E149.05629
G0 F9000 X118.755 Y114.513
G1 F1800 X81.240 Y76.998 E151.70318
G0 F9000 X81.241 Y77.564
G1 F1800 X118.755 Y115.078 E154.34999
G0 F9000 X118.755 Y115.644
G1 F1800 X81.241 Y78.130 E156.99681
G0 F9000 X81.241 Y78.696
G1 F1800 X118.755 Y116.210 E159.64362
G0 F9000 X118.756 Y116.776
G1 F1800 X81.241 Y79.261 E162.29051
G0 F9000 X81.241 Y79.827
G1 F1800 X118.756 Y117.342 E164.93739
G0 F9000 X118.756 Y117.907
G1 F1800 X81.242 Y80.393 E167.58421
G0 F9000 X81.242 Y80.959
G1 F1800 X118.756 Y118.473 E170.23103
G0 F9000 X118.757 Y119.040
G1 F1800 X81.242 Y81.525 E172.87791
G0 F9000 X81.242 Y82.090
G1 F1800 X118.757 Y119.605 E175.52480
G0 F9000 X118.757 Y120.171
G1 F1800 X81.242 Y82.656 E178.17168
G0 F9000 X81.243 Y83.222
G1 F1800 X118.757 Y120.737 E180.81853
G0 F9000 X118.757 Y121.302
G1 F1800 X81.243 Y83.788 E183.46535
G0 F9000 X81.243 Y84.354
G1 F1800 X118.757 Y121.869 E186.11220
G0 F9000 X118.757 Y122.434
G1 F1800 X81.243 Y84.919 E188.75905
G0 F9000 X81.243 Y85.485
G1 F1800 X118.757 Y123.000 E191.40590
G0 F9000 X118.757 Y123.566
G1 F1800 X81.243 Y86.052 E194.05272
G0 F9000 X81.243 Y86.617
G1 F1800 X118.757 Y124.131 E196.69953
G0 F9000 X118.758 Y124.698
G1 F1800 X81.243 Y87.183 E199.34642
G0 F9000 X81.243 Y87.749
G1 F1800 X118.758 Y125.263 E201.99327
G0 F9000 X118.758 Y125.829
G1 F1800 X81.243 Y88.314 E204.64015
G0 F9000 X81.244 Y88.881
G1 F1800 X118.758 Y126.395 E207.28697
G0 F9000 X118.759 Y126.961
G1 F1800 X81.244 Y89.446 E209.93385
G0 F9000 X81.244 Y90.012
G1 F1800 X118.759 Y127.527 E212.58074
G0 F9000 X118.759 Y128.093
G1 F1800 X81.244 Y90.578 E215.22763
G0 F9000 X81.244 Y91.143
G1 F1800 X118.759 Y128.658 E217.87451
G0 F9000 X118.759 Y129.224
G1 F1800 X81.245 Y91.710 E220.52133
G0 F9000 X81.245 Y92.276
G1 F1800 X118.759 Y129.790 E223.16814
G0 F9000 X118.759 Y130.356
G1 F1800 X81.245 Y92.841 E225.81499
G0 F9000 X81.245 Y93.407
G1 F1800 X118.759 Y130.922 E228.46184
G0 F9000 X118.759 Y131.487
G1 F1800 X81.245 Y93.973 E231.10866
G0 F9000 X81.245 Y94.539
G1 F1800 X118.759 Y132.053 E233.75547
G0 F9000 X118.721 Y132.580
G1 F1800 X81.245 Y95.105 E236.39957
G0 F9000 X81.245 Y95.670
G1 F1800 X118.587 Y133.012 E239.03425
G0 F9000 X118.399 Y133.390
G1 F1800 X81.245 Y96.236 E241.65567
G0 F9000 X81.246 Y96.802
G1 F1800 X118.153 Y133.709 E244.25966
G0 F9000 X117.854 Y133.976
G1 F1800 X81.246 Y97.368 E246.84255
G0 F9000 X81.246 Y97.934
G1 F1800 X117.499 Y134.186 E249.40036
G0 F9000 X117.087 Y134.341
G1 F1800 X81.246 Y98.499 E251.92917
G0 F9000 X81.246 Y99.065
G1 F1800 X116.594 Y134.413 E254.42316
G0 F9000 X116.029 Y134.413
G1 F1800 X81.247 Y99.632 E256.87719
G0 F9000 X81.247 Y100.197
G1 F1800 X115.463 Y134.413 E259.29131
G0 F9000 X114.898 Y134.414
G1 F1800 X81.247 Y100.763 E261.66557
G0 F9000 X81.247 Y101.329
G1 F1800 X114.332 Y134.414 E263.99989
G0 F9000 X113.767 Y134.415
G1 F1800 X81.247 Y101.894 E266.29439
G0 F9000 X81.247 Y102.461
G1 F1800 X113.202 Y134.415 E268.54895
G0 F9000 X112.636 Y134.415
G1 F1800 X81.247 Y103.026 E270.76362
G0 F9000 X81.247 Y103.592
G1 F1800 X112.071 Y134.416 E272.93842
G0 F9000 X111.505 Y134.416
G1 F1800 X81.247 Y104.158 E275.07328
G0 F9000 X81.247 Y104.723
G1 F1800 X110.940 Y134.416 E277.16828
G0 F9000 X110.375 Y134.416
G1 F1800 X81.248 Y105.290 E279.22332
G0 F9000 X81.248 Y105.856
G1 F1800 X109.810 Y134.417 E281.23848
G0 F9000 X109.244 Y134.417
G1 F1800 X81.248 Y106.421 E283.21375
G0 F9000 X81.248 Y106.987
G1 F1800 X108.678 Y134.417 E285.14909
G0 F9000 X108.113 Y134.418
G1 F1800 X81.248 Y107.553 E287.04456
G0 F9000 X81.249 Y108.119
G1 F1800 X107.548 Y134.418 E288.90009
G0 F9000 X106.983 Y134.418
G1 F1800 X81.249 Y108.685 E290.71573
G0 F9000 X81.249 Y109.250
G1 F1800 X106.417 Y134.418 E292.49147
G0 F9000 X105.851 Y134.418
G1 F1800 X81.249 Y109.816 E294.22727
G0 F9000 X81.249 Y110.382
G1 F1800 X105.286 Y134.419 E295.92321
G0 F9000 X104.721 Y134.419
G1 F1800 X81.250 Y110.948 E297.57922
G0 F9000 X81.250 Y111.514
G1 F1800 X104.156 Y134.420 E299.19536
G0 F9000 X103.590 Y134.420
G1 F1800 X81.250 Y112.079 E300.77161
G0 F9000 X81.250 Y112.645
G1 F1800 X103.024 Y134.420 E302.30791
G0 F9000 X102.459 Y134.420
G1 F1800 X81.250 Y113.212 E303.80429
G0 F9000 X81.250 Y113.777
G1 F1800 X101.894 Y134.420 E305.26080
G0 F9000 X101.329 Y134.421
G1 F1800 X81.250 Y114.343 E306.67745
G0 F9000 X81.250 Y114.909
G1 F1800 X100.763 Y134.421 E308.05416
G0 F9000 X100.198 Y134.422
G1 F1800 X81.250 Y115.474 E309.39104
G0 F9000 X81.251 Y116.041
G1 F1800 X99.632 Y134.422 E310.68792
G0 F9000 X99.067 Y134.422
G1 F1800 X81.251 Y116.606 E311.94494
G0 F9000 X81.251 Y117.172
G1 F1800 X98.502 Y134.423 E313.16209
G0 F9000 X97.936 Y134.423
G1 F1800 X81.251 Y117.738 E314.33930
G0 F9000 X81.251 Y118.303
G1 F1800 X97.371 Y134.423 E315.47666
G0 F9000 X96.805 Y134.423
G1 F1800 X81.252 Y118.870 E316.57400
G0 F9000 X81.252 Y119.435
G1 F1800 X96.240 Y134.423 E317.63149
G0 F9000 X95.675 Y134.424
G1 F1800 X81.252 Y120.001 E318.64911
G0 F9000 X81.252 Y120.567
G1 F1800 X95.109 Y134.424 E319.62680
G0 F9000 X94.544 Y134.425
G1 F1800 X81.252 Y121.133 E320.56462
G0 F9000 X81.252 Y121.699
G1 F1800 X93.978 Y134.425 E321.46251
G0 F9000 X93.413 Y134.425
G1 F1800 X81.252 Y122.265 E322.32049
G0 F9000 X81.252 Y122.830
G1 F1800 X92.848 Y134.425 E323.13862
G0 F9000 X92.282 Y134.425
G1 F1800 X81.252 Y123.396 E323.91681
G0 F9000 X81.252 Y123.962
G1 F1800 X91.717 Y134.426 E324.65514
G0 F9000 X91.151 Y134.426
G1 F1800 X81.253 Y124.528 E325.35350
G0 F9000 X81.253 Y125.094
G1 F1800 X90.586 Y134.426 E326.01195
G0 F9000 X90.021 Y134.427
G1 F1800 X81.253 Y125.659 E326.63058
G0 F9000 X81.253 Y126.225
G1 F1800 X89.455 Y134.427 E327.20928
G0 F9000 X88.890 Y134.428
G1 F1800 X81.253 Y126.791 E327.74811
G0 F9000 X81.254 Y127.357
G1 F1800 X88.324 Y134.428 E328.24697
G0 F9000 X87.759 Y134.428
G1 F1800 X81.254 Y127.923 E328.70594
G0 F9000 X81.254 Y128.489
G1 F1800 X87.194 Y134.428 E329.12500
G0 F9000 X86.628 Y134.428
G1 F1800 X81.254 Y129.054 E329.50416
G0 F9000 X81.254 Y129.620
G1 F1800 X86.063 Y134.429 E329.84346
