;Generated with Cura_SteamEngine 15.01
; Default start code
G28 ; Home extruder
G1 Z15 F100
M107 ; Turn off fan
G90 ; Absolute positioning
M82 ; Extruder in absolute mode
M190 S60
; Activate all used extruder
M104 T0 S225
G92 E0 ; Reset extruder position
; Wait for all used extruders to reach temperature
M109 T0 S225
;Layer count: 195
;LAYER:0
M107
G0 F9000 X69.126 Y68.612 Z0.300
;TYPE:SKIRT
G1 F1800 X73.593 Y67.128 E0.23484
G1 X77.046 Y67.128 E0.40711
G1 X79.235 Y68.222 E0.52920
G1 X80.034 Y69.021 E0.58557
G1 X81.626 Y69.817 E0.67437
G1 X81.626 Y71.213 E0.74402
G1 X81.826 Y71.413 E0.75813
G1 X81.826 Y71.813 E0.77808
G1 X82.026 Y72.013 E0.79219
G1 X82.026 Y72.413 E0.81215
G1 X82.226 Y72.613 E0.82626
G1 X82.226 Y73.013 E0.84622
G1 X82.426 Y73.213 E0.86033
G1 X82.426 Y73.521 E0.87569
G1 X86.426 Y75.513 E1.09863
G1 X86.426 Y76.613 E1.15351
G1 X86.626 Y76.813 E1.16762
G1 X86.626 Y77.213 E1.18758
G1 X86.826 Y77.413 E1.20169
G1 X86.826 Y77.813 E1.22165
G1 X87.026 Y78.013 E1.23576
G1 X87.026 Y78.413 E1.25571
G1 X87.226 Y78.613 E1.26982
G1 X87.226 Y79.213 E1.29976
G1 X87.426 Y79.413 E1.31387
G1 X87.426 Y79.813 E1.33383
G1 X87.626 Y80.013 E1.34794
G1 X87.626 Y80.413 E1.36789
G1 X87.826 Y80.613 E1.38200
G1 X87.826 Y81.013 E1.40196
G1 X88.026 Y81.213 E1.41607
G1 X88.026 Y81.813 E1.44601
G1 X88.226 Y82.013 E1.46012
G1 X88.226 Y82.413 E1.48007
G1 X88.426 Y82.613 E1.49418
G1 X88.426 Y83.013 E1.51414
G1 X88.626 Y83.213 E1.52825
G1 X88.626 Y83.613 E1.54821
G1 X88.826 Y83.813 E1.56232
G1 X88.826 Y84.413 E1.59225
G1 X89.026 Y84.613 E1.60636
G1 X89.026 Y85.013 E1.62632
G1 X89.226 Y85.213 E1.64043
G1 X89.226 Y85.613 E1.66039
G1 X89.426 Y85.813 E1.67450
G1 X89.426 Y86.213 E1.69445
G1 X89.626 Y86.413 E1.70856
G1 X89.626 Y87.013 E1.73850
G1 X89.826 Y87.213 E1.75261
G1 X89.826 Y87.613 E1.77257
G1 X90.026 Y87.813 E1.78668
G1 X90.026 Y88.213 E1.80663
G1 X90.226 Y88.413 E1.82074
G1 X90.226 Y88.813 E1.84070
G1 X90.426 Y89.013 E1.85481
G1 X90.426 Y89.613 E1.88475
G1 X90.626 Y89.813 E1.89886
G1 X90.626 Y90.213 E1.91881
G1 X90.826 Y90.413 E1.93292
G1 X90.826 Y90.813 E1.95288
G1 X91.026 Y91.013 E1.96699
G1 X91.026 Y91.613 E1.99692
G1 X91.226 Y91.813 E2.01104
G1 X91.226 Y92.213 E2.03099
G1 X91.426 Y92.413 E2.04510
G1 X91.426 Y92.813 E2.06506
G1 X91.626 Y93.013 E2.07917
G1 X91.626 Y93.413 E2.09913
G1 X91.826 Y93.613 E2.11324
G1 X91.826 Y94.213 E2.14317
G1 X92.026 Y94.413 E2.15728
G1 X92.026 Y94.813 E2.17724
G1 X92.226 Y95.013 E2.19135
G1 X92.226 Y95.413 E2.21131
G1 X92.426 Y95.613 E2.22542
G1 X92.426 Y96.013 E2.24537
G1 X92.626 Y96.213 E2.25948
G1 X92.626 Y96.813 E2.28942
G1 X92.826 Y97.013 E2.30353
G1 X92.826 Y97.413 E2.32349
G1 X93.026 Y97.613 E2.33760
G1 X93.026 Y98.013 E2.35755
G1 X93.226 Y98.213 E2.37166
G1 X93.226 Y98.613 E2.39162
G1 X93.426 Y98.813 E2.40573
G1 X93.426 Y99.413 E2.43566
G1 X93.626 Y99.613 E2.44978
G1 X93.626 Y100.013 E2.46973
G1 X93.826 Y100.213 E2.48384
G1 X93.826 Y100.613 E2.50380
G1 X94.026 Y100.813 E2.51791
G1 X94.026 Y101.213 E2.53787
G1 X94.226 Y101.413 E2.55198
G1 X94.226 Y102.013 E2.58191
G1 X94.426 Y102.213 E2.59602
G1 X94.426 Y102.613 E2.61598
G1 X94.626 Y102.813 E2.63009
G1 X94.626 Y103.213 E2.65005
G1 X94.826 Y103.413 E2.66416
G1 X94.826 Y104.013 E2.69409
G1 X95.026 Y104.213 E2.70820
G1 X95.026 Y104.613 E2.72816
G1 X95.226 Y104.813 E2.74227
G1 X95.226 Y105.213 E2.76223
G1 X95.426 Y105.413 E2.77634
G1 X95.426 Y105.813 E2.79629
G1 X95.626 Y106.013 E2.81040
G1 X95.626 Y106.613 E2.84034
G1 X95.826 Y106.813 E2.85445
G1 X95.826 Y107.213 E2.87440
G1 X96.026 Y107.413 E2.88852
G1 X96.026 Y107.813 E2.90847
G1 X96.226 Y108.013 E2.92258
G1 X96.226 Y108.413 E2.94254
G1 X96.426 Y108.613 E2.95665
G1 X96.426 Y109.213 E2.98658
G1 X96.626 Y109.413 E3.00070
G1 X96.626 Y109.813 E3.02065
G1 X96.826 Y110.013 E3.03476
G1 X96.826 Y110.413 E3.05472
G1 X97.026 Y110.613 E3.06883
G1 X97.026 Y111.013 E3.08879
G1 X97.226 Y111.213 E3.10290
G1 X97.226 Y111.813 E3.13283
G1 X97.426 Y112.013 E3.14694
G1 X97.426 Y112.413 E3.16690
G1 X97.626 Y112.613 E3.18101
G1 X97.626 Y113.013 E3.20097
G1 X97.826 Y113.213 E3.21508
G1 X97.826 Y113.613 E3.23503
G1 X98.026 Y113.813 E3.24914
G1 X98.026 Y114.413 E3.27908
G1 X98.226 Y114.613 E3.29319
G1 X98.226 Y115.013 E3.31314
G1 X98.426 Y115.213 E3.32726
G1 X98.426 Y115.613 E3.34721
G1 X98.626 Y115.813 E3.36132
G1 X98.626 Y116.213 E3.38128
G1 X98.826 Y116.413 E3.39539
G1 X98.826 Y117.013 E3.42532
G1 X99.026 Y117.213 E3.43944
G1 X99.026 Y117.613 E3.45939
G1 X99.226 Y117.813 E3.47350
G1 X99.226 Y118.213 E3.49346
G1 X99.426 Y118.413 E3.50757
G1 X99.426 Y119.013 E3.53750
G1 X99.626 Y119.213 E3.55161
G1 X99.626 Y119.613 E3.57157
G1 X99.826 Y119.813 E3.58568
G1 X99.826 Y120.213 E3.60564
G1 X100.026 Y120.413 E3.61975
G1 X100.026 Y120.813 E3.63971
G1 X100.226 Y121.013 E3.65382
G1 X100.226 Y121.613 E3.68375
G1 X100.426 Y121.813 E3.69786
G1 X100.426 Y122.213 E3.71782
G1 X100.626 Y122.413 E3.73193
G1 X100.626 Y122.813 E3.75188
G1 X100.826 Y123.013 E3.76600
G1 X100.826 Y123.413 E3.78595
G1 X101.026 Y123.613 E3.80006
G1 X101.026 Y124.213 E3.83000
G1 X101.226 Y124.413 E3.84411
G1 X101.226 Y124.813 E3.86406
G1 X101.426 Y125.013 E3.87818
G1 X101.426 Y125.413 E3.89813
G1 X101.626 Y125.613 E3.91224
G1 X101.626 Y126.013 E3.93220
G1 X101.826 Y126.213 E3.94631
G1 X101.826 Y126.813 E3.97624
G1 X102.026 Y127.013 E3.99036
G1 X102.026 Y127.352 E4.00727
G1 X114.726 Y127.449 E4.64089
G1 X114.726 Y117.348 E5.14483
G1 X115.473 Y117.348 E5.18210
G1 X115.473 Y69.871 E7.55074
G1 X89.473 Y69.871 E8.84788
G1 X89.473 Y62.412 E9.22001
G1 X97.381 Y62.397 E9.61455
G1 X99.577 Y62.400 E9.72411
G1 X106.471 Y62.401 E10.06805
G1 X107.761 Y62.400 E10.13241
G1 X113.372 Y62.401 E10.41234
G1 X114.661 Y62.400 E10.47665
G1 X120.267 Y62.401 E10.75633
G1 X122.463 Y62.396 E10.86589
G1 X130.373 Y62.413 E11.26053
G1 X130.373 Y69.871 E11.63261
G1 X128.373 Y69.871 E11.73239
G1 X128.373 Y117.347 E14.10097
G1 X128.826 Y117.347 E14.12357
G1 X128.826 Y141.099 E15.30857
G1 X98.537 Y141.328 E16.81973
G1 X93.726 Y141.328 E17.05976
G1 X93.726 Y138.443 E17.20369
G1 X93.526 Y138.243 E17.21780
G1 X93.526 Y137.843 E17.23776
G1 X93.326 Y137.643 E17.25187
G1 X93.326 Y137.243 E17.27182
G1 X93.126 Y137.043 E17.28593
G1 X93.126 Y136.443 E17.31587
G1 X92.926 Y136.243 E17.32998
G1 X92.926 Y135.843 E17.34994
G1 X92.726 Y135.643 E17.36405
G1 X92.726 Y135.243 E17.38400
G1 X92.526 Y135.043 E17.39811
G1 X92.526 Y134.443 E17.42805
G1 X92.326 Y134.243 E17.44216
G1 X92.326 Y133.843 E17.46212
G1 X92.126 Y133.643 E17.47623
G1 X92.126 Y133.243 E17.49618
G1 X91.926 Y133.043 E17.51029
G1 X91.926 Y132.643 E17.53025
G1 X91.726 Y132.443 E17.54436
G1 X91.726 Y131.843 E17.57429
G1 X91.526 Y131.643 E17.58841
G1 X91.526 Y131.243 E17.60836
G1 X91.326 Y131.043 E17.62247
G1 X91.326 Y130.643 E17.64243
G1 X91.126 Y130.443 E17.65654
G1 X91.126 Y129.843 E17.68647
G1 X90.926 Y129.643 E17.70059
G1 X90.926 Y129.243 E17.72054
G1 X90.726 Y129.043 E17.73465
G1 X90.726 Y128.643 E17.75461
G1 X90.526 Y128.443 E17.76872
G1 X90.526 Y127.843 E17.79865
G1 X90.326 Y127.643 E17.81277
G1 X90.326 Y127.243 E17.83272
G1 X90.126 Y127.043 E17.84683
G1 X90.126 Y126.643 E17.86679
G1 X89.926 Y126.443 E17.88090
G1 X89.926 Y126.043 E17.90086
G1 X89.726 Y125.843 E17.91497
G1 X89.726 Y125.243 E17.94490
G1 X89.526 Y125.043 E17.95901
G1 X89.526 Y124.643 E17.97897
G1 X89.326 Y124.443 E17.99308
G1 X89.326 Y124.043 E18.01304
G1 X89.126 Y123.843 E18.02715
G1 X89.126 Y123.243 E18.05708
G1 X88.926 Y123.043 E18.07119
G1 X88.926 Y122.643 E18.09115
G1 X88.726 Y122.443 E18.10526
G1 X88.726 Y122.043 E18.12521
G1 X88.526 Y121.843 E18.13933
G1 X88.526 Y121.443 E18.15928
G1 X88.326 Y121.243 E18.17339
G1 X88.326 Y120.643 E18.20333
G1 X88.126 Y120.443 E18.21744
G1 X88.126 Y120.043 E18.23739
G1 X87.926 Y119.843 E18.25151
G1 X87.926 Y119.443 E18.27146
G1 X87.726 Y119.243 E18.28557
G1 X87.726 Y118.643 E18.31551
G1 X87.526 Y118.443 E18.32962
G1 X87.526 Y118.043 E18.34957
G1 X87.326 Y117.843 E18.36368
G1 X87.326 Y117.443 E18.38364
G1 X87.126 Y117.243 E18.39775
G1 X87.126 Y116.643 E18.42769
G1 X86.926 Y116.443 E18.44180
G1 X86.926 Y116.043 E18.46175
G1 X86.726 Y115.843 E18.47586
G1 X86.726 Y115.443 E18.49582
G1 X86.526 Y115.243 E18.50993
G1 X86.526 Y114.843 E18.52989
G1 X86.326 Y114.643 E18.54400
G1 X86.326 Y114.043 E18.57393
G1 X86.126 Y113.843 E18.58804
G1 X86.126 Y113.443 E18.60800
G1 X85.926 Y113.243 E18.62211
G1 X85.926 Y112.843 E18.64207
G1 X85.726 Y112.643 E18.65618
G1 X85.726 Y112.043 E18.68611
G1 X85.526 Y111.843 E18.70022
G1 X85.526 Y111.443 E18.72018
G1 X85.326 Y111.243 E18.73429
G1 X85.326 Y110.843 E18.75425
G1 X85.126 Y110.643 E18.76836
G1 X85.126 Y110.243 E18.78831
G1 X84.926 Y110.043 E18.80242
G1 X84.926 Y109.443 E18.83236
G1 X84.726 Y109.243 E18.84647
G1 X84.726 Y108.843 E18.86643
G1 X84.526 Y108.643 E18.88054
G1 X84.526 Y108.243 E18.90049
G1 X84.326 Y108.043 E18.91460
G1 X84.326 Y107.443 E18.94454
G1 X84.126 Y107.243 E18.95865
G1 X84.126 Y106.843 E18.97861
G1 X83.926 Y106.643 E18.99272
G1 X83.926 Y106.243 E19.01267
G1 X83.726 Y106.043 E19.02678
G1 X83.726 Y105.443 E19.05672
G1 X83.526 Y105.243 E19.07083
G1 X83.526 Y104.843 E19.09079
G1 X83.326 Y104.643 E19.10490
G1 X83.326 Y104.243 E19.12485
G1 X83.126 Y104.043 E19.13896
G1 X83.126 Y103.643 E19.15892
G1 X82.926 Y103.443 E19.17303
G1 X82.926 Y102.843 E19.20296
G1 X82.726 Y102.643 E19.21708
G1 X82.726 Y102.243 E19.23703
G1 X82.526 Y102.043 E19.25114
G1 X82.526 Y101.643 E19.27110
G1 X82.326 Y101.443 E19.28521
G1 X82.326 Y100.843 E19.31514
G1 X82.126 Y100.643 E19.32926
G1 X82.126 Y100.243 E19.34921
G1 X81.926 Y100.043 E19.36332
G1 X81.926 Y99.643 E19.38328
G1 X81.726 Y99.443 E19.39739
G1 X81.726 Y99.043 E19.41735
G1 X81.526 Y98.843 E19.43146
G1 X81.526 Y98.640 E19.44158
G1 X81.126 Y98.239 E19.46984
G1 X81.126 Y97.643 E19.49958
G1 X80.926 Y97.443 E19.51369
G1 X80.926 Y97.240 E19.52382
G1 X80.526 Y96.839 E19.55207
G1 X80.526 Y96.640 E19.56200
G1 X80.126 Y96.239 E19.59026
G1 X80.126 Y96.043 E19.60004
G1 X79.926 Y95.843 E19.61415
G1 X79.926 Y95.839 E19.61435
G1 X78.726 Y95.240 E19.68126
G1 X78.726 Y94.240 E19.73115
G1 X78.326 Y93.839 E19.75941
G1 X78.326 Y93.642 E19.76924
G1 X77.526 Y92.841 E19.82572
G1 X77.526 Y92.643 E19.83559
G1 X76.918 Y92.035 E19.87849
G1 X75.726 Y91.439 E19.94498
G1 X75.726 Y89.644 E20.03453
G1 X74.844 Y88.762 E20.09676
G1 X75.896 Y86.219 E20.23406
G1 X73.526 Y87.011 E20.35873
G1 X73.526 Y82.643 E20.57665
G1 X73.326 Y82.443 E20.59076
G1 X73.326 Y82.243 E20.60074
G1 X71.414 Y80.328 E20.73575
G1 X73.126 Y78.613 E20.85664
G1 X73.126 Y77.643 E20.90504
G1 X72.926 Y77.443 E20.91915
G1 X72.926 Y76.843 E20.94908
G1 X72.726 Y76.643 E20.96319
G1 X72.726 Y76.243 E20.98315
G1 X72.588 Y76.105 E20.99288
G1 X69.126 Y75.612 E21.16735
G1 X69.126 Y68.612 E21.51658
G1 F2400 E17.51658
G0 F9000 X119.273 Y66.197
;TYPE:WALL-INNER
G1 F2400 E21.51658
G1 F1800 X122.462 Y66.196 E21.67568
G1 X124.573 Y66.200 E21.78100
G1 X124.573 Y119.950 E24.46260
G1 X123.056 Y119.951 E24.53828
G1 X122.424 Y119.949 E24.56981
G1 X119.273 Y119.949 E24.72701
G1 X119.273 Y66.197 E27.40871
G0 F9000 X118.873 Y66.471
;TYPE:WALL-OUTER
G1 F1800 X92.873 Y66.471 E28.70586
G1 X92.873 Y65.806 E28.73903
G1 X126.973 Y65.806 E30.44029
G1 X126.973 Y66.471 E30.47347
G1 X124.973 Y66.471 E30.57325
G1 X124.973 Y120.349 E33.26123
G1 X118.873 Y120.349 E33.56556
G1 X118.873 Y66.471 E36.25355
G0 F9000 X118.597 Y66.271
;TYPE:SKIN
G1 F1800 X118.181 Y66.138 E36.27228
G1 X117.615 Y66.138 E36.29099
G1 X117.050 Y66.138 E36.30967
G1 X116.484 Y66.138 E36.32837
G1 X115.918 Y66.138 E36.34708
G1 X115.353 Y66.138 E36.36576
G1 X114.787 Y66.138 E36.38446
G1 X114.221 Y66.138 E36.40317
G1 X113.656 Y66.138 E36.42185
G1 X113.090 Y66.138 E36.44055
G1 X112.524 Y66.138 E36.45926
G1 X111.958 Y66.138 E36.47797
G1 X111.393 Y66.138 E36.49671
G1 X110.827 Y66.138 E36.51542
G1 X110.261 Y66.138 E36.53413
G1 X109.696 Y66.138 E36.55287
G1 X109.130 Y66.138 E36.57158
G1 X108.564 Y66.138 E36.59029
G1 X107.999 Y66.138 E36.60903
G1 X107.433 Y66.138 E36.62774
G1 X106.867 Y66.138 E36.64645
G1 X106.302 Y66.138 E36.66512
G1 X105.736 Y66.138 E36.68383
G1 X105.170 Y66.138 E36.70254
G1 X104.605 Y66.138 E36.72121
G1 X104.039 Y66.138 E36.73992
G1 X103.473 Y66.138 E36.75863
G1 X102.907 Y66.138 E36.77734
G1 X102.342 Y66.138 E36.79608
G1 X101.776 Y66.138 E36.81479
G1 X101.210 Y66.138 E36.83350
G1 X100.645 Y66.138 E36.85224
G1 X100.229 Y66.005 E36.87403
G0 F9000 X118.897 Y66.005
G1 F1800 X119.092 Y66.200 E36.88779
G0 F9000 X119.412 Y66.521
G1 F1800 X124.431 Y71.540 E37.24191
G0 F9000 X124.431 Y72.105
G1 F1800 X119.412 Y67.086 E37.59602
G0 F9000 X119.412 Y67.652
G1 F1800 X124.431 Y72.671 E37.95014
G0 F9000 X124.431 Y73.237
G1 F1800 X119.412 Y68.218 E38.30426
G0 F9000 X119.412 Y68.783
G1 F1800 X124.431 Y73.802 E38.65838
G0 F9000 X124.431 Y74.368
G1 F1800 X119.412 Y69.349 E39.01249
G0 F9000 X119.412 Y69.915
G1 F1800 X124.431 Y74.934 E39.36661
G0 F9000 X124.431 Y75.499
G1 F1800 X119.412 Y70.480 E39.72073
G0 F9000 X119.412 Y71.046
G1 F1800 X124.431 Y76.065 E40.07485
G0 F9000 X124.431 Y76.631
G1 F1800 X119.412 Y71.612 E40.42896
G0 F9000 X119.412 Y72.177
G1 F1800 X124.431 Y77.196 E40.78308
G0 F9000 X124.431 Y77.762
G1 F1800 X119.412 Y72.743 E41.13720
G0 F9000 X119.412 Y73.309
G1 F1800 X124.431 Y78.328 E41.49132
G0 F9000 X124.431 Y78.894
G1 F1800 X119.412 Y73.874 E41.84547
G0 F9000 X119.412 Y74.440
G1 F1800 X124.431 Y79.459 E42.19959
G0 F9000 X124.431 Y70.974
G1 F1800 X119.795 Y66.337 E42.52672
G0 F9000 X119.412 Y75.006
G1 F1800 X124.431 Y80.025 E42.88084
G0 F9000 X124.431 Y80.591
G1 F1800 X119.412 Y75.572 E43.23495
G0 F9000 X119.412 Y76.137
G1 F1800 X124.431 Y81.156 E43.58907
G0 F9000 X124.431 Y81.722
G1 F1800 X119.412 Y76.703 E43.94319
G0 F9000 X119.412 Y77.269
G1 F1800 X124.431 Y82.288 E44.29731
G0 F9000 X124.431 Y82.853
G1 F1800 X119.412 Y77.834 E44.65142
G0 F9000 X119.412 Y78.400
G1 F1800 X124.431 Y83.419 E45.00554
G0 F9000 X124.431 Y83.985
G1 F1800 X119.412 Y78.966 E45.35966
G0 F9000 X119.412 Y79.531
G1 F1800 X124.431 Y84.550 E45.71378
G0 F9000 X124.431 Y85.116
G1 F1800 X119.412 Y80.097 E46.06789
G0 F9000 X119.412 Y80.663
G1 F1800 X124.431 Y85.682 E46.42201
G0 F9000 X124.431 Y86.247
G1 F1800 X119.412 Y81.228 E46.77613
G0 F9000 X119.412 Y81.794
G1 F1800 X124.431 Y86.813 E47.13025
G0 F9000 X124.431 Y87.379
G1 F1800 X119.412 Y82.360 E47.48436
G0 F9000 X119.412 Y82.925
G1 F1800 X124.431 Y87.944 E47.83848
G0 F9000 X124.431 Y88.510
G1 F1800 X119.412 Y83.491 E48.19260
G0 F9000 X119.412 Y84.057
G1 F1800 X124.431 Y89.076 E48.54672
G0 F9000 X124.431 Y89.642
G1 F1800 X119.412 Y84.623 E48.90083
G0 F9000 X119.412 Y85.188
G1 F1800 X124.431 Y90.207 E49.25495
G0 F9000 X124.431 Y90.773
G1 F1800 X119.412 Y85.754 E49.60907
G0 F9000 X119.412 Y86.320
G1 F1800 X124.431 Y91.339 E49.96319
G0 F9000 X124.431 Y91.904
G1 F1800 X119.412 Y86.885 E50.31730
G0 F9000 X119.412 Y87.451
G1 F1800 X124.431 Y92.470 E50.67142
G0 F9000 X124.431 Y93.036
G1 F1800 X119.412 Y88.017 E51.02554
G0 F9000 X119.412 Y88.582
G1 F1800 X124.431 Y93.601 E51.37966
G0 F9000 X124.431 Y94.167
G1 F1800 X119.412 Y89.148 E51.73377
G0 F9000 X119.412 Y89.714
G1 F1800 X124.431 Y94.733 E52.08789
G0 F9000 X124.431 Y95.298
G1 F1800 X119.412 Y90.279 E52.44201
G0 F9000 X119.412 Y90.845
G1 F1800 X124.431 Y95.864 E52.79613
G0 F9000 X124.431 Y96.430
G1 F1800 X119.412 Y91.411 E53.15024
G0 F9000 X119.412 Y91.976
G1 F1800 X124.431 Y96.995 E53.50436
G0 F9000 X124.431 Y97.561
G1 F1800 X119.412 Y92.542 E53.85848
G0 F9000 X119.412 Y93.108
G1 F1800 X124.431 Y98.127 E54.21260
G0 F9000 X124.431 Y98.693
G1 F1800 X119.412 Y93.673 E54.56675
G0 F9000 X119.412 Y94.239
G1 F1800 X124.431 Y99.258 E54.92087
G0 F9000 X124.431 Y99.824
G1 F1800 X119.412 Y94.805 E55.27499
G0 F9000 X119.412 Y95.371
G1 F1800 X124.431 Y100.390 E55.62910
G0 F9000 X124.431 Y100.955
G1 F1800 X119.412 Y95.936 E55.98322
G0 F9000 X119.412 Y96.502
G1 F1800 X124.431 Y101.521 E56.33734
G0 F9000 X124.431 Y102.087
G1 F1800 X119.412 Y97.068 E56.69146
G0 F9000 X119.412 Y97.633
G1 F1800 X124.431 Y102.652 E57.04557
G0 F9000 X124.431 Y103.218
G1 F1800 X119.412 Y98.199 E57.39969
G0 F9000 X119.412 Y98.765
