;Generated with Cura_SteamEngine 15.01
; Default start code
G28 ; Home extruder
G1 Z15 F100
M107 ; Turn off fan
G90 ; Absolute positioning
M82 ; Extruder in absolute mode
M190 S60
; Activate all used extruder
M104 T0 S225
G92 E0 ; Reset extruder position
; Wait for all used extruders to reach temperature
M109 T0 S225
;Layer count: 195
;LAYER:0
M107
G0 F9000 X70.520 Y61.233 Z0.300
;TYPE:SKIRT
G1 F1800 X76.820 Y61.224 E0.31431
G1 X76.820 Y58.793 E0.43559
G1 X103.708 Y58.559 E1.77709
G1 X106.635 Y58.559 E1.92312
G1 X109.320 Y61.244 E2.11256
G1 X109.320 Y61.844 E2.14249
G1 X109.520 Y62.044 E2.15661
G1 X109.520 Y62.644 E2.18654
G1 X109.720 Y62.844 E2.20065
G1 X109.720 Y63.244 E2.22061
G1 X109.920 Y63.444 E2.23472
G1 X109.920 Y64.044 E2.26465
G1 X110.120 Y64.244 E2.27876
G1 X110.120 Y64.844 E2.30870
G1 X110.320 Y65.044 E2.32281
G1 X110.320 Y65.644 E2.35274
G1 X110.520 Y65.844 E2.36685
G1 X110.520 Y66.244 E2.38681
G1 X110.720 Y66.444 E2.40092
G1 X110.720 Y67.044 E2.43085
G1 X110.920 Y67.244 E2.44497
G1 X110.920 Y67.844 E2.47490
G1 X111.120 Y68.044 E2.48901
G1 X111.120 Y68.644 E2.51894
G1 X111.320 Y68.844 E2.53306
G1 X111.320 Y69.244 E2.55301
G1 X111.520 Y69.444 E2.56712
G1 X111.520 Y70.044 E2.59706
G1 X111.720 Y70.244 E2.61117
G1 X111.720 Y70.844 E2.64110
G1 X111.920 Y71.044 E2.65521
G1 X111.920 Y71.644 E2.68515
G1 X112.120 Y71.844 E2.69926
G1 X112.120 Y72.244 E2.71921
G1 X112.320 Y72.444 E2.73333
G1 X112.320 Y73.044 E2.76326
G1 X112.520 Y73.244 E2.77737
G1 X112.520 Y73.844 E2.80731
G1 X112.720 Y74.044 E2.82142
G1 X112.720 Y74.644 E2.85135
G1 X112.920 Y74.844 E2.86546
G1 X112.920 Y75.244 E2.88542
G1 X113.120 Y75.444 E2.89953
G1 X113.120 Y76.044 E2.92946
G1 X113.320 Y76.244 E2.94357
G1 X113.320 Y76.844 E2.97351
G1 X113.520 Y77.044 E2.98762
G1 X113.520 Y77.644 E3.01755
G1 X113.720 Y77.844 E3.03166
G1 X113.720 Y78.244 E3.05162
G1 X113.920 Y78.444 E3.06573
G1 X113.920 Y79.044 E3.09567
G1 X114.120 Y79.244 E3.10978
G1 X114.120 Y79.844 E3.13971
G1 X114.320 Y80.044 E3.15382
G1 X114.320 Y80.644 E3.18376
G1 X114.520 Y80.844 E3.19787
G1 X114.520 Y81.244 E3.21782
G1 X114.720 Y81.444 E3.23193
G1 X114.720 Y82.044 E3.26187
G1 X114.920 Y82.244 E3.27598
G1 X114.920 Y82.844 E3.30591
G1 X115.120 Y83.044 E3.32002
G1 X115.120 Y83.644 E3.34996
G1 X115.320 Y83.844 E3.36407
G1 X115.320 Y84.244 E3.38403
G1 X115.520 Y84.444 E3.39814
G1 X115.520 Y85.044 E3.42807
G1 X115.720 Y85.244 E3.44218
G1 X115.720 Y85.844 E3.47212
G1 X115.920 Y86.044 E3.48623
G1 X115.920 Y86.644 E3.51616
G1 X116.120 Y86.844 E3.53027
G1 X116.120 Y87.244 E3.55023
G1 X116.320 Y87.444 E3.56434
G1 X116.320 Y88.044 E3.59427
G1 X116.520 Y88.244 E3.60839
G1 X116.520 Y88.844 E3.63832
G1 X116.720 Y89.044 E3.65243
G1 X116.720 Y89.644 E3.68236
G1 X116.920 Y89.844 E3.69648
G1 X116.920 Y90.244 E3.71643
G1 X117.120 Y90.444 E3.73054
G1 X117.120 Y91.044 E3.76048
G1 X117.320 Y91.244 E3.77459
G1 X117.320 Y91.844 E3.80452
G1 X117.520 Y92.044 E3.81863
G1 X117.520 Y92.644 E3.84857
G1 X117.720 Y92.844 E3.86268
G1 X117.720 Y93.244 E3.88263
G1 X117.920 Y93.444 E3.89675
G1 X117.920 Y94.044 E3.92668
G1 X118.120 Y94.244 E3.94079
G1 X118.120 Y94.844 E3.97072
G1 X118.320 Y95.044 E3.98484
G1 X118.320 Y95.644 E4.01477
G1 X118.520 Y95.844 E4.02888
G1 X118.520 Y96.244 E4.04884
G1 X118.720 Y96.444 E4.06295
G1 X118.720 Y97.044 E4.09288
G1 X118.920 Y97.244 E4.10699
G1 X118.920 Y97.844 E4.13693
G1 X119.120 Y98.044 E4.15104
G1 X119.120 Y98.644 E4.18097
G1 X119.320 Y98.844 E4.19508
G1 X119.320 Y99.244 E4.21504
G1 X119.520 Y99.444 E4.22915
G1 X119.520 Y100.044 E4.25909
G1 X119.720 Y100.244 E4.27320
G1 X119.720 Y100.844 E4.30313
G1 X119.920 Y101.044 E4.31724
G1 X119.920 Y101.644 E4.34718
G1 X120.120 Y101.844 E4.36129
G1 X120.120 Y102.044 E4.37126
G1 X120.320 Y102.244 E4.38538
G1 X120.320 Y102.644 E4.40533
G1 X120.520 Y102.844 E4.41944
G1 X120.520 Y103.044 E4.42942
G1 X120.720 Y103.244 E4.44353
G1 X120.720 Y103.444 E4.45351
G1 X120.920 Y103.644 E4.46762
G1 X120.920 Y104.044 E4.48758
G1 X121.120 Y104.244 E4.50169
G1 X121.120 Y104.444 E4.51167
G1 X121.320 Y104.644 E4.52578
G1 X121.320 Y104.846 E4.53586
G1 X121.920 Y105.447 E4.57822
G1 X121.920 Y105.644 E4.58805
G1 X122.920 Y106.645 E4.65864
G1 X122.920 Y106.847 E4.66872
G1 X123.320 Y107.248 E4.69698
G1 X123.320 Y107.447 E4.70691
G1 X123.720 Y107.848 E4.73516
G1 X123.720 Y108.044 E4.74494
G1 X124.720 Y109.045 E4.81553
G1 X124.720 Y109.247 E4.82561
G1 X125.120 Y109.648 E4.85387
G1 X125.120 Y109.844 E4.86365
G1 X125.320 Y110.044 E4.87776
G1 X125.320 Y110.244 E4.88774
G1 X125.520 Y110.444 E4.90185
G1 X125.520 Y110.644 E4.91182
G1 X125.720 Y110.844 E4.92594
G1 X125.720 Y116.444 E5.20532
G1 X127.720 Y118.444 E5.34643
G1 X127.720 Y122.644 E5.55597
G1 X127.920 Y122.844 E5.57008
G1 X127.920 Y123.044 E5.58006
G1 X128.120 Y123.244 E5.59417
G1 X128.120 Y123.844 E5.62410
G1 X128.320 Y124.044 E5.63822
G1 X128.320 Y124.244 E5.64819
G1 X128.520 Y124.444 E5.66231
G1 X128.520 Y124.846 E5.68236
G1 X129.120 Y125.447 E5.72473
G1 X129.120 Y125.644 E5.73456
G1 X129.320 Y125.844 E5.74867
G1 X129.320 Y126.046 E5.75875
G1 X129.920 Y126.647 E5.80112
G1 X129.920 Y132.072 E6.07177
G1 X126.512 Y133.207 E6.25098
G1 X125.708 Y133.407 E6.29231
G1 X124.655 Y133.759 E6.34770
G1 X119.420 Y133.759 E6.60888
G1 X119.420 Y130.874 E6.75281
G1 X119.220 Y130.674 E6.76692
G1 X119.220 Y130.074 E6.79686
G1 X119.020 Y129.874 E6.81097
G1 X119.020 Y129.274 E6.84090
G1 X118.820 Y129.074 E6.85501
G1 X118.820 Y128.474 E6.88495
G1 X118.620 Y128.274 E6.89906
G1 X118.620 Y127.874 E6.91901
G1 X118.420 Y127.674 E6.93313
G1 X118.420 Y127.074 E6.96306
G1 X118.220 Y126.874 E6.97717
G1 X118.220 Y126.274 E7.00710
G1 X118.020 Y126.074 E7.02122
G1 X118.020 Y125.970 E7.02640
G1 X115.220 Y124.564 E7.18272
G1 X115.220 Y122.674 E7.27701
G1 X115.020 Y122.474 E7.29112
G1 X115.020 Y121.874 E7.32106
G1 X114.820 Y121.674 E7.33517
G1 X114.820 Y121.074 E7.36510
G1 X114.620 Y120.874 E7.37921
G1 X114.620 Y120.474 E7.39917
G1 X114.420 Y120.274 E7.41328
G1 X114.420 Y119.674 E7.44321
G1 X114.220 Y119.474 E7.45733
G1 X114.220 Y118.874 E7.48726
G1 X114.020 Y118.674 E7.50137
G1 X114.020 Y118.274 E7.52133
G1 X113.820 Y118.074 E7.53544
G1 X113.820 Y117.474 E7.56537
G1 X113.620 Y117.274 E7.57948
G1 X113.620 Y116.674 E7.60942
G1 X113.420 Y116.474 E7.62353
G1 X113.420 Y115.874 E7.65346
G1 X113.220 Y115.674 E7.66757
G1 X113.220 Y115.274 E7.68753
G1 X113.020 Y115.074 E7.70164
G1 X113.020 Y114.474 E7.73157
G1 X112.820 Y114.274 E7.74569
G1 X112.820 Y113.674 E7.77562
G1 X112.620 Y113.474 E7.78973
G1 X112.620 Y113.074 E7.80969
G1 X112.420 Y112.874 E7.82380
G1 X112.420 Y112.274 E7.85373
G1 X112.220 Y112.074 E7.86784
G1 X112.220 Y111.474 E7.89778
G1 X112.020 Y111.274 E7.91189
G1 X112.020 Y110.674 E7.94182
G1 X111.820 Y110.474 E7.95593
G1 X111.820 Y110.074 E7.97589
G1 X111.620 Y109.874 E7.99000
G1 X111.620 Y109.274 E8.01994
G1 X111.420 Y109.074 E8.03405
G1 X111.420 Y108.474 E8.06398
G1 X111.220 Y108.274 E8.07809
G1 X111.220 Y107.874 E8.09805
G1 X111.020 Y107.674 E8.11216
G1 X111.020 Y107.074 E8.14209
G1 X110.820 Y106.874 E8.15620
G1 X110.820 Y106.274 E8.18614
G1 X110.620 Y106.074 E8.20025
G1 X110.620 Y105.474 E8.23018
G1 X110.420 Y105.274 E8.24429
G1 X110.420 Y104.874 E8.26425
G1 X110.220 Y104.674 E8.27836
G1 X110.220 Y104.074 E8.30830
G1 X110.020 Y103.874 E8.32241
G1 X110.020 Y103.274 E8.35234
G1 X109.820 Y103.074 E8.36645
G1 X109.820 Y102.674 E8.38641
G1 X109.620 Y102.474 E8.40052
G1 X109.620 Y101.874 E8.43045
G1 X109.420 Y101.674 E8.44456
G1 X109.420 Y101.074 E8.47450
G1 X109.220 Y100.874 E8.48861
G1 X109.220 Y100.274 E8.51854
G1 X109.020 Y100.074 E8.53265
G1 X109.020 Y99.674 E8.55261
G1 X108.820 Y99.474 E8.56672
G1 X108.820 Y98.874 E8.59666
G1 X108.620 Y98.674 E8.61077
G1 X108.620 Y98.074 E8.64070
G1 X108.420 Y97.874 E8.65481
G1 X108.420 Y97.474 E8.67477
G1 X108.220 Y97.274 E8.68888
G1 X108.220 Y96.674 E8.71881
G1 X108.020 Y96.474 E8.73292
G1 X108.020 Y95.874 E8.76286
G1 X107.820 Y95.674 E8.77697
G1 X107.820 Y95.274 E8.79693
G1 X107.620 Y95.074 E8.81104
G1 X107.620 Y94.474 E8.84097
G1 X107.420 Y94.274 E8.85508
G1 X107.420 Y93.674 E8.88502
G1 X107.220 Y93.474 E8.89913
G1 X107.220 Y92.874 E8.92906
G1 X107.020 Y92.674 E8.94317
G1 X107.020 Y92.274 E8.96313
G1 X106.820 Y92.074 E8.97724
G1 X106.820 Y91.474 E9.00717
G1 X106.620 Y91.274 E9.02128
G1 X106.620 Y90.674 E9.05122
G1 X106.420 Y90.474 E9.06533
G1 X106.420 Y90.074 E9.08529
G1 X106.220 Y89.874 E9.09940
G1 X106.220 Y89.274 E9.12933
G1 X106.020 Y89.074 E9.14344
G1 X106.020 Y88.474 E9.17338
G1 X105.820 Y88.274 E9.18749
G1 X105.820 Y87.674 E9.21742
G1 X105.620 Y87.474 E9.23153
G1 X105.620 Y87.074 E9.25149
G1 X105.420 Y86.874 E9.26560
G1 X105.420 Y86.274 E9.29553
G1 X105.220 Y86.074 E9.30965
G1 X105.220 Y85.474 E9.33958
G1 X105.020 Y85.274 E9.35369
G1 X105.020 Y84.874 E9.37365
G1 X104.820 Y84.674 E9.38776
G1 X104.820 Y84.074 E9.41769
G1 X104.620 Y83.874 E9.43180
G1 X104.620 Y83.274 E9.46174
G1 X104.420 Y83.074 E9.47585
G1 X104.420 Y82.474 E9.50578
G1 X104.220 Y82.274 E9.51989
G1 X104.220 Y81.874 E9.53985
G1 X104.020 Y81.674 E9.55396
G1 X104.020 Y81.074 E9.58389
G1 X103.820 Y80.874 E9.59801
G1 X103.820 Y80.274 E9.62794
G1 X103.620 Y80.074 E9.64205
G1 X103.620 Y79.674 E9.66201
G1 X103.420 Y79.474 E9.67612
G1 X103.420 Y78.874 E9.70605
G1 X103.220 Y78.674 E9.72016
G1 X103.220 Y78.074 E9.75010
G1 X103.020 Y77.874 E9.76421
G1 X103.020 Y77.274 E9.79414
G1 X102.820 Y77.074 E9.80825
G1 X102.820 Y76.674 E9.82821
G1 X102.620 Y76.474 E9.84232
G1 X102.620 Y75.874 E9.87225
G1 X102.420 Y75.674 E9.88637
G1 X102.420 Y75.074 E9.91630
G1 X102.220 Y74.874 E9.93041
G1 X102.220 Y74.474 E9.95037
G1 X102.020 Y74.274 E9.96448
G1 X102.020 Y73.674 E9.99441
G1 X101.820 Y73.474 E10.00852
G1 X101.820 Y72.874 E10.03846
G1 X101.620 Y72.674 E10.05257
G1 X101.620 Y72.074 E10.08250
G1 X101.420 Y71.874 E10.09661
G1 X101.420 Y71.474 E10.11657
G1 X101.220 Y71.274 E10.13068
G1 X101.220 Y71.159 E10.13642
G1 X83.920 Y71.159 E10.99952
G1 X83.920 Y130.296 E13.94988
G1 X106.920 Y130.296 E15.09735
G1 X106.920 Y137.761 E15.46978
G1 X99.742 Y137.763 E15.82789
G1 X97.520 Y137.762 E15.93875
G1 X93.542 Y137.763 E16.13721
G1 X91.320 Y137.762 E16.24807
G1 X87.342 Y137.763 E16.44653
G1 X85.120 Y137.762 E16.55739
G1 X81.142 Y137.763 E16.75585
G1 X78.920 Y137.762 E16.86671
G1 X75.584 Y137.763 E17.03314
G1 X70.520 Y137.760 E17.28578
G1 X70.520 Y61.233 E21.10373
G1 F2400 E17.10373
G0 F9000 X74.320 Y65.027
;TYPE:WALL-INNER
G1 F2400 E21.10373
G1 F1800 X79.237 Y65.021 E21.34904
G1 X80.120 Y65.026 E21.39310
G1 X80.120 Y133.962 E24.83233
G1 X74.320 Y133.962 E25.12169
G1 X74.320 Y65.027 E28.56087
G0 F9000 X73.920 Y64.628
;TYPE:WALL-OUTER
G1 F1800 X79.239 Y64.621 E28.82624
G1 X80.520 Y64.629 E28.89015
G1 X80.520 Y133.696 E32.33591
G1 X103.520 Y133.696 E33.48339
G1 X103.520 Y134.362 E33.51662
G1 X73.920 Y134.362 E34.99337
G1 X73.920 Y64.628 E38.47241
G0 F9000 X74.500 Y65.166
;TYPE:SKIN
G1 F1800 X79.979 Y70.645 E38.85898
G0 F9000 X79.979 Y71.211
G1 F1800 X74.459 Y65.691 E39.24845
G0 F9000 X74.459 Y66.257
G1 F1800 X79.979 Y71.776 E39.63788
G0 F9000 X79.979 Y72.342
G1 F1800 X74.459 Y66.823 E40.02731
G0 F9000 X74.459 Y67.388
G1 F1800 X79.979 Y72.908 E40.41678
G0 F9000 X79.979 Y73.474
G1 F1800 X74.459 Y67.954 E40.80624
G0 F9000 X74.459 Y68.520
G1 F1800 X79.979 Y74.039 E41.19567
G0 F9000 X79.979 Y74.605
G1 F1800 X74.459 Y69.085 E41.58514
G0 F9000 X74.459 Y69.651
G1 F1800 X79.979 Y75.171 E41.97460
G0 F9000 X79.979 Y75.736
G1 F1800 X74.459 Y70.217 E42.36403
G0 F9000 X74.459 Y70.782
G1 F1800 X79.979 Y76.302 E42.75350
G0 F9000 X79.979 Y76.868
G1 F1800 X74.459 Y71.348 E43.14297
G0 F9000 X74.459 Y71.914
G1 F1800 X79.979 Y77.433 E43.53240
G0 F9000 X79.979 Y77.999
G1 F1800 X74.459 Y72.479 E43.92186
G0 F9000 X74.459 Y73.045
G1 F1800 X79.979 Y78.565 E44.31133
G0 F9000 X79.979 Y79.130
G1 F1800 X74.459 Y73.611 E44.70076
G0 F9000 X74.459 Y74.176
G1 F1800 X79.979 Y79.696 E45.09022
G0 F9000 X79.979 Y80.262
G1 F1800 X74.459 Y74.742 E45.47969
G0 F9000 X74.459 Y75.308
G1 F1800 X79.979 Y80.827 E45.86912
G0 F9000 X79.979 Y81.393
G1 F1800 X74.459 Y75.873 E46.25859
G0 F9000 X74.459 Y76.439
G1 F1800 X79.979 Y81.959 E46.64805
G0 F9000 X79.979 Y82.525
G1 F1800 X74.459 Y77.005 E47.03752
G0 F9000 X74.459 Y77.571
G1 F1800 X79.979 Y83.090 E47.42695
G0 F9000 X79.979 Y83.656
G1 F1800 X74.459 Y78.136 E47.81641
G0 F9000 X74.459 Y78.702
G1 F1800 X79.979 Y84.222 E48.20588
G0 F9000 X79.979 Y84.787
G1 F1800 X74.459 Y79.268 E48.59531
G0 F9000 X74.459 Y79.833
G1 F1800 X79.979 Y85.353 E48.98478
G0 F9000 X79.979 Y85.919
G1 F1800 X74.459 Y80.399 E49.37424
G0 F9000 X74.459 Y80.965
G1 F1800 X79.979 Y86.484 E49.76367
G0 F9000 X79.979 Y87.050
G1 F1800 X74.459 Y81.530 E50.15314
G0 F9000 X74.459 Y82.096
G1 F1800 X79.979 Y87.616 E50.54260
G0 F9000 X79.979 Y88.181
G1 F1800 X74.459 Y82.662 E50.93203
G0 F9000 X74.459 Y83.227
G1 F1800 X79.979 Y88.747 E51.32150
G0 F9000 X79.979 Y89.313
G1 F1800 X74.459 Y83.793 E51.71097
G0 F9000 X74.459 Y84.359
G1 F1800 X79.979 Y89.878 E52.10040
G0 F9000 X79.979 Y90.444
G1 F1800 X74.459 Y84.924 E52.48986
G0 F9000 X74.459 Y85.490
G1 F1800 X79.979 Y91.010 E52.87933
G0 F9000 X79.979 Y91.575
G1 F1800 X74.459 Y86.056 E53.26876
G0 F9000 X74.459 Y86.621
G1 F1800 X79.979 Y92.141 E53.65822
G0 F9000 X79.979 Y92.707
G1 F1800 X74.459 Y87.187 E54.04769
G0 F9000 X74.459 Y87.753
G1 F1800 X79.979 Y93.273 E54.43716
G0 F9000 X79.979 Y93.838
G1 F1800 X74.459 Y88.319 E54.82659
G0 F9000 X74.459 Y88.884
G1 F1800 X79.979 Y94.404 E55.21605
G0 F9000 X79.979 Y94.970
G1 F1800 X74.459 Y89.450 E55.60552
G0 F9000 X74.459 Y90.016
G1 F1800 X79.979 Y95.535 E55.99495
G0 F9000 X79.979 Y96.101
G1 F1800 X74.459 Y90.581 E56.38442
G0 F9000 X74.459 Y91.147
G1 F1800 X79.979 Y96.667 E56.77388
G0 F9000 X79.979 Y97.232
G1 F1800 X74.459 Y91.713 E57.16331
G0 F9000 X74.459 Y92.278
G1 F1800 X79.979 Y97.798 E57.55278
G0 F9000 X79.979 Y98.364
G1 F1800 X74.459 Y92.844 E57.94224
G0 F9000 X74.459 Y93.410
G1 F1800 X79.979 Y98.929 E58.33167
G0 F9000 X79.979 Y99.495
G1 F1800 X74.459 Y93.975 E58.72114
G0 F9000 X74.459 Y94.541
G1 F1800 X79.979 Y100.061 E59.11061
G0 F9000 X79.979 Y100.626
G1 F1800 X74.459 Y95.107 E59.50004
G0 F9000 X74.459 Y95.672
G1 F1800 X79.979 Y101.192 E59.88950
G0 F9000 X79.979 Y101.758
G1 F1800 X74.459 Y96.238 E60.27897
G0 F9000 X74.459 Y96.804
G1 F1800 X79.979 Y102.324 E60.66843
G0 F9000 X79.979 Y102.889
G1 F1800 X74.459 Y97.370 E61.05786
G0 F9000 X74.459 Y97.935
G1 F1800 X79.979 Y103.455 E61.44733
G0 F9000 X79.979 Y104.021
G1 F1800 X74.459 Y98.501 E61.83680
G0 F9000 X74.459 Y99.067
G1 F1800 X79.979 Y104.586 E62.22623
G0 F9000 X79.979 Y105.152
G1 F1800 X74.459 Y99.632 E62.61569
G0 F9000 X74.459 Y100.198
G1 F1800 X79.979 Y105.718 E63.00516
G0 F9000 X79.979 Y106.283
G1 F1800 X74.459 Y100.764 E63.39459
G0 F9000 X74.459 Y101.329
G1 F1800 X79.979 Y106.849 E63.78405
G0 F9000 X79.979 Y107.415
G1 F1800 X74.459 Y101.895 E64.17352
G0 F9000 X74.459 Y102.461
G1 F1800 X79.979 Y107.980 E64.56295
G0 F9000 X79.979 Y108.546
G1 F1800 X74.459 Y103.026 E64.95242
G0 F9000 X74.459 Y103.592
G1 F1800 X79.979 Y109.112 E65.34188
G0 F9000 X79.979 Y109.677
G1 F1800 X74.459 Y104.158 E65.73131
G0 F9000 X74.459 Y104.723
G1 F1800 X79.979 Y110.243 E66.12078
G0 F9000 X79.979 Y110.809
G1 F1800 X74.459 Y105.289 E66.51024
G0 F9000 X74.459 Y105.855
G1 F1800 X79.979 Y111.374 E66.89967
G0 F9000 X79.979 Y111.940
G1 F1800 X74.459 Y106.420 E67.28914
G0 F9000 X74.459 Y106.986
G1 F1800 X79.979 Y112.506 E67.67861
G0 F9000 X79.979 Y113.072
G1 F1800 X74.459 Y107.552 E68.06807
G0 F9000 X74.459 Y108.118
G1 F1800 X79.979 Y113.637 E68.45750
G0 F9000 X79.979 Y114.203
G1 F1800 X74.459 Y108.683 E68.84697
G0 F9000 X74.459 Y109.249
G1 F1800 X79.979 Y114.769 E69.23643
G0 F9000 X79.979 Y115.334
G1 F1800 X74.459 Y109.815 E69.62586
G0 F9000 X74.459 Y110.380
G1 F1800 X79.979 Y115.900 E70.01533
G0 F9000 X79.979 Y116.466
G1 F1800 X74.459 Y110.946 E70.40480
G0 F9000 X74.459 Y111.512
G1 F1800 X79.979 Y117.031 E70.79423
G0 F9000 X79.979 Y117.597
G1 F1800 X74.459 Y112.077 E71.18369
G0 F9000 X74.459 Y112.643
G1 F1800 X79.979 Y118.163 E71.57316
G0 F9000 X79.979 Y118.728
