;Generated with Cura_SteamEngine 15.01
; Default start code
G28 ; Home extruder
G1 Z15 F100
M107 ; Turn off fan
G90 ; Absolute positioning
M82 ; Extruder in absolute mode
M190 S60
; Activate all used extruder
M104 T0 S225
G92 E0 ; Reset extruder position
; Wait for all used extruders to reach temperature
M109 T0 S225
;Layer count: 70
;LAYER:0
M107
G0 F9000 X73.300 Y76.271 Z0.300
;TYPE:SKIRT
G1 F1800 X77.049 Y72.520 E0.26458
G1 X78.254 Y72.352 E0.32528
G1 X78.481 Y72.294 E0.33697
G1 X78.662 Y72.220 E0.34673
G1 X78.862 Y72.101 E0.35834
G1 X79.845 Y71.366 E0.41957
G1 X93.593 Y71.366 E1.10546
G1 X94.561 Y71.460 E1.15398
G1 X95.242 Y71.630 E1.18900
G1 X95.807 Y71.833 E1.21895
G1 X96.341 Y72.084 E1.24839
G1 X96.851 Y72.385 E1.27794
G1 X97.398 Y72.783 E1.31169
G1 X98.137 Y73.510 E1.36340
G1 X98.556 Y74.060 E1.39790
G1 X98.915 Y74.646 E1.43219
G1 X98.944 Y74.685 E1.43461
G1 X99.120 Y74.878 E1.44764
G1 X99.267 Y74.995 E1.45701
G1 X99.502 Y75.129 E1.47051
G1 X99.790 Y75.211 E1.48545
G1 X99.853 Y75.221 E1.48863
G1 X99.955 Y75.229 E1.49374
G1 X99.965 Y75.229 E1.49424
G1 X100.261 Y75.196 E1.50910
G1 X100.496 Y75.130 E1.52127
G1 X100.504 Y75.126 E1.52172
G1 X100.756 Y74.984 E1.53615
G1 X100.812 Y74.943 E1.53961
G1 X100.849 Y74.910 E1.54209
G1 X101.006 Y74.740 E1.55363
G1 X101.225 Y74.412 E1.57331
G1 X101.459 Y74.036 E1.59540
G1 X101.865 Y73.507 E1.62867
G1 X102.601 Y72.784 E1.68014
G1 X103.162 Y72.376 E1.71475
G1 X103.675 Y72.075 E1.74442
G1 X104.219 Y71.821 E1.77438
G1 X104.783 Y71.623 E1.80420
G1 X105.365 Y71.478 E1.83412
G1 X106.037 Y71.380 E1.86800
G1 X118.437 Y71.366 E2.48664
G1 X120.096 Y71.366 E2.56941
G1 X121.258 Y72.176 E2.64008
G1 X121.415 Y72.255 E2.64885
G1 X121.655 Y72.335 E2.66147
G1 X121.703 Y72.346 E2.66392
G1 X122.953 Y72.523 E2.72691
G1 X126.700 Y76.271 E2.99132
G1 X126.700 Y124.233 E5.38415
G1 X123.624 Y124.799 E5.54019
G1 X123.575 Y124.813 E5.54273
G1 X123.543 Y124.825 E5.54444
G1 X123.293 Y124.954 E5.55847
G1 X123.064 Y125.142 E5.57325
G1 X123.039 Y125.167 E5.57502
G1 X122.186 Y126.174 E5.64086
G1 X119.524 Y126.721 E5.77644
G1 X117.860 Y127.035 E5.86092
G1 X116.188 Y127.323 E5.94557
G1 X114.435 Y127.592 E6.03405
G1 X112.755 Y127.821 E6.11864
G1 X111.072 Y128.022 E6.20320
G1 X109.384 Y128.194 E6.28785
G1 X107.697 Y128.337 E6.37232
G1 X106.007 Y128.453 E6.45683
G1 X104.312 Y128.540 E6.54151
G1 X102.606 Y128.598 E6.62667
G1 X100.920 Y128.628 E6.71080
G1 X99.234 Y128.630 E6.79491
G1 X97.548 Y128.602 E6.87904
G1 X95.863 Y128.548 E6.96315
G1 X94.074 Y128.459 E7.05251
G1 X92.383 Y128.344 E7.13707
G1 X90.695 Y128.202 E7.22158
G1 X89.007 Y128.031 E7.30623
G1 X87.325 Y127.832 E7.39073
G1 X85.645 Y127.604 E7.47531
G1 X83.969 Y127.348 E7.55990
G1 X82.220 Y127.051 E7.64840
G1 X80.555 Y126.738 E7.73293
G1 X78.854 Y126.389 E7.81956
G1 X77.822 Y126.131 E7.87263
G1 X76.896 Y125.110 E7.94140
G1 X76.745 Y124.985 E7.95118
G1 X76.546 Y124.864 E7.96280
G1 X76.498 Y124.842 E7.96543
G1 X76.469 Y124.831 E7.96698
G1 X76.180 Y124.756 E7.98187
G1 X73.300 Y124.326 E8.12715
G1 X73.300 Y76.271 E10.52462
G1 F2400 E6.52462
G0 F9000 X77.100 Y77.844
;TYPE:WALL-INNER
G1 F2400 E10.52462
G1 F1800 X78.835 Y76.108 E10.64707
G1 X78.993 Y76.086 E10.65503
G1 X79.683 Y75.909 E10.69057
G1 X80.359 Y75.631 E10.72704
G1 X80.973 Y75.267 E10.76265
G1 X81.108 Y75.166 E10.77106
G1 X93.411 Y75.166 E11.38486
G1 X93.911 Y75.215 E11.40992
G1 X94.133 Y75.270 E11.42133
G1 X94.359 Y75.351 E11.43331
G1 X94.764 Y75.566 E11.45619
G1 X94.931 Y75.688 E11.46650
G1 X95.280 Y76.031 E11.49092
G1 X95.413 Y76.205 E11.50184
G1 X95.748 Y76.751 E11.53380
G1 X95.991 Y77.087 E11.55449
G1 X96.476 Y77.617 E11.59033
G1 X97.133 Y78.152 E11.63260
G1 X97.818 Y78.543 E11.67195
G1 X98.242 Y78.721 E11.69489
G1 X98.957 Y78.924 E11.73198
G1 X99.397 Y78.997 E11.75423
G1 X99.797 Y79.029 E11.77425
G1 X100.175 Y79.030 E11.79311
G1 X100.993 Y78.938 E11.83417
G1 X101.757 Y78.722 E11.87378
G1 X102.179 Y78.544 E11.89663
G1 X102.826 Y78.179 E11.93370
G1 X103.188 Y77.913 E11.95611
G1 X103.500 Y77.642 E11.97672
G1 X104.003 Y77.094 E12.01384
G1 X104.432 Y76.451 E12.05240
G1 X104.716 Y76.033 E12.07761
G1 X105.066 Y75.689 E12.10210
G1 X105.247 Y75.558 E12.11324
G1 X105.441 Y75.444 E12.12447
G1 X105.655 Y75.344 E12.13625
G1 X105.875 Y75.267 E12.14788
G1 X106.093 Y75.213 E12.15909
G1 X106.317 Y75.180 E12.17038
G1 X118.903 Y75.166 E12.79830
G1 X119.308 Y75.449 E12.82295
G1 X119.956 Y75.775 E12.85914
G1 X120.649 Y76.005 E12.89557
G1 X121.163 Y76.107 E12.92171
G1 X122.900 Y77.844 E13.04427
G1 X122.900 Y121.068 E15.20072
G1 X122.354 Y121.212 E15.22889
G1 X121.999 Y121.347 E15.24784
G1 X121.371 Y121.669 E15.28305
G1 X121.044 Y121.883 E15.30255
G1 X120.492 Y122.336 E15.33817
G1 X120.136 Y122.716 E15.36415
G1 X118.794 Y122.991 E15.43250
G1 X117.181 Y123.296 E15.51439
G1 X115.583 Y123.571 E15.59529
G1 X113.885 Y123.832 E15.68100
G1 X112.278 Y124.052 E15.76192
G1 X110.648 Y124.245 E15.84381
G1 X109.030 Y124.411 E15.92496
G1 X107.411 Y124.547 E16.00601
G1 X105.774 Y124.660 E16.08788
G1 X104.156 Y124.743 E16.16871
G1 X102.503 Y124.799 E16.25122
G1 X100.879 Y124.828 E16.33226
G1 X99.267 Y124.830 E16.41268
G1 X97.644 Y124.803 E16.49366
G1 X96.013 Y124.751 E16.57507
G1 X94.304 Y124.666 E16.66044
G1 X92.666 Y124.554 E16.74235
G1 X91.047 Y124.419 E16.82341
G1 X89.429 Y124.254 E16.90455
G1 X87.808 Y124.062 E16.98598
G1 X86.181 Y123.842 E17.06789
G1 X84.580 Y123.598 E17.14869
G1 X82.885 Y123.309 E17.23447
G1 X81.283 Y123.008 E17.31580
G1 X79.853 Y122.714 E17.38863
G1 X79.524 Y122.352 E17.41304
G1 X78.956 Y121.883 E17.44979
G1 X78.334 Y121.504 E17.48612
G1 X77.978 Y121.339 E17.50570
G1 X77.624 Y121.206 E17.52457
G1 X77.100 Y121.068 E17.55160
G1 X77.100 Y77.844 E19.70806
G0 F9000 X76.700 Y77.678
;TYPE:WALL-OUTER
G1 F1800 X78.647 Y75.730 E19.84546
G1 X78.916 Y75.693 E19.85901
G1 X79.557 Y75.528 E19.89203
G1 X80.180 Y75.272 E19.92563
G1 X80.750 Y74.934 E19.95870
G1 X80.975 Y74.766 E19.97270
G1 X93.429 Y74.766 E20.59404
G1 X93.980 Y74.819 E20.62165
G1 X94.507 Y74.979 E20.64913
G1 X94.750 Y75.093 E20.66252
G1 X94.977 Y75.227 E20.67567
G1 X95.195 Y75.385 E20.68911
G1 X95.581 Y75.765 E20.71613
G1 X95.741 Y75.975 E20.72930
G1 X96.081 Y76.529 E20.76173
G1 X96.302 Y76.834 E20.78052
G1 X96.770 Y77.346 E20.81513
G1 X97.358 Y77.820 E20.85281
G1 X97.995 Y78.184 E20.88941
G1 X98.375 Y78.343 E20.90996
G1 X99.044 Y78.533 E20.94466
G1 X99.446 Y78.600 E20.96499
G1 X99.814 Y78.629 E20.98341
G1 X100.153 Y78.630 E21.00032
G1 X100.916 Y78.544 E21.03863
G1 X101.624 Y78.344 E21.07533
G1 X102.002 Y78.185 E21.09579
G1 X102.609 Y77.842 E21.13057
G1 X102.938 Y77.600 E21.15095
G1 X103.221 Y77.355 E21.16963
G1 X103.688 Y76.846 E21.20409
G1 X104.096 Y76.234 E21.24078
G1 X104.258 Y75.974 E21.25607
G1 X104.420 Y75.763 E21.26934
G1 X104.803 Y75.387 E21.29612
G1 X105.035 Y75.218 E21.31044
G1 X105.256 Y75.088 E21.32323
G1 X105.762 Y74.883 E21.35047
G1 X106.286 Y74.780 E21.37711
G1 X119.029 Y74.766 E22.01286
G1 X119.513 Y75.104 E22.04231
G1 X120.110 Y75.404 E22.07564
G1 X120.755 Y75.619 E22.10956
G1 X121.352 Y75.730 E22.13986
G1 X123.300 Y77.678 E22.27730
G1 X123.300 Y121.401 E24.45865
G1 X122.822 Y121.489 E24.48290
G1 X122.483 Y121.591 E24.50056
G1 X122.162 Y121.713 E24.51769
G1 X121.572 Y122.015 E24.55076
G1 X121.281 Y122.206 E24.56813
G1 X120.763 Y122.631 E24.60155
G1 X120.351 Y123.080 E24.63196
G1 X118.868 Y123.384 E24.70748
G1 X117.255 Y123.689 E24.78938
G1 X115.644 Y123.966 E24.87093
G1 X113.946 Y124.227 E24.95664
G1 X112.325 Y124.449 E25.03827
G1 X110.696 Y124.642 E25.12011
G1 X109.067 Y124.809 E25.20181
G1 X107.438 Y124.947 E25.28337
G1 X105.801 Y125.059 E25.36523
G1 X104.166 Y125.143 E25.44691
G1 X102.516 Y125.199 E25.52927
G1 X100.886 Y125.228 E25.61061
G1 X99.261 Y125.230 E25.69168
G1 X97.631 Y125.203 E25.77301
G1 X96.004 Y125.151 E25.85422
G1 X94.277 Y125.064 E25.94049
G1 X92.639 Y124.953 E26.02240
G1 X91.010 Y124.817 E26.10396
G1 X89.381 Y124.651 E26.18565
G1 X87.752 Y124.458 E26.26749
G1 X86.131 Y124.239 E26.34909
G1 X84.509 Y123.991 E26.43096
G1 X82.821 Y123.704 E26.51638
G1 X81.209 Y123.401 E26.59821
G1 X79.645 Y123.080 E26.67787
G1 X79.247 Y122.642 E26.70739
G1 X78.723 Y122.210 E26.74127
G1 X78.145 Y121.857 E26.77506
G1 X77.503 Y121.587 E26.80981
G1 X76.862 Y121.420 E26.84286
G1 X76.700 Y121.396 E26.85103
G1 X76.700 Y77.678 E29.03213
G0 F9000 X77.240 Y78.088
;TYPE:SKIN
G1 F1800 X120.938 Y121.787 E32.11529
G0 F9000 X120.628 Y122.042
G1 F1800 X77.240 Y78.654 E35.17655
G0 F9000 X77.240 Y79.220
G1 F1800 X120.327 Y122.307 E38.21657
G0 F9000 X120.044 Y122.590
G1 F1800 X77.240 Y79.785 E41.23666
G0 F9000 X77.428 Y77.711
G1 F1800 X121.278 Y121.560 E44.33048
G0 F9000 X121.649 Y121.367
G1 F1800 X77.711 Y77.428 E47.43058
G0 F9000 X77.993 Y77.145
G1 F1800 X122.032 Y121.183 E50.53773
G0 F9000 X122.453 Y121.039
G1 F1800 X78.276 Y76.862 E53.65466
G0 F9000 X78.559 Y76.579
G1 F1800 X122.759 Y120.779 E56.77320
G0 F9000 X122.759 Y120.213
G1 F1800 X78.842 Y76.296 E59.87179
G0 F9000 X79.271 Y76.160
G1 F1800 X122.759 Y119.648 E62.94010
G0 F9000 X122.759 Y119.082
G1 F1800 X79.720 Y76.043 E65.97673
G0 F9000 X80.122 Y75.879
G1 F1800 X122.759 Y118.516 E68.98500
G0 F9000 X122.759 Y117.951
G1 F1800 X80.511 Y75.702 E71.96586
G0 F9000 X80.866 Y75.492
G1 F1800 X122.759 Y117.385 E74.92164
G0 F9000 X122.759 Y116.819
G1 F1800 X81.245 Y75.306 E77.85064
G0 F9000 X81.811 Y75.306
G1 F1800 X122.759 Y116.254 E80.73975
G0 F9000 X122.759 Y115.688
G1 F1800 X82.377 Y75.306 E83.58891
G0 F9000 X82.942 Y75.306
G1 F1800 X122.759 Y115.122 E86.39818
G0 F9000 X122.759 Y114.556
G1 F1800 X83.508 Y75.306 E89.16752
G0 F9000 X84.074 Y75.306
G1 F1800 X122.759 Y113.991 E91.89695
G0 F9000 X122.759 Y113.425
G1 F1800 X84.639 Y75.306 E94.58649
G0 F9000 X85.205 Y75.306
G1 F1800 X122.759 Y112.859 E97.23609
G0 F9000 X122.759 Y112.294
G1 F1800 X85.771 Y75.306 E99.84579
G0 F9000 X86.337 Y75.306
G1 F1800 X122.759 Y111.728 E102.41556
G0 F9000 X122.759 Y111.162
G1 F1800 X86.902 Y75.306 E104.94543
G0 F9000 X87.468 Y75.306
G1 F1800 X122.759 Y110.597 E107.43540
G0 F9000 X122.759 Y110.031
G1 F1800 X88.034 Y75.306 E109.88544
G0 F9000 X88.599 Y75.306
G1 F1800 X122.759 Y109.465 E112.29558
G0 F9000 X122.759 Y108.900
G1 F1800 X89.165 Y75.306 E114.66582
G0 F9000 X89.731 Y75.306
G1 F1800 X122.759 Y108.334 E116.99612
G0 F9000 X122.759 Y107.768
G1 F1800 X90.296 Y75.306 E119.28652
G0 F9000 X90.862 Y75.306
G1 F1800 X122.759 Y107.203 E121.53703
G0 F9000 X122.759 Y106.637
G1 F1800 X91.428 Y75.306 E123.74760
G0 F9000 X91.993 Y75.306
G1 F1800 X122.759 Y106.071 E125.91827
G0 F9000 X122.759 Y105.505
G1 F1800 X92.559 Y75.306 E128.04901
G0 F9000 X93.125 Y75.306
G1 F1800 X122.759 Y104.940 E130.13985
G0 F9000 X122.759 Y104.374
G1 F1800 X93.722 Y75.337 E132.18857
G0 F9000 X94.576 Y75.625
G1 F1800 X95.395 Y76.444 E132.24635
G0 F9000 X97.440 Y78.489
G1 F1800 X122.759 Y103.808 E134.03274
G0 F9000 X122.759 Y103.243
G1 F1800 X98.438 Y78.922 E135.74872
G0 F9000 X99.185 Y79.104
G1 F1800 X122.759 Y102.677 E137.41196
G0 F9000 X122.759 Y102.111
G1 F1800 X99.816 Y79.169 E139.03068
G0 F9000 X100.362 Y79.149
G1 F1800 X122.759 Y101.546 E140.61091
G0 F9000 X122.759 Y100.980
G1 F1800 X100.870 Y79.092 E142.15526
G0 F9000 X101.331 Y78.987
G1 F1800 X122.759 Y100.414 E143.66708
G0 F9000 X122.759 Y99.849
G1 F1800 X101.773 Y78.862 E145.14780
G0 F9000 X102.174 Y78.698
G1 F1800 X122.759 Y99.283 E146.60018
G0 F9000 X122.759 Y98.717
G1 F1800 X102.541 Y78.500 E148.02663
G0 F9000 X102.903 Y78.295
G1 F1800 X122.759 Y98.152 E149.42762
G0 F9000 X122.759 Y97.586
G1 F1800 X103.229 Y78.056 E150.80556
G0 F9000 X103.535 Y77.797
G1 F1800 X122.759 Y97.020 E152.16188
G0 F9000 X122.759 Y96.455
G1 F1800 X103.812 Y77.508 E153.49870
G0 F9000 X104.082 Y77.212
G1 F1800 X122.759 Y95.889 E154.81646
G0 F9000 X122.759 Y95.323
G1 F1800 X104.315 Y76.879 E156.11778
G0 F9000 X104.542 Y76.540
G1 F1800 X122.759 Y94.757 E157.40309
G0 F9000 X122.759 Y94.192
G1 F1800 X104.769 Y76.202 E158.67238
G0 F9000 X105.042 Y75.909
G1 F1800 X122.759 Y93.626 E159.92241
G0 F9000 X122.759 Y93.060
G1 F1800 X105.355 Y75.656 E161.15036
G0 F9000 X105.729 Y75.465
G1 F1800 X122.759 Y92.495 E162.35192
G0 F9000 X122.759 Y91.929
G1 F1800 X106.173 Y75.343 E163.52215
G0 F9000 X106.715 Y75.320
G1 F1800 X122.759 Y91.363 E164.65411
G0 F9000 X122.759 Y90.798
G1 F1800 X107.280 Y75.319 E165.74623
G0 F9000 X107.845 Y75.318
G1 F1800 X122.759 Y90.232 E166.79850
G0 F9000 X122.759 Y89.666
G1 F1800 X108.410 Y75.318 E167.81086
G0 F9000 X108.975 Y75.317
G1 F1800 X122.759 Y89.101 E168.78340
G0 F9000 X122.759 Y88.535
G1 F1800 X109.540 Y75.316 E169.71607
G0 F9000 X110.105 Y75.316
G1 F1800 X122.759 Y87.969 E170.60884
G0 F9000 X122.759 Y87.404
G1 F1800 X110.671 Y75.316 E171.46171
G0 F9000 X111.236 Y75.315
G1 F1800 X122.759 Y86.838 E172.27472
G0 F9000 X122.759 Y86.272
G1 F1800 X111.801 Y75.314 E173.04787
G0 F9000 X112.366 Y75.313
G1 F1800 X122.759 Y85.706 E173.78115
G0 F9000 X122.759 Y85.141
G1 F1800 X112.931 Y75.313 E174.47457
G0 F9000 X113.496 Y75.312
G1 F1800 X122.759 Y84.575 E175.12813
G0 F9000 X122.759 Y84.009
G1 F1800 X114.061 Y75.311 E175.74182
G0 F9000 X114.626 Y75.311
G1 F1800 X122.759 Y83.444 E176.31564
G0 F9000 X122.759 Y82.878
G1 F1800 X115.191 Y75.310 E176.84961
G0 F9000 X115.756 Y75.309
G1 F1800 X122.759 Y82.312 E177.34371
G0 F9000 X122.759 Y81.747
G1 F1800 X116.321 Y75.309 E177.79794
G0 F9000 X116.886 Y75.308
G1 F1800 X122.759 Y81.181 E178.21231
G0 F9000 X122.759 Y80.615
G1 F1800 X117.451 Y75.308 E178.58679
G0 F9000 X118.016 Y75.307
G1 F1800 X122.759 Y80.050 E178.92143
G0 F9000 X122.759 Y79.484
G1 F1800 X118.581 Y75.306 E179.21621
G0 F9000 X119.587 Y75.746
G1 F1800 X122.759 Y78.918 E179.44001
G0 F9000 X122.759 Y78.353
G1 F1800 X120.514 Y76.108 E179.59841
G0 F9000 X99.398 Y78.996
G0 X77.240 Y80.351
G1 F1800 X119.571 Y122.683 E182.58513
G0 F9000 X119.098 Y122.775
G1 F1800 X77.240 Y80.917 E185.53843
G0 F9000 X77.240 Y81.482
G1 F1800 X118.626 Y122.868 E188.45844
G0 F9000 X118.153 Y122.961
G1 F1800 X77.240 Y82.048 E191.34507
G0 F9000 X77.240 Y82.614
G1 F1800 X117.680 Y123.054 E194.19833
G0 F9000 X117.207 Y123.147
G1 F1800 X77.240 Y83.179 E197.01826
G0 F9000 X77.240 Y83.745
G1 F1800 X116.726 Y123.231 E199.80421
G0 F9000 X116.243 Y123.314
G1 F1800 X77.240 Y84.311 E202.55608
G0 F9000 X77.240 Y84.876
G1 F1800 X115.760 Y123.397 E205.27391
G0 F9000 X115.271 Y123.473
G1 F1800 X77.240 Y85.442 E207.95720
G0 F9000 X77.240 Y86.008
G1 F1800 X114.777 Y123.545 E210.60564
G0 F9000 X114.284 Y123.617
G1 F1800 X77.240 Y86.573 E213.21929
G0 F9000 X77.240 Y87.139
G1 F1800 X113.790 Y123.689 E215.79809
G0 F9000 X113.296 Y123.762
G1 F1800 X77.240 Y87.705 E218.34207
G0 F9000 X77.240 Y88.270
G1 F1800 X112.803 Y123.834 E220.85127
G0 F9000 X112.309 Y123.906
G1 F1800 X77.240 Y88.836 E223.32561
G0 F9000 X77.240 Y89.402
G1 F1800 X111.799 Y123.962 E225.76397
G0 F9000 X111.290 Y124.018
G1 F1800 X77.240 Y89.968 E228.16638
G0 F9000 X77.240 Y90.533
G1 F1800 X110.781 Y124.075 E230.53292
G0 F9000 X110.272 Y124.131
G1 F1800 X77.240 Y91.099 E232.86350
G0 F9000 X77.240 Y91.665
G1 F1800 X109.762 Y124.187 E235.15811
G0 F9000 X109.253 Y124.244
G1 F1800 X77.240 Y92.230 E237.41683
G0 F9000 X77.240 Y92.796
G1 F1800 X108.737 Y124.293 E239.63912
G0 F9000 X108.215 Y124.337
G1 F1800 X77.240 Y93.362 E241.82457
G0 F9000 X77.240 Y93.927
G1 F1800 X107.693 Y124.381 E243.97323
G0 F9000 X107.168 Y124.421
G1 F1800 X77.240 Y94.493 E246.08481
G0 F9000 X77.240 Y95.059
G1 F1800 X106.639 Y124.458 E248.15907
G0 F9000 X106.110 Y124.495
G1 F1800 X77.240 Y95.624 E250.19604
G0 F9000 X77.240 Y96.190
G1 F1800 X105.578 Y124.528 E252.19544
G0 F9000 X105.040 Y124.556
G1 F1800 X77.240 Y96.756 E254.15688
G0 F9000 X77.240 Y97.321
G1 F1800 X104.502 Y124.584 E256.08039
G0 F9000 X103.959 Y124.607
G1 F1800 X77.240 Y97.887 E257.96560
G0 F9000 X77.240 Y98.453
G1 F1800 X103.408 Y124.621 E259.81189
G0 F9000 X102.856 Y124.635
G1 F1800 X77.240 Y99.018 E261.61928
G0 F9000 X77.240 Y99.584
G1 F1800 X102.305 Y124.650 E263.38778
G0 F9000 X101.754 Y124.664
G1 F1800 X77.240 Y100.150 E265.11738
G0 F9000 X77.240 Y100.716
G1 F1800 X101.202 Y124.678 E266.80803
G0 F9000 X100.645 Y124.686
