;Generated with Cura_SteamEngine 15.01
; Default start code
G28 ; Home extruder
G1 Z15 F100
M107 ; Turn off fan
G90 ; Absolute positioning
M82 ; Extruder in absolute mode
M190 S80
; Activate all used extruder
M104 T0 S220
G92 E0 ; Reset extruder position
; Wait for all used extruders to reach temperature
M109 T0 S220
;Layer count: 183
;LAYER:0
M107
G0 F9000 X75.906 Y73.299 Z0.300
;TYPE:SKIRT
G1 F1800 X117.873 Y73.299 E2.09374
G1 X117.873 Y73.027 E2.10731
G1 X118.073 Y72.827 E2.12142
G1 X118.073 Y72.627 E2.13140
G1 X118.273 Y72.427 E2.14551
G1 X118.273 Y72.231 E2.15529
G1 X118.673 Y71.830 E2.18355
G1 X118.673 Y70.831 E2.23339
G1 X119.673 Y70.331 E2.28917
G1 X119.673 Y70.057 E2.30284
G1 X119.473 Y69.857 E2.31695
G1 X119.473 Y69.457 E2.33690
G1 X119.273 Y69.257 E2.35102
G1 X119.273 Y68.657 E2.38095
G1 X119.073 Y68.457 E2.39506
G1 X119.073 Y68.057 E2.41502
G1 X118.873 Y67.857 E2.42913
G1 X118.873 Y67.457 E2.44908
G1 X118.673 Y67.257 E2.46320
G1 X118.673 Y66.857 E2.48315
G1 X118.473 Y66.657 E2.49726
G1 X118.473 Y66.457 E2.50724
G1 X118.273 Y66.257 E2.52135
G1 X118.273 Y65.857 E2.54131
G1 X118.073 Y65.657 E2.55542
G1 X118.073 Y65.457 E2.56540
G1 X117.873 Y65.257 E2.57951
G1 X117.873 Y64.857 E2.59946
G1 X117.673 Y64.657 E2.61358
G1 X117.673 Y64.457 E2.62355
G1 X117.473 Y64.257 E2.63766
G1 X117.473 Y64.057 E2.64764
G1 X117.273 Y63.857 E2.66175
G1 X117.273 Y63.657 E2.67173
G1 X117.073 Y63.457 E2.68584
G1 X117.073 Y63.057 E2.70580
G1 X116.873 Y62.857 E2.71991
G1 X116.873 Y62.657 E2.72989
G1 X116.774 Y62.558 E2.73687
G1 X115.022 Y62.398 E2.82464
G1 X114.270 Y61.651 E2.87753
G1 X112.273 Y60.654 E2.98888
G1 X112.273 Y59.657 E3.03862
G1 X112.073 Y59.457 E3.05273
G1 X112.073 Y59.057 E3.07269
G1 X111.873 Y58.857 E3.08680
G1 X111.873 Y58.657 E3.09678
G1 X111.673 Y58.457 E3.11089
G1 X111.673 Y58.257 E3.12087
G1 X111.473 Y58.057 E3.13498
G1 X111.473 Y57.455 E3.16501
G1 X110.673 Y56.652 E3.22156
G1 X110.673 Y56.257 E3.24127
G1 X110.473 Y56.057 E3.25538
G1 X110.473 Y55.857 E3.26536
G1 X110.273 Y55.657 E3.27947
G1 X110.273 Y55.454 E3.28960
G1 X109.873 Y55.053 E3.31786
G1 X109.873 Y51.227 E3.50874
G1 X110.073 Y51.027 E3.52285
G1 X110.073 Y49.730 E3.58755
G1 X112.263 Y48.636 E3.70969
G1 X113.666 Y47.235 E3.80861
G1 X114.062 Y47.037 E3.83070
G1 X114.958 Y46.142 E3.89388
G1 X121.088 Y46.142 E4.19970
G1 X121.985 Y47.038 E4.26296
G1 X124.173 Y48.129 E4.38493
G1 X124.173 Y49.227 E4.43971
G1 X124.373 Y49.427 E4.45383
G1 X124.373 Y49.627 E4.46380
G1 X124.573 Y49.827 E4.47791
G1 X124.573 Y50.027 E4.48789
G1 X124.773 Y50.227 E4.50200
G1 X124.773 Y50.427 E4.51198
G1 X124.973 Y50.627 E4.52609
G1 X124.973 Y50.828 E4.53612
G1 X125.373 Y51.229 E4.56438
G1 X125.373 Y51.627 E4.58423
G1 X125.573 Y51.827 E4.59835
G1 X125.573 Y52.027 E4.60832
G1 X125.773 Y52.227 E4.62243
G1 X125.773 Y52.427 E4.63241
G1 X125.973 Y52.627 E4.64652
G1 X125.973 Y52.827 E4.65650
G1 X126.173 Y53.027 E4.67061
G1 X126.173 Y53.041 E4.67131
G1 X127.173 Y53.076 E4.72123
G1 X127.173 Y55.627 E4.84850
G1 X127.373 Y55.827 E4.86261
G1 X127.373 Y56.027 E4.87259
G1 X127.573 Y56.227 E4.88670
G1 X127.573 Y56.427 E4.89668
G1 X127.773 Y56.627 E4.91079
G1 X127.773 Y56.827 E4.92077
G1 X127.973 Y57.027 E4.93488
G1 X127.973 Y57.227 E4.94486
G1 X128.173 Y57.427 E4.95897
G1 X128.173 Y57.627 E4.96895
G1 X128.373 Y57.827 E4.98306
G1 X128.373 Y58.027 E4.99304
G1 X128.573 Y58.227 E5.00715
G1 X128.573 Y58.627 E5.02710
G1 X128.773 Y58.827 E5.04121
G1 X128.773 Y59.227 E5.06117
G1 X128.973 Y59.427 E5.07528
G1 X128.973 Y59.827 E5.09524
G1 X129.173 Y60.027 E5.10935
G1 X129.173 Y60.227 E5.11933
G1 X129.373 Y60.427 E5.13344
G1 X129.373 Y60.827 E5.15339
G1 X129.573 Y61.027 E5.16751
G1 X129.573 Y61.227 E5.17748
G1 X129.773 Y61.427 E5.19159
G1 X129.773 Y61.827 E5.21155
G1 X129.973 Y62.027 E5.22566
G1 X129.973 Y62.227 E5.23564
G1 X130.173 Y62.427 E5.24975
G1 X130.173 Y62.827 E5.26971
G1 X130.373 Y63.027 E5.28382
G1 X130.373 Y63.427 E5.30377
G1 X130.573 Y63.627 E5.31789
G1 X130.573 Y64.027 E5.33784
G1 X130.773 Y64.227 E5.35195
G1 X130.773 Y64.627 E5.37191
G1 X130.973 Y64.827 E5.38602
G1 X130.973 Y65.227 E5.40598
G1 X131.173 Y65.427 E5.42009
G1 X131.173 Y66.027 E5.45002
G1 X131.373 Y66.227 E5.46413
G1 X131.373 Y66.427 E5.47411
G1 X131.573 Y66.627 E5.48822
G1 X131.573 Y67.027 E5.50818
G1 X131.773 Y67.227 E5.52229
G1 X131.773 Y67.627 E5.54224
G1 X131.973 Y67.827 E5.55636
G1 X131.973 Y68.227 E5.57631
G1 X132.173 Y68.427 E5.59042
G1 X132.173 Y68.827 E5.61038
G1 X132.373 Y69.027 E5.62449
G1 X132.373 Y69.627 E5.65442
G1 X132.573 Y69.827 E5.66853
G1 X132.573 Y70.427 E5.69847
G1 X132.773 Y70.627 E5.71258
G1 X132.773 Y70.932 E5.72780
G1 X133.373 Y70.968 E5.75778
G1 X133.373 Y73.627 E5.89044
G1 X133.573 Y73.827 E5.90455
G1 X133.573 Y74.826 E5.95439
G1 X134.473 Y75.726 E6.01789
G1 X134.173 Y76.451 E6.05704
G1 X134.173 Y81.954 E6.33158
G1 X130.709 Y83.684 E6.52476
G1 X130.373 Y83.705 E6.54155
G1 X130.373 Y85.542 E6.63320
G1 X127.222 Y85.542 E6.79041
G1 X127.501 Y87.608 E6.89442
G1 X127.752 Y89.833 E7.00612
G1 X127.953 Y92.063 E7.11783
G1 X128.105 Y94.298 E7.22959
G1 X128.208 Y96.578 E7.34346
G1 X128.258 Y98.684 E7.44856
G1 X128.263 Y100.905 E7.55936
G1 X128.213 Y103.327 E7.68022
G1 X128.117 Y105.502 E7.78884
G1 X127.965 Y107.818 E7.90463
G1 X127.765 Y110.049 E8.01639
G1 X127.517 Y112.275 E8.12813
G1 X127.240 Y114.342 E8.23217
G1 X130.373 Y114.342 E8.38848
G1 X130.373 Y116.165 E8.47943
G1 X131.582 Y116.236 E8.53985
G1 X134.173 Y118.828 E8.72269
G1 X134.173 Y123.437 E8.95264
G1 X134.471 Y124.160 E8.99165
G1 X133.573 Y125.058 E9.05501
G1 X133.573 Y128.078 E9.20568
G1 X133.373 Y128.092 E9.21568
G1 X133.373 Y129.342 E9.27805
G1 X132.688 Y129.342 E9.31222
G1 X132.573 Y129.457 E9.32033
G1 X132.573 Y130.057 E9.35027
G1 X132.373 Y130.257 E9.36438
G1 X132.373 Y130.657 E9.38434
G1 X132.173 Y130.857 E9.39845
G1 X132.173 Y131.257 E9.41840
G1 X131.973 Y131.457 E9.43251
G1 X131.973 Y131.857 E9.45247
G1 X131.773 Y132.057 E9.46658
G1 X131.773 Y132.457 E9.48654
G1 X131.573 Y132.657 E9.50065
G1 X131.573 Y133.057 E9.52060
G1 X131.373 Y133.257 E9.53472
G1 X131.373 Y133.457 E9.54469
G1 X131.173 Y133.657 E9.55880
G1 X131.173 Y134.257 E9.58874
G1 X130.973 Y134.457 E9.60285
G1 X130.973 Y135.057 E9.63278
G1 X130.773 Y135.257 E9.64689
G1 X130.773 Y135.657 E9.66685
G1 X130.573 Y135.857 E9.68096
G1 X130.573 Y136.257 E9.70092
G1 X130.373 Y136.457 E9.71503
G1 X130.373 Y136.657 E9.72501
G1 X130.173 Y136.857 E9.73912
G1 X130.173 Y137.257 E9.75907
G1 X129.973 Y137.457 E9.77319
G1 X129.973 Y137.657 E9.78316
G1 X129.773 Y137.857 E9.79727
G1 X129.773 Y138.257 E9.81723
G1 X129.573 Y138.457 E9.83134
G1 X129.573 Y138.857 E9.85130
G1 X129.373 Y139.057 E9.86541
G1 X129.373 Y139.457 E9.88536
G1 X129.173 Y139.657 E9.89948
G1 X129.173 Y139.857 E9.90945
G1 X128.973 Y140.057 E9.92357
G1 X128.973 Y140.457 E9.94352
G1 X128.773 Y140.657 E9.95763
G1 X128.773 Y140.857 E9.96761
G1 X128.573 Y141.057 E9.98172
G1 X128.573 Y141.457 E10.00168
G1 X128.373 Y141.657 E10.01579
G1 X128.373 Y141.857 E10.02577
G1 X128.173 Y142.057 E10.03988
G1 X128.173 Y142.457 E10.05983
G1 X127.973 Y142.657 E10.07394
G1 X127.973 Y142.857 E10.08392
G1 X127.773 Y143.057 E10.09803
G1 X127.773 Y143.257 E10.10801
G1 X127.573 Y143.457 E10.12212
G1 X127.573 Y143.657 E10.13210
G1 X127.373 Y143.857 E10.14621
G1 X127.373 Y144.057 E10.15619
G1 X127.173 Y144.257 E10.17030
G1 X127.173 Y146.825 E10.29842
G1 X126.173 Y146.855 E10.34833
G1 X126.173 Y146.857 E10.34843
G1 X125.973 Y147.057 E10.36254
G1 X125.973 Y147.257 E10.37252
G1 X125.773 Y147.457 E10.38663
G1 X125.773 Y147.657 E10.39661
G1 X125.573 Y147.857 E10.41072
G1 X125.573 Y148.057 E10.42070
G1 X125.373 Y148.257 E10.43481
G1 X125.373 Y148.655 E10.45467
G1 X124.973 Y149.056 E10.48292
G1 X124.973 Y149.257 E10.49295
G1 X124.773 Y149.457 E10.50706
G1 X124.773 Y149.657 E10.51704
G1 X124.573 Y149.857 E10.53115
G1 X124.573 Y150.057 E10.54113
G1 X124.373 Y150.257 E10.55524
G1 X124.373 Y150.456 E10.56517
G1 X123.573 Y151.256 E10.62161
G1 X123.573 Y152.454 E10.68138
G1 X120.577 Y153.450 E10.83890
G1 X119.596 Y153.942 E10.89365
G1 X116.894 Y153.942 E11.02845
G1 X114.581 Y153.365 E11.14738
G1 X114.062 Y152.847 E11.18397
G1 X113.666 Y152.649 E11.20606
G1 X110.073 Y149.056 E11.45956
G1 X110.073 Y148.857 E11.46949
G1 X109.873 Y148.657 E11.48360
G1 X109.873 Y144.631 E11.68446
G1 X110.273 Y144.230 E11.71272
G1 X110.273 Y144.027 E11.72284
G1 X110.473 Y143.827 E11.73696
G1 X110.473 Y143.627 E11.74693
G1 X110.673 Y143.427 E11.76104
G1 X110.673 Y143.032 E11.78075
G1 X111.473 Y142.229 E11.83730
G1 X111.473 Y141.827 E11.85736
G1 X111.673 Y141.627 E11.87147
G1 X111.673 Y141.427 E11.88145
G1 X111.873 Y141.227 E11.89556
G1 X111.873 Y141.027 E11.90554
G1 X112.073 Y140.827 E11.91965
G1 X112.073 Y140.427 E11.93960
G1 X112.273 Y140.227 E11.95371
G1 X112.273 Y140.028 E11.96364
G1 X114.582 Y137.719 E12.12655
G1 X116.702 Y137.190 E12.23556
G1 X116.873 Y137.173 E12.24414
G1 X116.873 Y137.027 E12.25142
G1 X117.073 Y136.827 E12.26553
G1 X117.073 Y136.427 E12.28549
G1 X117.273 Y136.227 E12.29960
G1 X117.273 Y136.027 E12.30958
G1 X117.473 Y135.827 E12.32369
G1 X117.473 Y135.427 E12.34365
G1 X117.673 Y135.227 E12.35776
G1 X117.673 Y135.027 E12.36773
G1 X117.873 Y134.827 E12.38185
G1 X117.873 Y134.427 E12.40180
G1 X118.073 Y134.227 E12.41591
G1 X118.073 Y134.027 E12.42589
G1 X118.273 Y133.827 E12.44000
G1 X118.273 Y133.427 E12.45996
G1 X118.473 Y133.227 E12.47407
G1 X118.473 Y133.027 E12.48405
G1 X118.673 Y132.827 E12.49816
G1 X118.673 Y132.427 E12.51811
G1 X118.873 Y132.227 E12.53223
G1 X118.873 Y131.827 E12.55218
G1 X119.073 Y131.627 E12.56629
G1 X119.073 Y131.227 E12.58625
G1 X119.273 Y131.027 E12.60036
G1 X119.273 Y130.627 E12.62032
G1 X119.473 Y130.427 E12.63443
G1 X119.473 Y130.027 E12.65438
G1 X119.673 Y129.827 E12.66849
G1 X119.673 Y129.553 E12.68216
G1 X118.673 Y129.054 E12.73792
G1 X118.673 Y128.057 E12.78766
G1 X118.473 Y127.857 E12.80177
G1 X118.473 Y127.654 E12.81190
G1 X118.073 Y127.253 E12.84016
G1 X118.073 Y127.057 E12.84994
G1 X117.873 Y126.857 E12.86405
G1 X117.873 Y126.699 E12.87193
G1 X75.906 Y126.699 E14.96567
G1 X72.174 Y122.968 E15.22895
G1 X71.971 Y121.658 E15.29509
G1 X71.941 Y121.538 E15.30126
G1 X71.897 Y121.418 E15.30763
G1 X71.848 Y121.314 E15.31337
G1 X71.778 Y121.198 E15.32013
G1 X71.001 Y120.134 E15.38586
G1 X71.001 Y107.587 E16.01183
G1 X70.662 Y107.248 E16.03575
G1 X67.073 Y105.454 E16.23593
G1 X67.073 Y105.153 E16.25095
G1 X66.473 Y104.853 E16.28441
G1 X66.473 Y103.857 E16.33410
G1 X66.273 Y103.657 E16.34821
G1 X66.273 Y103.457 E16.35819
G1 X66.073 Y103.257 E16.37230
G1 X66.073 Y103.057 E16.38228
G1 X65.873 Y102.857 E16.39639
G1 X65.873 Y96.831 E16.69703
G1 X66.273 Y96.430 E16.72529
G1 X66.273 Y96.227 E16.73542
G1 X66.473 Y96.027 E16.74953
G1 X66.473 Y95.828 E16.75946
G1 X68.665 Y93.636 E16.91411
G1 X69.862 Y93.037 E16.98089
G1 X70.066 Y92.834 E16.99525
G1 X70.464 Y92.635 E17.01745
G1 X71.019 Y92.080 E17.05661
G1 X71.001 Y82.161 E17.55147
G1 X71.001 Y79.869 E17.66582
G1 X71.782 Y78.791 E17.73223
G1 X71.850 Y78.678 E17.73881
G1 X71.897 Y78.576 E17.74441
G1 X71.941 Y78.453 E17.75093
G1 X71.971 Y78.333 E17.75710
G1 X72.177 Y77.026 E17.82311
G1 X75.906 Y73.299 E18.08614
G1 F2400 E14.08614
G0 F9000 X77.479 Y77.099
;TYPE:WALL-INNER
G1 F2400 E18.08614
G1 F1800 X120.695 Y77.099 E20.24220
G1 X120.817 Y77.554 E20.26570
G1 X120.995 Y78.028 E20.29096
G1 X121.219 Y78.481 E20.31617
G1 X121.487 Y78.911 E20.34145
G1 X121.798 Y79.313 E20.36681
G1 X122.179 Y79.710 E20.39426
G1 X122.350 Y79.858 E20.40554
G1 X122.705 Y81.605 E20.49448
G1 X123.105 Y83.806 E20.60609
G1 X123.440 Y85.933 E20.71351
G1 X123.730 Y88.081 E20.82165
G1 X123.971 Y90.210 E20.92855
G1 X124.164 Y92.356 E21.03604
G1 X124.311 Y94.520 E21.14425
G1 X124.410 Y96.702 E21.25323
G1 X124.458 Y98.726 E21.35423
G1 X124.463 Y100.862 E21.46080
G1 X124.414 Y103.211 E21.57802
G1 X124.324 Y105.287 E21.68168
G1 X124.176 Y107.517 E21.79318
G1 X123.983 Y109.676 E21.90133
G1 X123.747 Y111.805 E22.00819
G1 X123.460 Y113.940 E22.11567
G1 X123.126 Y116.070 E22.22323
G1 X122.743 Y118.203 E22.33135
G1 X122.350 Y120.138 E22.42986
G1 X122.144 Y120.318 E22.44351
G1 X121.796 Y120.686 E22.46878
G1 X121.487 Y121.086 E22.49399
G1 X121.219 Y121.516 E22.51927
G1 X120.995 Y121.969 E22.54448
G1 X120.816 Y122.446 E22.56990
G1 X120.700 Y122.899 E22.59323
G1 X77.479 Y122.899 E24.74953
G1 X75.739 Y121.159 E24.87230
G1 X75.697 Y120.891 E24.88584
G1 X75.576 Y120.417 E24.91024
G1 X75.409 Y119.956 E24.93470
G1 X75.202 Y119.519 E24.95883
G1 X74.954 Y119.104 E24.98295
G1 X74.801 Y118.894 E24.99591
G1 X74.801 Y106.581 E25.61021
G1 X74.819 Y106.273 E25.62560
G1 X74.869 Y105.998 E25.63955
G1 X74.951 Y105.727 E25.65367
G1 X75.067 Y105.464 E25.66801
G1 X75.208 Y105.225 E25.68186
G1 X75.401 Y104.977 E25.69753
G1 X75.583 Y104.789 E25.71059
G1 X75.798 Y104.614 E25.72442
G1 X76.438 Y104.213 E25.76210
G1 X76.885 Y103.873 E25.79012
G1 X77.262 Y103.515 E25.81605
G1 X77.600 Y103.123 E25.84188
G1 X77.896 Y102.699 E25.86768
G1 X78.146 Y102.246 E25.89349
G1 X78.350 Y101.772 E25.91923
G1 X78.506 Y101.278 E25.94508
G1 X78.610 Y100.772 E25.97085
G1 X78.662 Y100.257 E25.99668
G1 X78.662 Y99.740 E26.02247
G1 X78.610 Y99.226 E26.04824
G1 X78.506 Y98.719 E26.07407
G1 X78.350 Y98.225 E26.09991
G1 X78.146 Y97.751 E26.12566
G1 X77.896 Y97.298 E26.15147
G1 X77.600 Y96.874 E26.17727
G1 X77.262 Y96.482 E26.20309
G1 X76.885 Y96.124 E26.22903
G1 X76.438 Y95.785 E26.25702
G1 X75.825 Y95.401 E26.29310
G1 X75.576 Y95.202 E26.30901
G1 X75.383 Y95.003 E26.32284
G1 X75.209 Y94.774 E26.33719
G1 X75.070 Y94.538 E26.35085
G1 X74.941 Y94.237 E26.36719
G1 X74.869 Y93.999 E26.37959
G1 X74.822 Y93.740 E26.39273
G1 X74.801 Y82.158 E26.97056
G1 X74.801 Y81.102 E27.02324
G1 X74.964 Y80.877 E27.03710
G1 X75.210 Y80.462 E27.06117
G1 X75.418 Y80.019 E27.08559
G1 X75.581 Y79.559 E27.10993
G1 X75.698 Y79.092 E27.13395
G1 X75.738 Y78.839 E27.14673
G1 X77.479 Y77.099 E27.26953
G0 F9000 X77.313 Y76.699
;TYPE:WALL-OUTER
G1 F1800 X121.033 Y76.699 E29.45073
G1 X121.078 Y76.981 E29.46498
G1 X121.198 Y77.432 E29.48826
G1 X121.362 Y77.869 E29.51155
G1 X121.569 Y78.286 E29.53478
G1 X121.816 Y78.682 E29.55806
G1 X122.101 Y79.052 E29.58136
G1 X122.455 Y79.420 E29.60684
G1 X122.714 Y79.645 E29.62395
G1 X123.098 Y81.534 E29.72012
G1 X123.499 Y83.743 E29.83213
G1 X123.837 Y85.884 E29.94027
G1 X124.126 Y88.023 E30.04796
G1 X124.369 Y90.174 E30.15595
G1 X124.564 Y92.329 E30.26390
G1 X124.710 Y94.488 E30.37186
G1 X124.810 Y96.693 E30.48198
G1 X124.858 Y98.725 E30.58339
G1 X124.863 Y100.871 E30.69045
G1 X124.814 Y103.215 E30.80742
G1 X124.722 Y105.314 E30.91224
G1 X124.574 Y107.557 E31.02439
G1 X124.382 Y109.707 E31.13208
G1 X124.143 Y111.858 E31.24005
G1 X123.856 Y114.002 E31.34797
G1 X123.520 Y116.141 E31.45600
G1 X123.138 Y118.269 E31.56386
G1 X122.715 Y120.351 E31.66985
G1 X122.421 Y120.607 E31.68930
G1 X122.101 Y120.946 E31.71256
G1 X121.816 Y121.315 E31.73582
G1 X121.569 Y121.711 E31.75911
G1 X121.362 Y122.128 E31.78233
G1 X121.198 Y122.566 E31.80567
G1 X121.071 Y123.061 E31.83116
G1 X121.033 Y123.299 E31.84319
G1 X77.313 Y123.299 E34.02439
G1 X75.364 Y121.350 E34.16190
G1 X75.305 Y120.972 E34.18098
G1 X75.193 Y120.535 E34.20349
G1 X75.040 Y120.110 E34.22603
G1 X74.849 Y119.708 E34.24823
G1 X74.620 Y119.325 E34.27049
G1 X74.401 Y119.024 E34.28907
G1 X74.401 Y106.575 E34.91015
G1 X74.421 Y106.228 E34.92749
G1 X74.481 Y105.898 E34.94422
G1 X74.574 Y105.591 E34.96023
G1 X74.712 Y105.278 E34.97729
G1 X74.873 Y105.003 E34.99319
G1 X75.102 Y104.710 E35.01174
G1 X75.311 Y104.494 E35.02674
G1 X75.566 Y104.286 E35.04316
G1 X76.210 Y103.884 E35.08103
G1 X76.626 Y103.568 E35.10709
G1 X76.972 Y103.239 E35.13091
G1 X77.283 Y102.878 E35.15469
G1 X77.556 Y102.487 E35.17848
G1 X77.787 Y102.070 E35.20226
G1 X77.975 Y101.633 E35.22600
G1 X78.118 Y101.177 E35.24984
G1 X78.214 Y100.711 E35.27357
G1 X78.262 Y100.237 E35.29734
G1 X78.262 Y99.760 E35.32114
G1 X78.214 Y99.287 E35.34486
G1 X78.118 Y98.820 E35.36865
G1 X77.975 Y98.364 E35.39249
G1 X77.787 Y97.927 E35.41622
G1 X77.556 Y97.510 E35.44001
G1 X77.283 Y97.119 E35.46380
