;Generated with Cura_SteamEngine 15.01
; Default start code
G28 ; Home extruder
G1 Z15 F100
M107 ; Turn off fan
G90 ; Absolute positioning
M82 ; Extruder in absolute mode
M190 S60
; Activate all used extruder
M104 T0 S220
G92 E0 ; Reset extruder position
; Wait for all used extruders to reach temperature
M109 T0 S220
;Layer count: 15
;LAYER:0
M107
G0 F9000 X70.045 Y70.723 Z0.300
;TYPE:SKIRT
G1 F1800 X70.723 Y70.045 E0.04784
G1 X71.480 Y69.451 E0.09584
G1 X72.303 Y68.955 E0.14378
G1 X73.179 Y68.560 E0.19172
G1 X74.096 Y68.275 E0.23963
G1 X74.991 Y68.110 E0.28504
G1 X75.526 Y68.062 E0.31183
G1 X76.028 Y68.049 E0.33689
G1 X76.506 Y68.064 E0.36075
G1 X77.036 Y68.114 E0.38731
G1 X77.906 Y68.277 E0.43147
G1 X78.820 Y68.560 E0.47920
G1 X79.696 Y68.955 E0.52714
G1 X80.519 Y69.451 E0.57508
G1 X81.276 Y70.045 E0.62309
G1 X81.954 Y70.723 E0.67092
G1 X82.548 Y71.480 E0.71893
G1 X83.044 Y72.303 E0.76687
G1 X83.439 Y73.179 E0.81481
G1 X83.724 Y74.096 E0.86272
G1 X83.889 Y74.991 E0.90812
G1 X83.937 Y75.521 E0.93467
G1 X83.952 Y76.028 E0.95998
G1 X83.935 Y76.512 E0.98414
G1 X83.885 Y77.036 E1.01040
G1 X83.722 Y77.906 E1.05456
G1 X83.439 Y78.820 E1.10230
G1 X83.044 Y79.696 E1.15024
G1 X82.548 Y80.519 E1.19818
G1 X81.954 Y81.276 E1.24618
G1 X81.276 Y81.954 E1.29402
G1 X80.519 Y82.548 E1.34203
G1 X79.696 Y83.044 E1.38997
G1 X78.820 Y83.439 E1.43791
G1 X77.903 Y83.724 E1.48582
G1 X77.008 Y83.889 E1.53122
G1 X76.478 Y83.937 E1.55777
G1 X75.972 Y83.952 E1.58303
G1 X75.487 Y83.935 E1.60724
G1 X74.963 Y83.885 E1.63350
G1 X74.093 Y83.722 E1.67766
G1 X73.179 Y83.439 E1.72539
G1 X72.303 Y83.044 E1.77334
G1 X71.480 Y82.548 E1.82128
G1 X70.723 Y81.954 E1.86928
G1 X70.045 Y81.276 E1.91712
G1 X69.451 Y80.519 E1.96512
G1 X68.955 Y79.696 E2.01306
G1 X68.560 Y78.820 E2.06100
G1 X68.275 Y77.903 E2.10891
G1 X68.110 Y77.008 E2.15432
G1 X68.062 Y76.473 E2.18112
G1 X68.049 Y75.973 E2.20607
G1 X68.064 Y75.493 E2.23003
G1 X68.114 Y74.963 E2.25659
G1 X68.277 Y74.093 E2.30075
G1 X68.560 Y73.179 E2.34848
G1 X68.955 Y72.303 E2.39642
G1 X69.451 Y71.480 E2.44436
G1 X70.045 Y70.723 E2.49237
G0 F9000 X74.096 Y84.275
G1 F1800 X74.991 Y84.110 E2.53777
G1 X75.526 Y84.062 E2.56457
G1 X76.028 Y84.049 E2.58963
G1 X76.506 Y84.064 E2.61348
G1 X77.036 Y84.114 E2.64004
G1 X77.906 Y84.277 E2.68420
G1 X78.820 Y84.560 E2.73194
G1 X79.696 Y84.955 E2.77988
G1 X80.519 Y85.451 E2.82782
G1 X81.276 Y86.045 E2.87583
G1 X81.954 Y86.723 E2.92366
G1 X82.548 Y87.480 E2.97167
G1 X83.044 Y88.303 E3.01961
G1 X83.439 Y89.179 E3.06755
G1 X83.724 Y90.096 E3.11546
G1 X83.889 Y90.991 E3.16086
G1 X83.937 Y91.521 E3.18741
G1 X83.952 Y92.028 E3.21272
G1 X83.935 Y92.512 E3.23688
G1 X83.885 Y93.036 E3.26314
G1 X83.722 Y93.906 E3.30730
G1 X83.439 Y94.820 E3.35504
G1 X83.044 Y95.696 E3.40298
G1 X82.548 Y96.519 E3.45092
G1 X81.954 Y97.276 E3.49892
G1 X81.276 Y97.954 E3.54676
G1 X80.519 Y98.548 E3.59476
G1 X79.696 Y99.044 E3.64270
G1 X78.820 Y99.439 E3.69065
G1 X77.903 Y99.724 E3.73855
G1 X77.008 Y99.889 E3.78396
G1 X76.478 Y99.937 E3.81051
G1 X75.972 Y99.952 E3.83576
G1 X75.487 Y99.935 E3.85998
G1 X74.963 Y99.885 E3.88624
G1 X74.093 Y99.722 E3.93040
G1 X73.179 Y99.439 E3.97813
G1 X72.303 Y99.044 E4.02607
G1 X71.480 Y98.548 E4.07401
G1 X70.723 Y97.954 E4.12202
G1 X70.045 Y97.276 E4.16986
G1 X69.451 Y96.519 E4.21786
G1 X68.955 Y95.696 E4.26580
G1 X68.560 Y94.820 E4.31374
G1 X68.275 Y93.903 E4.36165
G1 X68.110 Y93.008 E4.40705
G1 X68.062 Y92.473 E4.43385
G1 X68.049 Y91.973 E4.45881
G1 X68.064 Y91.493 E4.48277
G1 X68.114 Y90.963 E4.50932
G1 X68.277 Y90.093 E4.55348
G1 X68.560 Y89.179 E4.60122
G1 X68.955 Y88.303 E4.64916
G1 X69.451 Y87.480 E4.69710
G1 X70.045 Y86.723 E4.74511
G1 X70.723 Y86.045 E4.79294
G1 X71.480 Y85.451 E4.84095
G1 X72.303 Y84.955 E4.88889
G1 X73.179 Y84.560 E4.93683
G1 X74.096 Y84.275 E4.98474
G0 F9000 X84.560 Y89.179
G1 F1800 X84.955 Y88.303 E5.03268
G1 X85.451 Y87.480 E5.08062
G1 X86.045 Y86.723 E5.12863
G1 X86.723 Y86.045 E5.17646
G1 X87.480 Y85.451 E5.22447
G1 X88.303 Y84.955 E5.27241
G1 X89.179 Y84.560 E5.32035
G1 X90.096 Y84.275 E5.36826
G1 X90.991 Y84.110 E5.41366
G1 X91.526 Y84.062 E5.44046
G1 X92.028 Y84.049 E5.46551
G1 X92.506 Y84.064 E5.48937
G1 X93.036 Y84.114 E5.51593
G1 X93.906 Y84.277 E5.56009
G1 X94.820 Y84.560 E5.60783
G1 X95.696 Y84.955 E5.65577
G1 X96.519 Y85.451 E5.70371
G1 X97.276 Y86.045 E5.75171
G1 X97.954 Y86.723 E5.79955
G1 X98.548 Y87.480 E5.84756
G1 X99.044 Y88.303 E5.89550
G1 X99.439 Y89.179 E5.94344
G1 X99.724 Y90.096 E5.99135
G1 X99.889 Y90.991 E6.03675
G1 X99.937 Y91.521 E6.06330
G1 X99.952 Y92.028 E6.08861
G1 X99.935 Y92.512 E6.11277
G1 X99.885 Y93.036 E6.13903
G1 X99.722 Y93.906 E6.18319
G1 X99.439 Y94.820 E6.23092
G1 X99.044 Y95.696 E6.27886
G1 X98.548 Y96.519 E6.32680
G1 X97.954 Y97.276 E6.37481
G1 X97.276 Y97.954 E6.42265
G1 X96.519 Y98.548 E6.47065
G1 X95.696 Y99.044 E6.51859
G1 X94.820 Y99.439 E6.56653
G1 X93.903 Y99.724 E6.61444
G1 X93.008 Y99.889 E6.65985
G1 X92.478 Y99.937 E6.68640
G1 X91.972 Y99.952 E6.71165
G1 X91.487 Y99.935 E6.73586
G1 X90.963 Y99.885 E6.76212
G1 X90.093 Y99.722 E6.80628
G1 X89.179 Y99.439 E6.85402
G1 X88.303 Y99.044 E6.90196
G1 X87.480 Y98.548 E6.94990
G1 X86.723 Y97.954 E6.99791
G1 X86.045 Y97.276 E7.04574
G1 X85.451 Y96.519 E7.09375
G1 X84.955 Y95.696 E7.14169
G1 X84.560 Y94.820 E7.18963
G1 X84.275 Y93.903 E7.23754
G1 X84.110 Y93.008 E7.28294
G1 X84.062 Y92.473 E7.30974
G1 X84.049 Y91.973 E7.33469
G1 X84.064 Y91.493 E7.35865
G1 X84.114 Y90.963 E7.38521
G1 X84.277 Y90.093 E7.42937
G1 X84.560 Y89.179 E7.47711
G0 F9000 X88.303 Y83.044
G1 F1800 X87.480 Y82.548 E7.52505
G1 X86.723 Y81.954 E7.57305
G1 X86.045 Y81.276 E7.62089
G1 X85.451 Y80.519 E7.66890
G1 X84.955 Y79.696 E7.71684
G1 X84.560 Y78.820 E7.76478
G1 X84.275 Y77.903 E7.81269
G1 X84.110 Y77.008 E7.85809
G1 X84.062 Y76.473 E7.88489
G1 X84.049 Y75.973 E7.90984
G1 X84.064 Y75.493 E7.93380
G1 X84.114 Y74.963 E7.96036
G1 X84.277 Y74.093 E8.00452
G1 X84.560 Y73.179 E8.05225
G1 X84.955 Y72.303 E8.10020
G1 X85.451 Y71.480 E8.14814
G1 X86.045 Y70.723 E8.19614
G1 X86.723 Y70.045 E8.24398
G1 X87.480 Y69.451 E8.29198
G1 X88.303 Y68.955 E8.33992
G1 X89.179 Y68.560 E8.38787
G1 X90.096 Y68.275 E8.43577
G1 X90.991 Y68.110 E8.48118
G1 X91.526 Y68.062 E8.50798
G1 X92.028 Y68.049 E8.53303
G1 X92.506 Y68.064 E8.55689
G1 X93.036 Y68.114 E8.58345
G1 X93.906 Y68.277 E8.62761
G1 X94.820 Y68.560 E8.67534
G1 X95.696 Y68.955 E8.72328
G1 X96.519 Y69.451 E8.77122
G1 X97.276 Y70.045 E8.81923
G1 X97.954 Y70.723 E8.86707
G1 X98.548 Y71.480 E8.91507
G1 X99.044 Y72.303 E8.96301
G1 X99.439 Y73.179 E9.01095
G1 X99.724 Y74.096 E9.05886
G1 X99.889 Y74.991 E9.10427
G1 X99.937 Y75.521 E9.13082
G1 X99.952 Y76.028 E9.15612
G1 X99.935 Y76.512 E9.18028
G1 X99.885 Y77.036 E9.20654
G1 X99.722 Y77.906 E9.25070
G1 X99.439 Y78.820 E9.29844
G1 X99.044 Y79.696 E9.34638
G1 X98.548 Y80.519 E9.39432
G1 X97.954 Y81.276 E9.44233
G1 X97.276 Y81.954 E9.49016
G1 X96.519 Y82.548 E9.53817
G1 X95.696 Y83.044 E9.58611
G1 X94.820 Y83.439 E9.63405
G1 X93.903 Y83.724 E9.68196
G1 X93.008 Y83.889 E9.72736
G1 X92.478 Y83.937 E9.75391
G1 X91.972 Y83.952 E9.77917
G1 X91.487 Y83.935 E9.80338
G1 X90.963 Y83.885 E9.82964
G1 X90.093 Y83.722 E9.87380
G1 X89.179 Y83.439 E9.92154
G1 X88.303 Y83.044 E9.96948
G0 F9000 X100.560 Y78.820
G1 F1800 X100.275 Y77.903 E10.01739
G1 X100.110 Y77.008 E10.06279
G1 X100.062 Y76.473 E10.08959
G1 X100.049 Y75.973 E10.11454
G1 X100.064 Y75.493 E10.13850
G1 X100.114 Y74.963 E10.16506
G1 X100.277 Y74.093 E10.20922
G1 X100.560 Y73.179 E10.25695
G1 X100.955 Y72.303 E10.30490
G1 X101.451 Y71.480 E10.35284
G1 X102.045 Y70.723 E10.40084
G1 X102.723 Y70.045 E10.44868
G1 X103.480 Y69.451 E10.49668
G1 X104.303 Y68.955 E10.54462
G1 X105.179 Y68.560 E10.59257
G1 X106.096 Y68.275 E10.64047
G1 X106.991 Y68.110 E10.68588
G1 X107.526 Y68.062 E10.71268
G1 X108.028 Y68.049 E10.73773
G1 X108.506 Y68.064 E10.76159
G1 X109.036 Y68.114 E10.78815
G1 X109.906 Y68.277 E10.83231
G1 X110.820 Y68.560 E10.88004
G1 X111.696 Y68.955 E10.92798
G1 X112.519 Y69.451 E10.97592
G1 X113.276 Y70.045 E11.02393
G1 X113.954 Y70.723 E11.07177
G1 X114.548 Y71.480 E11.11977
G1 X115.044 Y72.303 E11.16771
G1 X115.439 Y73.179 E11.21565
G1 X115.724 Y74.096 E11.26356
G1 X115.889 Y74.991 E11.30897
G1 X115.937 Y75.521 E11.33552
G1 X115.952 Y76.028 E11.36082
G1 X115.935 Y76.512 E11.38498
G1 X115.885 Y77.036 E11.41124
G1 X115.722 Y77.906 E11.45540
G1 X115.439 Y78.820 E11.50314
G1 X115.044 Y79.696 E11.55108
G1 X114.548 Y80.519 E11.59902
G1 X113.954 Y81.276 E11.64703
G1 X113.276 Y81.954 E11.69486
G1 X112.519 Y82.548 E11.74287
G1 X111.696 Y83.044 E11.79081
G1 X110.820 Y83.439 E11.83875
G1 X109.903 Y83.724 E11.88666
G1 X109.008 Y83.889 E11.93206
G1 X108.478 Y83.937 E11.95861
G1 X107.972 Y83.952 E11.98387
G1 X107.487 Y83.935 E12.00808
G1 X106.963 Y83.885 E12.03434
G1 X106.093 Y83.722 E12.07850
G1 X105.179 Y83.439 E12.12624
G1 X104.303 Y83.044 E12.17418
G1 X103.480 Y82.548 E12.22212
G1 X102.723 Y81.954 E12.27012
G1 X102.045 Y81.276 E12.31796
G1 X101.451 Y80.519 E12.36597
G1 X100.955 Y79.696 E12.41391
G1 X100.560 Y78.820 E12.46185
G0 F9000 X104.303 Y84.955
G1 F1800 X105.179 Y84.560 E12.50979
G1 X106.096 Y84.275 E12.55770
G1 X106.991 Y84.110 E12.60310
G1 X107.526 Y84.062 E12.62990
G1 X108.028 Y84.049 E12.65495
G1 X108.506 Y84.064 E12.67881
G1 X109.036 Y84.114 E12.70537
G1 X109.906 Y84.277 E12.74953
G1 X110.820 Y84.560 E12.79727
G1 X111.696 Y84.955 E12.84521
G1 X112.519 Y85.451 E12.89315
G1 X113.276 Y86.045 E12.94115
G1 X113.954 Y86.723 E12.98899
G1 X114.548 Y87.480 E13.03699
G1 X115.044 Y88.303 E13.08493
G1 X115.439 Y89.179 E13.13288
G1 X115.724 Y90.096 E13.18078
G1 X115.889 Y90.991 E13.22619
G1 X115.937 Y91.521 E13.25274
G1 X115.952 Y92.028 E13.27804
G1 X115.935 Y92.512 E13.30221
G1 X115.885 Y93.036 E13.32847
G1 X115.722 Y93.906 E13.37263
G1 X115.439 Y94.820 E13.42036
G1 X115.044 Y95.696 E13.46830
G1 X114.548 Y96.519 E13.51624
G1 X113.954 Y97.276 E13.56425
G1 X113.276 Y97.954 E13.61209
G1 X112.519 Y98.548 E13.66009
G1 X111.696 Y99.044 E13.70803
G1 X110.820 Y99.439 E13.75597
G1 X109.903 Y99.724 E13.80388
G1 X109.008 Y99.889 E13.84928
G1 X108.478 Y99.937 E13.87583
G1 X107.972 Y99.952 E13.90109
G1 X107.487 Y99.935 E13.92530
G1 X106.963 Y99.885 E13.95156
G1 X106.093 Y99.722 E13.99572
G1 X105.179 Y99.439 E14.04346
G1 X104.303 Y99.044 E14.09140
G1 X103.480 Y98.548 E14.13934
G1 X102.723 Y97.954 E14.18735
G1 X102.045 Y97.276 E14.23518
G1 X101.451 Y96.519 E14.28319
G1 X100.955 Y95.696 E14.33113
G1 X100.560 Y94.820 E14.37907
G1 X100.275 Y93.903 E14.42698
G1 X100.110 Y93.008 E14.47238
G1 X100.062 Y92.473 E14.49918
G1 X100.049 Y91.973 E14.52413
G1 X100.064 Y91.493 E14.54809
G1 X100.114 Y90.963 E14.57465
G1 X100.277 Y90.093 E14.61881
G1 X100.560 Y89.179 E14.66655
G1 X100.955 Y88.303 E14.71449
G1 X101.451 Y87.480 E14.76243
G1 X102.045 Y86.723 E14.81043
G1 X102.723 Y86.045 E14.85827
G1 X103.480 Y85.451 E14.90628
G1 X104.303 Y84.955 E14.95422
G0 F9000 X106.991 Y100.110
G1 F1800 X107.526 Y100.062 E14.98101
G1 X108.028 Y100.049 E15.00607
G1 X108.506 Y100.064 E15.02993
G1 X109.036 Y100.114 E15.05649
G1 X109.906 Y100.277 E15.10065
G1 X110.820 Y100.560 E15.14838
G1 X111.696 Y100.955 E15.19632
G1 X112.519 Y101.451 E15.24426
G1 X113.276 Y102.045 E15.29227
G1 X113.954 Y102.723 E15.34010
G1 X114.548 Y103.480 E15.38811
G1 X115.044 Y104.303 E15.43605
G1 X115.439 Y105.179 E15.48399
G1 X115.724 Y106.096 E15.53190
G1 X115.889 Y106.991 E15.57730
G1 X115.937 Y107.521 E15.60385
G1 X115.952 Y108.028 E15.62916
G1 X115.935 Y108.512 E15.65332
G1 X115.885 Y109.036 E15.67958
G1 X115.722 Y109.906 E15.72374
G1 X115.439 Y110.820 E15.77148
G1 X115.044 Y111.696 E15.81942
G1 X114.548 Y112.519 E15.86736
G1 X113.954 Y113.276 E15.91536
G1 X113.276 Y113.954 E15.96320
G1 X112.519 Y114.548 E16.01121
G1 X111.696 Y115.044 E16.05915
G1 X110.820 Y115.439 E16.10709
G1 X109.903 Y115.724 E16.15500
G1 X109.008 Y115.889 E16.20040
G1 X108.478 Y115.937 E16.22695
G1 X107.972 Y115.952 E16.25221
G1 X107.487 Y115.935 E16.27642
G1 X106.963 Y115.885 E16.30268
G1 X106.093 Y115.722 E16.34684
G1 X105.179 Y115.439 E16.39457
G1 X104.303 Y115.044 E16.44252
G1 X103.480 Y114.548 E16.49046
G1 X102.723 Y113.954 E16.53846
G1 X102.045 Y113.276 E16.58630
G1 X101.451 Y112.519 E16.63430
G1 X100.955 Y111.696 E16.68224
G1 X100.560 Y110.820 E16.73018
G1 X100.275 Y109.903 E16.77809
G1 X100.110 Y109.008 E16.82350
G1 X100.062 Y108.473 E16.85030
G1 X100.049 Y107.973 E16.87525
G1 X100.064 Y107.493 E16.89921
G1 X100.114 Y106.963 E16.92577
G1 X100.277 Y106.093 E16.96993
G1 X100.560 Y105.179 E17.01766
G1 X100.955 Y104.303 E17.06560
G1 X101.451 Y103.480 E17.11354
G1 X102.045 Y102.723 E17.16155
G1 X102.723 Y102.045 E17.20939
G1 X103.480 Y101.451 E17.25739
G1 X104.303 Y100.955 E17.30533
G1 X105.179 Y100.560 E17.35327
G1 X106.096 Y100.275 E17.40118
G1 X106.991 Y100.110 E17.44659
G0 F9000 X99.044 Y104.303
G1 F1800 X99.439 Y105.179 E17.49453
G1 X99.724 Y106.096 E17.54243
G1 X99.889 Y106.991 E17.58784
G1 X99.937 Y107.521 E17.61439
G1 X99.952 Y108.028 E17.63969
G1 X99.935 Y108.512 E17.66386
G1 X99.885 Y109.036 E17.69012
G1 X99.722 Y109.906 E17.73428
G1 X99.439 Y110.820 E17.78201
G1 X99.044 Y111.696 E17.82995
G1 X98.548 Y112.519 E17.87789
G1 X97.954 Y113.276 E17.92590
G1 X97.276 Y113.954 E17.97374
G1 X96.519 Y114.548 E18.02174
G1 X95.696 Y115.044 E18.06968
G1 X94.820 Y115.439 E18.11762
G1 X93.903 Y115.724 E18.16553
G1 X93.008 Y115.889 E18.21094
G1 X92.478 Y115.937 E18.23749
G1 X91.972 Y115.952 E18.26274
G1 X91.487 Y115.935 E18.28695
G1 X90.963 Y115.885 E18.31321
G1 X90.093 Y115.722 E18.35737
G1 X89.179 Y115.439 E18.40511
G1 X88.303 Y115.044 E18.45305
G1 X87.480 Y114.548 E18.50099
G1 X86.723 Y113.954 E18.54900
G1 X86.045 Y113.276 E18.59683
G1 X85.451 Y112.519 E18.64484
G1 X84.955 Y111.696 E18.69278
G1 X84.560 Y110.820 E18.74072
G1 X84.275 Y109.903 E18.78863
G1 X84.110 Y109.008 E18.83403
G1 X84.062 Y108.473 E18.86083
G1 X84.049 Y107.973 E18.88578
G1 X84.064 Y107.493 E18.90974
G1 X84.114 Y106.963 E18.93630
G1 X84.277 Y106.093 E18.98046
G1 X84.560 Y105.179 E19.02820
G1 X84.955 Y104.303 E19.07614
G1 X85.451 Y103.480 E19.12408
G1 X86.045 Y102.723 E19.17208
G1 X86.723 Y102.045 E19.21992
G1 X87.480 Y101.451 E19.26793
G1 X88.303 Y100.955 E19.31587
G1 X89.179 Y100.560 E19.36381
G1 X90.096 Y100.275 E19.41172
G1 X90.991 Y100.110 E19.45712
G1 X91.526 Y100.062 E19.48392
G1 X92.028 Y100.049 E19.50897
G1 X92.506 Y100.064 E19.53283
G1 X93.036 Y100.114 E19.55939
G1 X93.906 Y100.277 E19.60355
G1 X94.820 Y100.560 E19.65129
G1 X95.696 Y100.955 E19.69923
G1 X96.519 Y101.451 E19.74717
G1 X97.276 Y102.045 E19.79517
G1 X97.954 Y102.723 E19.84301
G1 X98.548 Y103.480 E19.89101
G1 X99.044 Y104.303 E19.93895
G0 F9000 X83.889 Y106.991
G1 F1800 X83.937 Y107.521 E19.96550
G1 X83.952 Y108.028 E19.99081
G1 X83.935 Y108.512 E20.01497
G1 X83.885 Y109.036 E20.04123
G1 X83.722 Y109.906 E20.08539
G1 X83.439 Y110.820 E20.13313
G1 X83.044 Y111.696 E20.18107
G1 X82.548 Y112.519 E20.22901
G1 X81.954 Y113.276 E20.27702
G1 X81.276 Y113.954 E20.32485
G1 X80.519 Y114.548 E20.37286
G1 X79.696 Y115.044 E20.42080
G1 X78.820 Y115.439 E20.46874
G1 X77.903 Y115.724 E20.51665
G1 X77.008 Y115.889 E20.56205
G1 X76.478 Y115.937 E20.58860
G1 X75.972 Y115.952 E20.61386
G1 X75.487 Y115.935 E20.63807
G1 X74.963 Y115.885 E20.66433
G1 X74.093 Y115.722 E20.70849
G1 X73.179 Y115.439 E20.75622
G1 X72.303 Y115.044 E20.80417
G1 X71.480 Y114.548 E20.85211
G1 X70.723 Y113.954 E20.90011
G1 X70.045 Y113.276 E20.94795
G1 X69.451 Y112.519 E20.99595
G1 X68.955 Y111.696 E21.04389
G1 X68.560 Y110.820 E21.09184
G1 X68.275 Y109.903 E21.13974
G1 X68.110 Y109.008 E21.18515
G1 X68.062 Y108.473 E21.21195
G1 X68.049 Y107.973 E21.23690
G1 X68.064 Y107.493 E21.26086
G1 X68.114 Y106.963 E21.28742
G1 X68.277 Y106.093 E21.33158
G1 X68.560 Y105.179 E21.37931
G1 X68.955 Y104.303 E21.42725
G1 X69.451 Y103.480 E21.47519
G1 X70.045 Y102.723 E21.52320
G1 X70.723 Y102.045 E21.57104
G1 X71.480 Y101.451 E21.61904
G1 X72.303 Y100.955 E21.66698
G1 X73.179 Y100.560 E21.71492
G1 X74.096 Y100.275 E21.76283
G1 X74.991 Y100.110 E21.80824
