;Generated with Cura_SteamEngine 15.01
; Default start code
G28 ; Home extruder
G1 Z15 F100
M107 ; Turn off fan
G90 ; Absolute positioning
M82 ; Extruder in absolute mode
M190 S50
; Activate all used extruder
M104 T0 S210
G92 E0 ; Reset extruder position
; Wait for all used extruders to reach temperature
M109 T0 S210
;Layer count: 175
;LAYER:0
M107
G0 F9000 X81.799 Y69.800 Z0.300
;TYPE:SKIRT
G1 F1800 X90.199 Y69.800 E0.41908
G1 X90.199 Y82.534 E1.05438
G1 X91.803 Y82.267 E1.13550
G1 X92.829 Y82.062 E1.18770
G1 X94.139 Y81.844 E1.25396
G1 X95.850 Y81.600 E1.34018
G1 X104.667 Y81.600 E1.78007
G1 X106.589 Y81.840 E1.87670
G1 X109.125 Y82.263 E2.00497
G1 X109.799 Y82.398 E2.03926
G1 X109.799 Y69.800 E2.66778
G1 X118.199 Y69.800 E3.08686
G1 X118.199 Y78.528 E3.52230
G1 X118.675 Y78.354 E3.54758
G1 X119.842 Y78.146 E3.60672
G1 X120.552 Y78.113 E3.64218
G1 X121.188 Y78.140 E3.67394
G1 X121.810 Y78.223 E3.70525
G1 X122.423 Y78.358 E3.73656
G1 X123.029 Y78.549 E3.76826
G1 X123.609 Y78.792 E3.79964
G1 X124.158 Y79.078 E3.83052
G1 X124.695 Y79.418 E3.86223
G1 X125.250 Y79.849 E3.89729
G1 X126.022 Y80.621 E3.95176
G1 X126.499 Y81.238 E3.99067
G1 X127.055 Y82.200 E4.04610
G1 X127.327 Y82.858 E4.08162
G1 X127.516 Y83.458 E4.11301
G1 X127.652 Y84.073 E4.14443
G1 X127.733 Y84.695 E4.17572
G1 X127.760 Y85.320 E4.20693
G1 X127.733 Y85.949 E4.23834
G1 X127.650 Y86.576 E4.26990
G1 X127.513 Y87.188 E4.30119
G1 X127.323 Y87.791 E4.33273
G1 X127.097 Y88.330 E4.36189
G1 X126.238 Y90.172 E4.46329
G1 X126.790 Y90.542 E4.49644
G1 X127.774 Y91.238 E4.55657
G1 X128.740 Y91.961 E4.61677
G1 X129.686 Y92.706 E4.67684
G1 X130.589 Y93.455 E4.73537
G1 X133.333 Y95.759 E4.91413
G1 X133.748 Y96.143 E4.94234
G1 X134.169 Y96.612 E4.97378
G1 X134.547 Y97.123 E5.00549
G1 X134.873 Y97.666 E5.03709
G1 X135.147 Y98.236 E5.06864
G1 X135.366 Y98.831 E5.10027
G1 X135.526 Y99.441 E5.13174
G1 X135.629 Y100.058 E5.16295
G1 X135.675 Y100.688 E5.19446
G1 X135.659 Y101.324 E5.22620
G1 X135.585 Y101.953 E5.25780
G1 X135.451 Y102.569 E5.28925
G1 X135.262 Y103.170 E5.32068
G1 X135.012 Y103.759 E5.35260
G1 X134.711 Y104.310 E5.38393
G1 X134.361 Y104.836 E5.41545
G1 X133.909 Y105.387 E5.45100
G1 X133.104 Y106.130 E5.50566
G1 X132.455 Y106.579 E5.54503
G1 X131.466 Y107.074 E5.60021
G1 X130.782 Y107.302 E5.63618
G1 X130.176 Y107.441 E5.66720
G1 X129.543 Y107.526 E5.69906
G1 X128.909 Y107.551 E5.73071
G1 X128.273 Y107.514 E5.76250
G1 X127.650 Y107.418 E5.79395
G1 X127.034 Y107.264 E5.82562
G1 X126.440 Y107.053 E5.85707
G1 X125.869 Y106.789 E5.88846
G1 X125.323 Y106.469 E5.92003
G1 X124.840 Y106.123 E5.94967
G1 X121.791 Y103.564 E6.14826
G1 X120.999 Y102.918 E6.19925
G1 X120.219 Y102.318 E6.24835
G1 X119.457 Y101.764 E6.29535
G1 X118.669 Y101.227 E6.34293
G1 X117.879 Y100.720 E6.38976
G1 X117.038 Y100.212 E6.43878
G1 X116.219 Y99.749 E6.48571
G1 X116.199 Y99.738 E6.48685
G1 X116.199 Y100.800 E6.53984
G1 X110.029 Y97.712 E6.88406
G1 X109.437 Y97.516 E6.91517
G1 X109.026 Y97.311 E6.93808
G1 X108.919 Y97.275 E6.94372
G1 X108.216 Y97.134 E6.97949
G1 X107.034 Y96.939 E7.03926
G1 X103.874 Y96.307 E7.20003
G1 X96.435 Y96.395 E7.57119
G1 X93.718 Y96.939 E7.70943
G1 X92.552 Y97.132 E7.76840
G1 X91.100 Y97.423 E7.84228
G1 X90.914 Y97.515 E7.85263
G1 X90.325 Y97.710 E7.88358
G1 X89.935 Y97.905 E7.90534
G1 X83.799 Y100.010 E8.22898
G1 X83.799 Y99.738 E8.24255
G1 X83.783 Y99.746 E8.24344
G1 X82.967 Y100.208 E8.29022
G1 X82.136 Y100.709 E8.33863
G1 X81.342 Y101.219 E8.38571
G1 X80.565 Y101.749 E8.43264
G1 X79.765 Y102.329 E8.48193
G1 X79.030 Y102.895 E8.52822
G1 X78.245 Y103.533 E8.57868
G1 X75.199 Y106.090 E8.77710
G1 X74.668 Y106.476 E8.80985
G1 X74.108 Y106.799 E8.84210
G1 X73.538 Y107.061 E8.87340
G1 X72.945 Y107.269 E8.90475
G1 X72.328 Y107.423 E8.93648
G1 X71.704 Y107.515 E8.96794
G1 X71.078 Y107.551 E8.99923
G1 X70.439 Y107.525 E9.03113
G1 X69.809 Y107.439 E9.06286
G1 X69.195 Y107.295 E9.09432
G1 X68.597 Y107.094 E9.12579
G1 X68.020 Y106.838 E9.15729
G1 X67.469 Y106.528 E9.18883
G1 X66.952 Y106.169 E9.22023
G1 X66.414 Y105.717 E9.25529
G1 X65.670 Y104.888 E9.31086
G1 X65.277 Y104.290 E9.34656
G1 X64.944 Y103.676 E9.38141
G1 X64.564 Y102.641 E9.43641
G1 X64.410 Y101.932 E9.47261
G1 X64.340 Y101.310 E9.50384
G1 X64.323 Y100.691 E9.53473
G1 X64.376 Y99.968 E9.57090
G1 X64.609 Y98.890 E9.62592
G1 X64.862 Y98.210 E9.66212
G1 X65.135 Y97.650 E9.69320
G1 X65.454 Y97.119 E9.72411
G1 X65.885 Y96.538 E9.76020
G1 X66.598 Y95.818 E9.81075
G1 X69.399 Y93.466 E9.99323
G1 X70.302 Y92.716 E10.05179
G1 X71.248 Y91.969 E10.11193
G1 X72.216 Y91.246 E10.17220
G1 X73.182 Y90.561 E10.23128
G1 X73.762 Y90.171 E10.26615
G1 X72.897 Y88.317 E10.36822
G1 X72.673 Y87.782 E10.39716
G1 X72.484 Y87.180 E10.42864
G1 X72.347 Y86.568 E10.45993
G1 X72.266 Y85.941 E10.49147
G1 X72.239 Y85.316 E10.52268
G1 X72.266 Y84.692 E10.55384
G1 X72.347 Y84.064 E10.58543
G1 X72.485 Y83.448 E10.61692
G1 X72.672 Y82.855 E10.64794
G1 X72.912 Y82.273 E10.67935
G1 X73.206 Y81.707 E10.71117
G1 X73.583 Y81.122 E10.74589
G1 X74.285 Y80.282 E10.80051
G1 X74.810 Y79.799 E10.83610
G1 X75.316 Y79.411 E10.86791
G1 X75.845 Y79.076 E10.89915
G1 X76.402 Y78.786 E10.93048
G1 X76.984 Y78.546 E10.96189
G1 X77.583 Y78.357 E10.99323
G1 X78.194 Y78.223 E11.02443
G1 X78.816 Y78.140 E11.05574
G1 X79.445 Y78.113 E11.08715
G1 X80.073 Y78.140 E11.11851
G1 X80.699 Y78.223 E11.15001
G1 X81.311 Y78.360 E11.18130
G1 X81.799 Y78.514 E11.20683
G1 X81.799 Y69.800 E11.64158
G0 F9000 X81.673 Y107.835
G1 F1800 X111.879 Y107.835 E13.14856
G1 X112.352 Y107.853 E13.17217
G1 X113.106 Y108.002 E13.21052
G1 X113.857 Y108.317 E13.25115
G1 X115.670 Y109.507 E13.35934
G1 X115.673 Y112.342 E13.50078
G1 X115.670 Y113.593 E13.56319
G1 X115.671 Y115.167 E13.64172
G1 X115.670 Y116.138 E13.69017
G1 X115.671 Y117.717 E13.76894
G1 X115.670 Y118.688 E13.81739
G1 X115.671 Y120.267 E13.89616
G1 X115.670 Y121.238 E13.94461
G1 X115.671 Y122.817 E14.02338
G1 X115.670 Y123.788 E14.07183
G1 X115.671 Y125.367 E14.15060
G1 X115.670 Y126.338 E14.19905
G1 X115.671 Y127.917 E14.27782
G1 X115.670 Y128.888 E14.32627
G1 X115.671 Y130.467 E14.40504
G1 X115.670 Y131.438 E14.45349
G1 X115.671 Y133.017 E14.53226
G1 X115.670 Y133.988 E14.58071
G1 X115.672 Y135.225 E14.64242
G1 X115.674 Y137.933 E14.77752
G1 X114.083 Y139.126 E14.87673
G1 X113.158 Y139.558 E14.92767
G1 X112.281 Y139.730 E14.97225
G1 X81.673 Y139.736 E16.49929
G1 X81.673 Y130.835 E16.94337
G1 X106.673 Y130.835 E18.19062
G1 X106.673 Y129.000 E18.28217
G1 X103.426 Y129.000 E18.44416
G1 X103.426 Y118.200 E18.98298
G1 X106.673 Y118.200 E19.14497
G1 X106.673 Y116.735 E19.21806
G1 X81.673 Y116.735 E20.46532
G1 X81.673 Y107.835 E20.90934
G1 F2400 E16.90934
G0 F9000 X75.843 Y100.588
;TYPE:WALL-INNER
G1 F2400 E20.90934
G1 F1800 X72.850 Y103.099 E21.10425
G1 X72.599 Y103.282 E21.11975
G1 X72.358 Y103.421 E21.13363
G1 X72.108 Y103.536 E21.14736
G1 X71.858 Y103.624 E21.16058
G1 X71.592 Y103.690 E21.17425
G1 X71.314 Y103.731 E21.18827
G1 X71.049 Y103.746 E21.20151
G1 X70.764 Y103.735 E21.21574
G1 X70.504 Y103.699 E21.22884
G1 X70.239 Y103.637 E21.24242
G1 X69.968 Y103.546 E21.25668
G1 X69.731 Y103.441 E21.26961
G1 X69.486 Y103.303 E21.28364
G1 X69.260 Y103.146 E21.29737
G1 X69.069 Y102.985 E21.30983
G1 X68.686 Y102.558 E21.33845
G1 X68.415 Y102.103 E21.36487
G1 X68.221 Y101.577 E21.39284
G1 X68.134 Y101.049 E21.41954
G1 X68.127 Y100.772 E21.43336
G1 X68.145 Y100.519 E21.44602
G1 X68.267 Y99.956 E21.47476
G1 X68.358 Y99.711 E21.48779
G1 X68.482 Y99.457 E21.50190
G1 X68.616 Y99.234 E21.51488
G1 X68.772 Y99.024 E21.52793
G1 X69.175 Y98.616 E21.55654
G1 X71.836 Y96.382 E21.72988
G1 X72.688 Y95.674 E21.78515
G1 X73.570 Y94.978 E21.84120
G1 X74.446 Y94.322 E21.89580
G1 X75.347 Y93.685 E21.95085
G1 X76.254 Y93.075 E22.00538
G1 X77.189 Y92.481 E22.06065
G1 X78.165 Y91.895 E22.11744
G1 X78.618 Y91.593 E22.14460
G1 X76.368 Y86.768 E22.41021
G1 X76.248 Y86.483 E22.42564
G1 X76.159 Y86.197 E22.44058
G1 X76.093 Y85.901 E22.45571
G1 X76.055 Y85.609 E22.47040
G1 X76.042 Y85.316 E22.48503
G1 X76.055 Y85.023 E22.49967
G1 X76.093 Y84.730 E22.51441
G1 X76.160 Y84.427 E22.52989
G1 X76.246 Y84.156 E22.54407
G1 X76.495 Y83.618 E22.57365
G1 X76.651 Y83.376 E22.58801
G1 X77.043 Y82.907 E22.61851
G1 X77.254 Y82.713 E22.63281
G1 X77.491 Y82.532 E22.64769
G1 X78.004 Y82.235 E22.67726
G1 X78.560 Y82.033 E22.70677
G1 X79.156 Y81.929 E22.73696
G1 X79.445 Y81.916 E22.75139
G1 X79.733 Y81.929 E22.76577
G1 X80.031 Y81.968 E22.78077
G1 X80.601 Y82.120 E22.81020
G1 X80.868 Y82.231 E22.82463
G1 X81.387 Y82.530 E22.85451
G1 X81.848 Y82.916 E22.88451
G1 X82.049 Y83.136 E22.89937
G1 X82.232 Y83.375 E22.91439
G1 X82.380 Y83.607 E22.92812
G1 X84.444 Y88.001 E23.17032
G1 X84.666 Y88.461 E23.19580
G1 X85.599 Y88.249 E23.24353
G1 X85.599 Y73.600 E23.97437
G1 X86.399 Y73.600 E24.01429
G1 X86.399 Y94.352 E25.04961
G1 X85.802 Y94.586 E25.08160
G1 X84.831 Y94.997 E25.13420
G1 X83.857 Y95.444 E25.18767
G1 X82.903 Y95.913 E25.24071
G1 X81.964 Y96.410 E25.29371
G1 X81.039 Y96.933 E25.34672
G1 X80.139 Y97.476 E25.39916
G1 X79.246 Y98.050 E25.45213
G1 X78.367 Y98.648 E25.50517
G1 X77.507 Y99.272 E25.55818
G1 X76.664 Y99.920 E25.61122
G1 X75.843 Y100.588 E25.66403
G0 F9000 X78.556 Y91.576
G0 X78.954 Y87.872
G1 F1800 X79.280 Y87.912 E25.68041
G1 X79.617 Y87.911 E25.69723
G1 X79.940 Y87.869 E25.71348
G1 X80.257 Y87.786 E25.72983
G1 X80.559 Y87.665 E25.74606
G1 X80.838 Y87.511 E25.76196
G1 X81.108 Y87.312 E25.77869
G1 X81.345 Y87.088 E25.79496
G1 X81.554 Y86.834 E25.81137
G1 X81.726 Y86.556 E25.82768
G1 X81.863 Y86.264 E25.84377
G1 X81.961 Y85.963 E25.85956
G1 X82.023 Y85.642 E25.87587
G1 X82.043 Y85.304 E25.89277
G1 X82.020 Y84.957 E25.91012
G1 X81.863 Y84.364 E25.94072
G1 X81.715 Y84.052 E25.95795
G1 X81.539 Y83.778 E25.97420
G1 X81.330 Y83.527 E25.99049
G1 X81.097 Y83.310 E26.00638
G1 X80.825 Y83.114 E26.02310
G1 X80.537 Y82.958 E26.03944
G1 X80.236 Y82.840 E26.05557
G1 X79.929 Y82.760 E26.07140
G1 X79.603 Y82.720 E26.08779
G1 X79.266 Y82.721 E26.10460
G1 X78.943 Y82.763 E26.12085
G1 X78.627 Y82.846 E26.13715
G1 X78.325 Y82.967 E26.15338
G1 X78.045 Y83.121 E26.16932
G1 X77.774 Y83.321 E26.18613
G1 X77.538 Y83.544 E26.20233
G1 X77.331 Y83.797 E26.21864
G1 X77.157 Y84.074 E26.23496
G1 X77.020 Y84.369 E26.25118
G1 X76.922 Y84.669 E26.26693
G1 X76.860 Y84.991 E26.28329
G1 X76.841 Y85.328 E26.30013
G1 X76.863 Y85.674 E26.31742
G1 X77.020 Y86.269 E26.34812
G1 X77.169 Y86.579 E26.36528
G1 X77.345 Y86.855 E26.38162
G1 X77.554 Y87.105 E26.39787
G1 X77.785 Y87.321 E26.41365
G1 X78.058 Y87.518 E26.43045
G1 X78.346 Y87.674 E26.44679
G1 X78.648 Y87.792 E26.46296
G1 X78.954 Y87.872 E26.47874
G0 F9000 X79.029 Y87.478
;TYPE:WALL-OUTER
G1 F1800 X79.304 Y87.512 E26.49257
G1 X79.590 Y87.511 E26.50684
G1 X79.863 Y87.476 E26.52057
G1 X80.132 Y87.405 E26.53445
G1 X80.387 Y87.303 E26.54815
G1 X80.621 Y87.174 E26.56148
G1 X80.851 Y87.004 E26.57575
G1 X81.052 Y86.815 E26.58951
G1 X81.228 Y86.601 E26.60334
G1 X81.374 Y86.365 E26.61718
G1 X81.490 Y86.117 E26.63084
G1 X81.573 Y85.863 E26.64417
G1 X81.625 Y85.592 E26.65794
G1 X81.642 Y85.305 E26.67228
G1 X81.623 Y85.022 E26.68643
G1 X81.486 Y84.502 E26.71326
G1 X81.364 Y84.247 E26.72737
G1 X81.216 Y84.015 E26.74109
G1 X81.039 Y83.802 E26.75491
G1 X80.843 Y83.620 E26.76826
G1 X80.612 Y83.453 E26.78248
G1 X80.368 Y83.321 E26.79632
G1 X80.113 Y83.221 E26.80998
G1 X79.854 Y83.154 E26.82333
G1 X79.579 Y83.120 E26.83715
G1 X79.293 Y83.121 E26.85142
G1 X79.020 Y83.156 E26.86515
G1 X78.752 Y83.227 E26.87899
G1 X78.496 Y83.329 E26.89273
G1 X78.262 Y83.458 E26.90606
G1 X78.031 Y83.628 E26.92037
G1 X77.831 Y83.817 E26.93410
G1 X77.656 Y84.031 E26.94789
G1 X77.509 Y84.265 E26.96168
G1 X77.393 Y84.516 E26.97548
G1 X77.310 Y84.769 E26.98876
G1 X77.258 Y85.040 E27.00253
G1 X77.242 Y85.327 E27.01687
G1 X77.260 Y85.609 E27.03097
G1 X77.397 Y86.130 E27.05784
G1 X77.519 Y86.384 E27.07190
G1 X77.668 Y86.618 E27.08574
G1 X77.845 Y86.830 E27.09952
G1 X78.040 Y87.012 E27.11283
G1 X78.271 Y87.179 E27.12705
G1 X78.515 Y87.311 E27.14089
G1 X78.771 Y87.411 E27.15460
G1 X79.029 Y87.478 E27.16790
G0 F9000 X78.953 Y87.767
G0 X76.282 Y86.821
G0 X76.005 Y86.937
G1 F1800 X75.871 Y86.618 E27.18516
G1 X75.769 Y86.291 E27.20225
G1 X75.657 Y85.654 E27.23452
G1 X75.642 Y85.316 E27.25140
G1 X75.657 Y84.976 E27.26838
G1 X75.769 Y84.340 E27.30059
G1 X76.001 Y83.700 E27.33456
G1 X76.149 Y83.418 E27.35045
G1 X76.328 Y83.138 E27.36703
G1 X76.750 Y82.634 E27.39982
G1 X76.993 Y82.410 E27.41631
G1 X77.267 Y82.200 E27.43353
G1 X77.551 Y82.020 E27.45031
G1 X77.832 Y81.874 E27.46611
G1 X78.142 Y81.746 E27.48284
G1 X78.466 Y81.644 E27.49978
G1 X79.108 Y81.531 E27.53231
G1 X79.445 Y81.516 E27.54914
G1 X79.781 Y81.531 E27.56592
G1 X80.425 Y81.645 E27.59854
G1 X81.050 Y81.874 E27.63175
G1 X81.617 Y82.200 E27.66438
G1 X82.126 Y82.627 E27.69753
G1 X82.557 Y83.141 E27.73100
G1 X82.732 Y83.415 E27.74722
G1 X84.805 Y87.829 E27.99051
G1 X84.888 Y88.000 E27.99999
G1 X85.199 Y87.930 E28.01589
G1 X85.199 Y73.200 E28.75078
G1 X86.799 Y73.200 E28.83060
G1 X86.799 Y94.625 E29.89950
G1 X85.953 Y94.957 E29.94484
G1 X84.988 Y95.365 E29.99711
G1 X84.029 Y95.805 E30.04975
G1 X83.085 Y96.270 E30.10225
G1 X82.156 Y96.761 E30.15467
G1 X81.241 Y97.278 E30.20711
G1 X80.350 Y97.815 E30.25901
G1 X79.467 Y98.383 E30.31139
G1 X78.597 Y98.975 E30.36389
G1 X77.746 Y99.593 E30.41636
G1 X76.912 Y100.234 E30.46884
G1 X76.098 Y100.897 E30.52121
G1 X73.109 Y103.405 E30.71588
G1 X72.809 Y103.623 E30.73438
G1 X72.553 Y103.771 E30.74913
G1 X72.259 Y103.906 E30.76527
G1 X71.967 Y104.008 E30.78070
G1 X71.667 Y104.083 E30.79613
G1 X71.361 Y104.128 E30.81156
G1 X71.046 Y104.147 E30.82730
G1 X70.734 Y104.134 E30.84288
G1 X70.434 Y104.093 E30.85799
G1 X70.127 Y104.021 E30.87372
G1 X69.828 Y103.921 E30.88945
G1 X69.543 Y103.794 E30.90502
G1 X69.275 Y103.644 E30.92034
G1 X68.787 Y103.270 E30.95101
G1 X68.369 Y102.804 E30.98224
G1 X68.197 Y102.543 E30.99784
G1 X68.052 Y102.274 E31.01309
G1 X67.835 Y101.685 E31.04440
G1 X67.771 Y101.388 E31.05956
G1 X67.735 Y101.070 E31.07553
G1 X67.726 Y100.763 E31.09085
G1 X67.749 Y100.461 E31.10596
G1 X67.882 Y99.842 E31.13755
G1 X67.990 Y99.553 E31.15294
G1 X68.283 Y99.010 E31.18372
G1 X68.468 Y98.762 E31.19916
G1 X68.905 Y98.320 E31.23017
G1 X71.578 Y96.076 E31.40429
G1 X72.440 Y95.360 E31.46019
G1 X73.318 Y94.667 E31.51600
G1 X74.215 Y93.996 E31.57188
G1 X75.112 Y93.361 E31.62671
G1 X76.044 Y92.734 E31.68275
G1 X76.983 Y92.138 E31.73824
G1 X77.951 Y91.557 E31.79456
G1 X78.110 Y91.451 E31.80410
G1 X76.005 Y86.937 E32.05259
G0 F9000 X76.714 Y87.179
;TYPE:SKIN
G1 F1800 X84.519 Y94.984 E32.60327
G0 F9000 X84.131 Y95.162
G1 F1800 X77.209 Y88.240 E33.09166
G0 F9000 X77.703 Y89.300
G1 F1800 X83.744 Y95.341 E33.51788
G0 F9000 X83.365 Y95.528
G1 F1800 X78.198 Y90.360 E33.88248
G0 F9000 X78.692 Y91.420
G1 F1800 X82.986 Y95.714 E34.18544
G0 F9000 X82.613 Y95.907
G1 F1800 X78.527 Y91.821 E34.47373
G0 F9000 X78.186 Y92.045
G1 F1800 X82.243 Y96.102 E34.75997
G0 F9000 X81.874 Y96.299
G1 F1800 X77.832 Y92.257 E35.04516
G0 F9000 X77.479 Y92.469
G1 F1800 X81.512 Y96.503 E35.32974
G0 F9000 X81.150 Y96.706
G1 F1800 X77.129 Y92.685 E35.61345
G0 F9000 X76.782 Y92.904
G1 F1800 X80.793 Y96.915 E35.89644
G0 F9000 X80.440 Y97.128
G1 F1800 X76.436 Y93.124 E36.17895
G0 F9000 X76.096 Y93.350
G1 F1800 X80.087 Y97.341 E36.46053
G0 F9000 X84.910 Y94.809
G1 F1800 X76.308 Y86.208 E37.06742
G0 F9000 X76.853 Y86.187
G1 F1800 X76.191 Y85.525 E37.11412
G0 F9000 X76.711 Y85.479
G1 F1800 X76.245 Y84.730 E37.14999
G1 X76.783 Y84.703 E37.18103
G1 X76.526 Y83.880 E37.20932
G1 X77.108 Y83.896 E37.23655
G1 X76.978 Y83.200 E37.26225
G1 X77.622 Y83.278 E37.28797
G1 X77.571 Y82.662 E37.31403
G1 X78.307 Y82.833 E37.34033
G1 X78.311 Y82.271 E37.36837
G1 X78.966 Y82.360 E37.39829
G1 X79.468 Y82.579 E37.42562
G0 F9000 X79.513 Y82.059
G1 F1800 X80.118 Y82.663 E37.46827
G0 F9000 X80.168 Y82.148
G1 F1800 X82.758 Y84.738 E37.65101
G0 F9000 X82.075 Y84.620
G1 F1800 X83.263 Y85.808 E37.73483
G0 F9000 X82.132 Y85.809
G1 F1800 X84.272 Y87.949 E37.88582
