;Generated with Cura_SteamEngine 15.01
; Default start code
G28 ; Home extruder
G1 Z15 F100
M107 ; Turn off fan
G90 ; Absolute positioning
M82 ; Extruder in absolute mode
M190 S50
; Activate all used extruder
M104 T0 S210
G92 E0 ; Reset extruder position
; Wait for all used extruders to reach temperature
M109 T0 S210
;Layer count: 139
;LAYER:0
M107
G0 F9000 X83.419 Y67.443 Z0.300
;TYPE:SKIRT
G1 F1800 X113.697 Y67.443 E1.51058
G1 X114.203 Y67.468 E1.53585
G1 X115.218 Y67.729 E1.58814
G1 X117.416 Y68.991 E1.71458
G1 X117.418 Y72.669 E1.89808
G1 X117.418 Y73.194 E1.92427
G1 X117.417 Y75.744 E2.05149
G1 X117.418 Y76.066 E2.06756
G1 X117.417 Y78.294 E2.17871
G1 X117.418 Y78.616 E2.19478
G1 X117.417 Y80.844 E2.30593
G1 X117.418 Y81.166 E2.32200
G1 X117.417 Y83.394 E2.43315
G1 X117.418 Y83.716 E2.44922
G1 X117.417 Y85.944 E2.56037
G1 X117.418 Y86.266 E2.57644
G1 X117.417 Y88.494 E2.68759
G1 X117.418 Y88.816 E2.70366
G1 X117.417 Y91.044 E2.81481
G1 X117.418 Y91.366 E2.83088
G1 X117.417 Y93.594 E2.94203
G1 X117.419 Y94.111 E2.96783
G1 X117.415 Y97.552 E3.13950
G1 X115.830 Y98.731 E3.23805
G1 X114.913 Y99.166 E3.28869
G1 X114.020 Y99.339 E3.33407
G1 X83.419 Y99.343 E4.86076
G1 X83.419 Y90.443 E5.30478
G1 X108.419 Y90.443 E6.55204
G1 X108.419 Y88.643 E6.64184
G1 X105.119 Y88.643 E6.80648
G1 X105.119 Y77.843 E7.34529
G1 X108.419 Y77.843 E7.50993
G1 X108.419 Y76.343 E7.58477
G1 X83.419 Y76.343 E8.83202
G1 X83.419 Y67.443 E9.27604
G0 F9000 X84.455 Y100.203
G1 F1800 X89.336 Y100.200 E9.51956
G1 X90.128 Y100.200 E9.55907
G1 X92.340 Y100.201 E9.66943
G1 X92.672 Y100.200 E9.68599
G1 X94.891 Y100.201 E9.79670
G1 X95.223 Y100.200 E9.81326
G1 X97.440 Y100.201 E9.92387
G1 X97.772 Y100.200 E9.94043
G1 X99.991 Y100.201 E10.05114
G1 X100.323 Y100.200 E10.06770
G1 X102.541 Y100.201 E10.17836
G1 X102.873 Y100.200 E10.19492
G1 X105.090 Y100.201 E10.30553
G1 X105.422 Y100.200 E10.32209
G1 X107.641 Y100.201 E10.43280
G1 X107.973 Y100.200 E10.44936
G1 X110.186 Y100.201 E10.55977
G1 X110.656 Y100.199 E10.58322
G1 X115.546 Y100.205 E10.82718
G1 X115.549 Y105.047 E11.06875
G1 X115.549 Y105.822 E11.10741
G1 X115.548 Y108.001 E11.21612
G1 X115.549 Y108.317 E11.23189
G1 X115.548 Y110.501 E11.34085
G1 X115.549 Y110.817 E11.35662
G1 X115.548 Y113.001 E11.46558
G1 X115.549 Y113.317 E11.48134
G1 X115.548 Y115.501 E11.59030
G1 X115.550 Y115.946 E11.61250
G1 X115.544 Y120.796 E11.85447
G1 X110.663 Y120.799 E12.09798
G1 X109.871 Y120.799 E12.13750
G1 X107.659 Y120.798 E12.24785
G1 X107.327 Y120.799 E12.26442
G1 X105.108 Y120.798 E12.37512
G1 X104.776 Y120.799 E12.39169
G1 X102.559 Y120.798 E12.50229
G1 X102.227 Y120.799 E12.51886
G1 X100.009 Y120.798 E12.62951
G1 X99.677 Y120.799 E12.64608
G1 X97.458 Y120.798 E12.75678
G1 X97.126 Y120.799 E12.77335
G1 X94.909 Y120.798 E12.88396
G1 X94.577 Y120.799 E12.90052
G1 X92.358 Y120.798 E13.01123
G1 X92.026 Y120.799 E13.02779
G1 X89.813 Y120.798 E13.13820
G1 X89.343 Y120.800 E13.16164
G1 X84.453 Y120.794 E13.40561
G1 X84.450 Y115.953 E13.64713
G1 X84.450 Y115.178 E13.68579
G1 X84.451 Y112.999 E13.79450
G1 X84.450 Y112.683 E13.81027
G1 X84.451 Y110.499 E13.91923
G1 X84.450 Y110.183 E13.93499
G1 X84.451 Y107.999 E14.04395
G1 X84.450 Y107.683 E14.05972
G1 X84.451 Y105.499 E14.16868
G1 X84.449 Y105.054 E14.19088
G1 X84.455 Y100.203 E14.43290
G1 F2400 E10.43290
G0 F9000 X87.219 Y95.543
;TYPE:WALL-INNER
G1 F2400 E14.43290
G1 F1800 X87.219 Y94.243 E14.49775
G1 X112.219 Y94.243 E15.74501
G1 X112.219 Y72.543 E16.82763
G1 X87.219 Y72.543 E18.07488
G1 X87.219 Y71.243 E18.13974
G1 X113.617 Y71.243 E19.45674
G1 X113.617 Y75.744 E19.68130
G1 X113.618 Y76.070 E19.69756
G1 X113.617 Y78.294 E19.80852
G1 X113.618 Y78.620 E19.82478
G1 X113.617 Y80.844 E19.93574
G1 X113.618 Y81.170 E19.95200
G1 X113.617 Y83.394 E20.06296
G1 X113.618 Y83.720 E20.07922
G1 X113.617 Y85.944 E20.19018
G1 X113.618 Y86.270 E20.20644
G1 X113.617 Y88.494 E20.31740
G1 X113.618 Y88.820 E20.33366
G1 X113.617 Y91.044 E20.44462
G1 X113.618 Y91.370 E20.46088
G1 X113.617 Y93.594 E20.57184
G1 X113.619 Y94.114 E20.59778
G1 X113.617 Y95.539 E20.66887
G1 X87.219 Y95.543 E21.98588
G0 F9000 X86.819 Y95.943
;TYPE:WALL-OUTER
G1 F1800 X86.819 Y93.843 E22.09065
G1 X111.819 Y93.843 E23.33790
G1 X111.819 Y72.943 E24.38061
G1 X86.819 Y72.943 E25.62786
G1 X86.819 Y70.843 E25.73263
G1 X113.609 Y70.843 E27.06919
G1 X113.690 Y70.847 E27.07323
G1 X113.927 Y70.908 E27.08544
G1 X114.017 Y70.960 E27.09063
G1 X114.017 Y95.828 E28.33130
G1 X113.842 Y95.910 E28.34094
G1 X113.695 Y95.939 E28.34842
G1 X86.819 Y95.943 E29.68927
G0 F9000 X87.764 Y95.401
;TYPE:SKIN
G1 F1800 X87.359 Y94.996 E29.71784
G0 F9000 X87.359 Y94.430
G1 F1800 X88.330 Y95.401 E29.78635
G0 F9000 X88.896 Y95.401
G1 F1800 X87.877 Y94.383 E29.85821
G0 F9000 X88.443 Y94.383
G1 F1800 X89.461 Y95.401 E29.93004
G0 F9000 X90.027 Y95.401
G1 F1800 X89.009 Y94.383 E30.00186
G0 F9000 X89.574 Y94.383
G1 F1800 X90.593 Y95.401 E30.07372
G0 F9000 X91.158 Y95.401
G1 F1800 X90.140 Y94.383 E30.14555
G0 F9000 X90.706 Y94.383
G1 F1800 X91.724 Y95.401 E30.21737
G0 F9000 X92.290 Y95.401
G1 F1800 X91.271 Y94.383 E30.28923
G0 F9000 X91.837 Y94.383
G1 F1800 X92.855 Y95.400 E30.36102
G0 F9000 X93.420 Y95.400
G1 F1800 X92.403 Y94.383 E30.43278
G0 F9000 X92.968 Y94.383
G1 F1800 X93.986 Y95.400 E30.50457
G0 F9000 X94.552 Y95.400
G1 F1800 X93.534 Y94.383 E30.57636
G0 F9000 X94.100 Y94.383
G1 F1800 X95.117 Y95.400 E30.64811
G0 F9000 X95.683 Y95.400
G1 F1800 X94.666 Y94.383 E30.71987
G0 F9000 X95.231 Y94.383
G1 F1800 X96.249 Y95.400 E30.79166
G0 F9000 X96.814 Y95.400
G1 F1800 X95.797 Y94.383 E30.86341
G0 F9000 X96.363 Y94.383
G1 F1800 X97.380 Y95.400 E30.93517
G0 F9000 X97.945 Y95.400
G1 F1800 X96.928 Y94.383 E31.00692
G0 F9000 X97.494 Y94.383
G1 F1800 X98.511 Y95.400 E31.07868
G0 F9000 X99.076 Y95.400
G1 F1800 X98.060 Y94.383 E31.15040
G0 F9000 X98.625 Y94.383
G1 F1800 X99.642 Y95.400 E31.22215
G0 F9000 X100.208 Y95.400
G1 F1800 X99.191 Y94.383 E31.29391
G0 F9000 X99.757 Y94.383
G1 F1800 X100.774 Y95.400 E31.36566
G0 F9000 X101.339 Y95.400
G1 F1800 X100.322 Y94.383 E31.43742
G0 F9000 X100.888 Y94.383
G1 F1800 X101.905 Y95.400 E31.50917
G0 F9000 X102.471 Y95.400
G1 F1800 X101.454 Y94.383 E31.58093
G0 F9000 X102.019 Y94.383
G1 F1800 X103.036 Y95.399 E31.65265
G0 F9000 X103.601 Y95.399
G1 F1800 X102.585 Y94.383 E31.72433
G0 F9000 X103.151 Y94.383
G1 F1800 X104.167 Y95.399 E31.79601
G0 F9000 X104.733 Y95.399
G1 F1800 X103.717 Y94.383 E31.86770
G0 F9000 X104.282 Y94.383
G1 F1800 X105.298 Y95.399 E31.93938
G0 F9000 X105.864 Y95.399
G1 F1800 X104.848 Y94.383 E32.01107
G0 F9000 X105.414 Y94.383
G1 F1800 X106.430 Y95.399 E32.08275
G0 F9000 X106.995 Y95.399
G1 F1800 X105.979 Y94.383 E32.15444
G0 F9000 X106.545 Y94.383
G1 F1800 X107.561 Y95.399 E32.22612
G0 F9000 X108.127 Y95.399
G1 F1800 X107.111 Y94.383 E32.29780
G0 F9000 X107.676 Y94.383
G1 F1800 X108.692 Y95.398 E32.36945
G0 F9000 X109.257 Y95.398
G1 F1800 X108.242 Y94.383 E32.44107
G0 F9000 X108.808 Y94.383
G1 F1800 X109.823 Y95.398 E32.51268
G0 F9000 X110.389 Y95.398
G1 F1800 X109.373 Y94.383 E32.58433
G0 F9000 X109.939 Y94.383
G1 F1800 X110.954 Y95.398 E32.65594
G0 F9000 X111.520 Y95.398
G1 F1800 X110.505 Y94.383 E32.72756
G0 F9000 X111.070 Y94.383
G1 F1800 X112.086 Y95.398 E32.79921
G0 F9000 X112.652 Y95.398
G1 F1800 X111.636 Y94.383 E32.87086
G0 F9000 X112.202 Y94.383
G1 F1800 X113.217 Y95.398 E32.94247
G0 F9000 X113.476 Y95.091
G1 F1800 X112.357 Y93.973 E33.02139
G0 F9000 X112.357 Y93.407
G1 F1800 X113.476 Y94.526 E33.10034
G0 F9000 X113.476 Y93.960
G1 F1800 X112.357 Y92.841 E33.17929
G0 F9000 X112.357 Y92.276
G1 F1800 X113.476 Y93.394 E33.25820
G0 F9000 X113.476 Y92.828
G1 F1800 X112.357 Y91.710 E33.33712
G0 F9000 X112.357 Y91.144
G1 F1800 X113.476 Y92.263 E33.41607
G0 F9000 X113.476 Y91.697
G1 F1800 X112.357 Y90.578 E33.49502
G0 F9000 X112.357 Y90.013
G1 F1800 X113.476 Y91.131 E33.57394
G0 F9000 X113.476 Y90.566
G1 F1800 X112.357 Y89.447 E33.65289
G0 F9000 X112.357 Y88.881
G1 F1800 X113.476 Y90.000 E33.73184
G0 F9000 X113.476 Y89.434
G1 F1800 X112.357 Y88.316 E33.81076
G0 F9000 X112.357 Y87.750
G1 F1800 X113.476 Y88.869 E33.88971
G0 F9000 X113.476 Y88.303
G1 F1800 X112.357 Y87.184 E33.96866
G0 F9000 X112.357 Y86.619
G1 F1800 X113.476 Y87.737 E34.04758
G0 F9000 X113.476 Y87.172
G1 F1800 X112.357 Y86.053 E34.12653
G0 F9000 X112.357 Y85.487
G1 F1800 X113.476 Y86.606 E34.20548
G0 F9000 X113.476 Y86.040
G1 F1800 X112.357 Y84.922 E34.28440
G0 F9000 X112.357 Y84.356
G1 F1800 X113.476 Y85.475 E34.36335
G0 F9000 X113.476 Y84.909
G1 F1800 X112.357 Y83.790 E34.44230
G0 F9000 X112.357 Y83.225
G1 F1800 X113.476 Y84.343 E34.52122
G0 F9000 X113.476 Y83.778
G1 F1800 X112.357 Y82.659 E34.60017
G0 F9000 X112.357 Y82.093
G1 F1800 X113.476 Y83.212 E34.67912
G0 F9000 X113.476 Y82.646
G1 F1800 X112.357 Y81.527 E34.75807
G0 F9000 X112.357 Y80.962
G1 F1800 X113.476 Y82.080 E34.83699
G0 F9000 X113.476 Y81.515
G1 F1800 X112.357 Y80.396 E34.91594
G0 F9000 X112.357 Y79.830
G1 F1800 X113.476 Y80.949 E34.99489
G0 F9000 X113.476 Y80.383
G1 F1800 X112.357 Y79.265 E35.07381
G0 F9000 X112.357 Y78.699
G1 F1800 X113.476 Y79.818 E35.15276
G0 F9000 X113.476 Y79.252
G1 F1800 X112.357 Y78.133 E35.23171
G0 F9000 X112.357 Y77.568
G1 F1800 X113.476 Y78.686 E35.31063
G0 F9000 X113.476 Y78.121
G1 F1800 X112.357 Y77.002 E35.38958
G0 F9000 X112.357 Y76.436
G1 F1800 X113.476 Y77.555 E35.46853
G0 F9000 X113.476 Y76.989
G1 F1800 X112.357 Y75.871 E35.54745
G0 F9000 X112.357 Y75.305
G1 F1800 X113.476 Y76.424 E35.62640
G0 F9000 X113.476 Y75.858
G1 F1800 X112.357 Y74.739 E35.70535
G0 F9000 X112.357 Y74.174
G1 F1800 X113.476 Y75.292 E35.78426
G0 F9000 X113.476 Y74.727
G1 F1800 X112.357 Y73.608 E35.86322
G0 F9000 X112.357 Y73.042
G1 F1800 X113.476 Y74.161 E35.94217
G0 F9000 X113.476 Y73.595
G1 F1800 X112.357 Y72.477 E36.02108
G0 F9000 X112.283 Y72.402
G1 F1800 X111.263 Y71.383 E36.09301
G0 F9000 X110.698 Y71.383
G1 F1800 X111.717 Y72.402 E36.16491
G0 F9000 X111.152 Y72.402
G1 F1800 X110.132 Y71.383 E36.23684
G0 F9000 X109.566 Y71.383
G1 F1800 X110.586 Y72.402 E36.30877
G0 F9000 X110.020 Y72.402
G1 F1800 X109.001 Y71.383 E36.38067
G0 F9000 X108.435 Y71.383
G1 F1800 X109.455 Y72.402 E36.45260
G0 F9000 X108.889 Y72.402
G1 F1800 X107.869 Y71.383 E36.52453
G0 F9000 X107.304 Y71.383
G1 F1800 X108.323 Y72.402 E36.59643
G0 F9000 X107.758 Y72.402
G1 F1800 X106.738 Y71.383 E36.66836
G0 F9000 X106.172 Y71.383
G1 F1800 X107.192 Y72.402 E36.74029
G0 F9000 X106.626 Y72.402
G1 F1800 X105.607 Y71.383 E36.81219
G0 F9000 X105.041 Y71.383
G1 F1800 X106.061 Y72.402 E36.88412
G0 F9000 X105.495 Y72.402
G1 F1800 X104.475 Y71.383 E36.95605
G0 F9000 X103.910 Y71.383
G1 F1800 X104.929 Y72.402 E37.02794
G0 F9000 X104.364 Y72.402
G1 F1800 X103.344 Y71.383 E37.09988
G0 F9000 X102.778 Y71.383
G1 F1800 X103.798 Y72.402 E37.17181
G0 F9000 X103.232 Y72.402
G1 F1800 X102.212 Y71.383 E37.24374
G0 F9000 X101.647 Y71.383
G1 F1800 X102.666 Y72.402 E37.31563
G0 F9000 X102.101 Y72.402
G1 F1800 X101.081 Y71.383 E37.38757
G0 F9000 X100.515 Y71.383
G1 F1800 X101.535 Y72.402 E37.45950
G0 F9000 X100.969 Y72.402
G1 F1800 X99.950 Y71.383 E37.53139
G0 F9000 X99.384 Y71.383
G1 F1800 X100.404 Y72.402 E37.60332
G0 F9000 X111.829 Y71.383
G1 F1800 X113.476 Y73.029 E37.71949
G0 F9000 X113.476 Y72.464
G1 F1800 X112.395 Y71.383 E37.79576
G0 F9000 X112.961 Y71.383
G1 F1800 X113.476 Y71.898 E37.83210
G0 F9000 X99.838 Y72.402
G1 F1800 X98.818 Y71.383 E37.90403
G0 F9000 X98.253 Y71.383
G1 F1800 X99.272 Y72.402 E37.97593
G0 F9000 X98.707 Y72.402
G1 F1800 X97.687 Y71.383 E38.04786
G0 F9000 X97.121 Y71.383
G1 F1800 X98.141 Y72.402 E38.11979
G0 F9000 X97.575 Y72.402
G1 F1800 X96.556 Y71.383 E38.19169
G0 F9000 X95.990 Y71.383
G1 F1800 X97.010 Y72.402 E38.26362
G0 F9000 X96.444 Y72.402
G1 F1800 X95.424 Y71.383 E38.33555
G0 F9000 X94.859 Y71.383
G1 F1800 X95.878 Y72.402 E38.40744
G0 F9000 X95.313 Y72.402
G1 F1800 X94.293 Y71.383 E38.47938
G0 F9000 X93.727 Y71.383
G1 F1800 X94.747 Y72.402 E38.55131
G0 F9000 X94.181 Y72.402
G1 F1800 X93.162 Y71.383 E38.62320
G0 F9000 X92.596 Y71.383
G1 F1800 X93.615 Y72.402 E38.69510
G0 F9000 X93.050 Y72.402
G1 F1800 X92.030 Y71.383 E38.76703
G0 F9000 X91.464 Y71.383
G1 F1800 X92.484 Y72.402 E38.83896
G0 F9000 X91.918 Y72.402
G1 F1800 X90.899 Y71.383 E38.91086
G0 F9000 X90.333 Y71.383
G1 F1800 X91.353 Y72.402 E38.98279
G0 F9000 X90.787 Y72.402
G1 F1800 X89.767 Y71.383 E39.05472
G0 F9000 X89.202 Y71.383
G1 F1800 X90.221 Y72.402 E39.12662
G0 F9000 X89.656 Y72.402
G1 F1800 X88.636 Y71.383 E39.19855
G0 F9000 X88.070 Y71.383
G1 F1800 X89.090 Y72.402 E39.27048
G0 F9000 X88.524 Y72.402
G1 F1800 X87.505 Y71.383 E39.34237
G0 F9000 X87.358 Y71.801
G1 F1800 X87.959 Y72.402 E39.38478
G1 F2400 E35.38478
G0 F9000 X88.250 Y104.001
;TYPE:WALL-INNER
G1 F2400 E39.38478
G1 F1800 X92.350 Y104.001 E39.58933
G1 X92.678 Y104.000 E39.60569
G1 X94.901 Y104.001 E39.71660
G1 X95.229 Y104.000 E39.73296
G1 X97.450 Y104.001 E39.84377
G1 X97.778 Y104.000 E39.86013
G1 X100.001 Y104.001 E39.97104
G1 X100.329 Y104.000 E39.98740
G1 X102.551 Y104.001 E40.09826
G1 X102.879 Y104.000 E40.11462
G1 X105.100 Y104.001 E40.22543
G1 X105.428 Y104.000 E40.24179
G1 X107.651 Y104.001 E40.35270
G1 X107.979 Y104.000 E40.36906
G1 X110.200 Y104.001 E40.47987
G1 X110.663 Y103.999 E40.50297
G1 X111.748 Y104.000 E40.55710
G1 X111.748 Y108.001 E40.75671
G1 X111.749 Y108.321 E40.77267
G1 X111.748 Y110.501 E40.88143
G1 X111.749 Y110.821 E40.89740
G1 X111.748 Y113.001 E41.00616
G1 X111.749 Y113.321 E41.02213
G1 X111.748 Y115.501 E41.13089
G1 X111.750 Y115.950 E41.15329
G1 X111.749 Y116.998 E41.20557
G1 X107.649 Y116.998 E41.41012
G1 X107.321 Y116.999 E41.42649
G1 X105.098 Y116.998 E41.53739
G1 X104.770 Y116.999 E41.55376
G1 X102.549 Y116.998 E41.66456
G1 X102.221 Y116.999 E41.68093
G1 X99.999 Y116.998 E41.79178
G1 X99.671 Y116.999 E41.80815
G1 X97.448 Y116.998 E41.91905
G1 X97.120 Y116.999 E41.93542
G1 X94.899 Y116.998 E42.04622
G1 X94.571 Y116.999 E42.06259
G1 X92.348 Y116.998 E42.17349
G1 X92.020 Y116.999 E42.18986
G1 X89.799 Y116.998 E42.30066
G1 X89.336 Y117.000 E42.32376
G1 X88.251 Y116.999 E42.37789
G1 X88.251 Y112.999 E42.57745
G1 X88.250 Y112.679 E42.59342
G1 X88.251 Y110.499 E42.70218
G1 X88.250 Y110.179 E42.71814
G1 X88.251 Y107.999 E42.82690
G1 X88.250 Y107.679 E42.84287
G1 X88.251 Y105.499 E42.95163
G1 X88.249 Y105.050 E42.97403
G1 X88.250 Y104.001 E43.02637
G0 F9000 X96.360 Y107.474
G1 F1800 X96.057 Y108.001 E43.05669
G1 X97.725 Y110.888 E43.22304
G1 X98.028 Y111.414 E43.25332
G1 X101.971 Y111.414 E43.45004
G1 X103.640 Y108.526 E43.61645
G1 X103.943 Y107.999 E43.64678
G1 X102.275 Y105.111 E43.81317
G1 X101.972 Y104.585 E43.84345
G1 X98.029 Y104.585 E44.04017
G1 X96.360 Y107.474 E44.20663
G0 F9000 X96.519 Y108.000
;TYPE:WALL-OUTER
G1 F1800 X98.260 Y111.014 E44.38028
G1 X101.740 Y111.014 E44.55390
G1 X103.481 Y108.000 E44.72755
G1 X101.740 Y104.985 E44.90125
G1 X98.260 Y104.985 E45.07486
G1 X96.519 Y108.000 E45.24856
G0 F9000 X96.260 Y107.850
G0 X88.150 Y103.811
G0 X87.851 Y103.601
G1 F1800 X112.148 Y103.601 E46.46074
G1 X112.148 Y117.398 E47.14908
G1 X87.851 Y117.398 E48.36126
G1 X87.851 Y103.601 E49.04960
G0 F9000 X88.583 Y104.139
;TYPE:SKIN
G1 F1800 X101.300 Y116.857 E49.94688
G0 F9000 X100.735 Y116.857
G1 F1800 X88.389 Y104.511 E50.81796
G0 F9000 X88.389 Y105.077
G1 F1800 X100.169 Y116.857 E51.64910
G0 F9000 X101.866 Y116.857
G1 F1800 X89.149 Y104.139 E52.54639
G0 F9000 X89.714 Y104.139
G1 F1800 X102.432 Y116.857 E53.44372
G0 F9000 X102.997 Y116.857
G1 F1800 X90.280 Y104.139 E54.34100
G0 F9000 X90.846 Y104.139
G1 F1800 X97.522 Y110.816 E54.81207
G0 F9000 X98.259 Y111.553
G1 F1800 X103.563 Y116.857 E55.18629
G0 F9000 X104.129 Y116.857
G1 F1800 X98.825 Y111.553 E55.56052
G0 F9000 X99.390 Y111.553
G1 F1800 X104.694 Y116.857 E55.93474
G0 F9000 X105.260 Y116.857
G1 F1800 X99.956 Y111.553 E56.30897
G0 F9000 X98.044 Y111.387
G0 X96.747 Y109.475
G1 F1800 X91.411 Y104.139 E56.68545
G0 F9000 X91.977 Y104.139
G1 F1800 X95.972 Y108.135 E56.96736
G0 F9000 X96.081 Y107.678
G1 F1800 X92.543 Y104.139 E57.21702
