;Generated with Cura_SteamEngine 15.01
; Default start code
G28 ; Home extruder
G1 Z15 F100
M107 ; Turn off fan
G90 ; Absolute positioning
M82 ; Extruder in absolute mode
M190 S80
; Activate all used extruder
M104 T0 S220
G92 E0 ; Reset extruder position
; Wait for all used extruders to reach temperature
M109 T0 S220
;Layer count: 175
;LAYER:0
M107
G0 F9000 X64.427 Y63.939 Z0.300
G0 X64.427 Y64.938
;TYPE:SKIRT
G1 F1800 X64.427 Y63.939 E0.04984
G1 X66.419 Y62.944 E0.16093
G1 X66.622 Y62.741 E0.17525
G1 X67.019 Y62.543 E0.19739
G1 X67.914 Y61.650 E0.26046
G1 X73.350 Y61.650 E0.53167
G1 X74.323 Y62.138 E0.58597
G1 X75.532 Y62.541 E0.64955
G1 X76.738 Y63.746 E0.73461
G1 X77.135 Y63.944 E0.75674
G1 X78.538 Y65.345 E0.85566
G1 X78.936 Y65.544 E0.87786
G1 X81.056 Y67.665 E1.02747
G1 X81.056 Y68.181 E1.05321
G1 X81.320 Y68.361 E1.06916
G1 X82.160 Y68.902 E1.11900
G1 X82.283 Y68.976 E1.12616
G1 X88.126 Y70.939 E1.43368
G1 X88.527 Y71.139 E1.45604
G1 X89.119 Y71.336 E1.48717
G1 X89.248 Y71.401 E1.49437
G1 X90.168 Y71.554 E1.54090
G1 X91.326 Y71.940 E1.60180
G1 X91.447 Y72.000 E1.60854
G1 X92.368 Y72.154 E1.65513
G1 X93.526 Y72.540 E1.71602
G1 X93.646 Y72.600 E1.72272
G1 X94.118 Y72.678 E1.74659
G1 X96.206 Y72.869 E1.85119
G1 X97.867 Y73.052 E1.93456
G1 X103.216 Y73.115 E2.20144
G1 X104.381 Y72.882 E2.26071
G1 X106.493 Y72.706 E2.36645
G1 X107.105 Y72.400 E2.40058
G1 X108.586 Y72.153 E2.47549
G1 X108.633 Y72.137 E2.47797
G1 X109.247 Y71.830 E2.51222
G1 X110.531 Y71.572 E2.57756
G1 X111.824 Y71.140 E2.64557
G1 X118.092 Y68.005 E2.99521
G1 X118.092 Y68.740 E3.03188
G1 X118.646 Y68.384 E3.06474
G1 X118.932 Y68.189 E3.08201
G1 X118.931 Y67.624 E3.11020
G1 X121.022 Y65.542 E3.25741
G1 X121.819 Y65.143 E3.30188
G1 X122.421 Y64.544 E3.34425
G1 X122.817 Y64.345 E3.36636
G1 X124.619 Y62.544 E3.49346
G1 X126.407 Y61.650 E3.59319
G1 X131.343 Y61.650 E3.83945
G1 X133.130 Y62.539 E3.93903
G1 X133.335 Y62.744 E3.95349
G1 X135.527 Y63.839 E4.07574
G1 X135.527 Y64.935 E4.13042
G1 X135.727 Y65.135 E4.14453
G1 X135.727 Y65.335 E4.15451
G1 X135.927 Y65.535 E4.16862
G1 X135.927 Y65.735 E4.17860
G1 X136.127 Y65.935 E4.19271
G1 X136.127 Y71.365 E4.46361
G1 X135.927 Y71.565 E4.47772
G1 X135.927 Y72.761 E4.53739
G1 X134.334 Y73.557 E4.62624
G1 X131.134 Y76.757 E4.85201
G1 X130.738 Y76.955 E4.87410
G1 X130.537 Y77.156 E4.88828
G1 X129.737 Y77.556 E4.93291
G1 X128.734 Y78.557 E5.00360
G1 X127.939 Y78.954 E5.04794
G1 X127.536 Y79.357 E5.07637
G1 X127.134 Y79.558 E5.09879
G1 X126.933 Y79.758 E5.11294
G1 X126.495 Y79.977 E5.13737
G1 X127.063 Y81.195 E5.20442
G1 X127.337 Y81.846 E5.23966
G1 X127.535 Y82.496 E5.27356
G1 X127.671 Y83.149 E5.30683
G1 X127.744 Y83.801 E5.33957
G1 X127.760 Y84.456 E5.37225
G1 X127.709 Y85.141 E5.40652
G1 X127.599 Y85.799 E5.43981
G1 X127.429 Y86.437 E5.47275
G1 X127.203 Y87.062 E5.50590
G1 X126.913 Y87.671 E5.53956
G1 X126.574 Y88.241 E5.57264
G1 X126.143 Y88.835 E5.60926
G1 X125.331 Y89.680 E5.66772
G1 X124.739 Y90.145 E5.70528
G1 X124.183 Y90.504 E5.73830
G1 X123.590 Y90.815 E5.77171
G1 X122.975 Y91.065 E5.80483
G1 X122.348 Y91.258 E5.83756
G1 X121.684 Y91.395 E5.87138
G1 X121.030 Y91.468 E5.90421
G1 X120.375 Y91.483 E5.93690
G1 X119.691 Y91.432 E5.97112
G1 X119.527 Y91.404 E5.97942
G1 X119.527 Y100.149 E6.41571
G1 X111.927 Y100.349 E6.79501
G1 X111.927 Y117.850 E7.66813
G1 X87.827 Y117.850 E8.87049
G1 X87.827 Y100.349 E9.74362
G1 X80.227 Y100.149 E10.12291
G1 X80.227 Y91.439 E10.55746
G1 X79.619 Y91.481 E10.58786
G1 X78.951 Y91.468 E10.62119
G1 X78.285 Y91.390 E10.65465
G1 X77.636 Y91.254 E10.68773
G1 X77.002 Y91.058 E10.72084
G1 X76.381 Y90.802 E10.75435
G1 X75.797 Y90.492 E10.78734
G1 X75.249 Y90.138 E10.81988
G1 X74.659 Y89.673 E10.85736
G1 X73.851 Y88.828 E10.91569
G1 X73.369 Y88.162 E10.95671
G1 X72.817 Y87.120 E11.01554
G1 X72.537 Y86.341 E11.05683
G1 X72.296 Y85.205 E11.11477
G1 X72.240 Y84.453 E11.15239
G1 X72.256 Y83.783 E11.18583
G1 X72.332 Y83.120 E11.21912
G1 X72.471 Y82.472 E11.25219
G1 X72.666 Y81.834 E11.28547
G1 X72.936 Y81.195 E11.32008
G1 X73.547 Y79.886 E11.39215
G1 X73.417 Y79.756 E11.40132
G1 X72.618 Y79.357 E11.44588
G1 X72.416 Y79.155 E11.46013
G1 X71.620 Y78.757 E11.50453
G1 X71.215 Y78.354 E11.53303
G1 X70.821 Y78.156 E11.55503
G1 X70.221 Y77.558 E11.59730
G1 X69.818 Y77.357 E11.61976
G1 X69.416 Y76.955 E11.64813
G1 X69.020 Y76.757 E11.67022
G1 X66.818 Y74.556 E11.82554
G1 X64.227 Y73.261 E11.97006
G1 X64.227 Y72.162 E12.02489
G1 X63.827 Y71.761 E12.05314
G1 X63.827 Y65.735 E12.35378
G1 X64.027 Y65.535 E12.36789
G1 X64.027 Y65.339 E12.37767
G1 X64.427 Y64.938 E12.40593
G0 F9000 X122.669 Y99.369
G1 F1800 X123.483 Y98.324 E12.47201
G1 X124.376 Y97.737 E12.52533
G1 X125.376 Y97.404 E12.57791
G1 X127.667 Y97.396 E12.69221
G1 X128.319 Y97.396 E12.72474
G1 X130.762 Y97.397 E12.84662
G1 X131.197 Y97.396 E12.86832
G1 X133.213 Y97.397 E12.96890
G1 X133.647 Y97.396 E12.99056
G1 X135.663 Y97.397 E13.09113
G1 X136.097 Y97.396 E13.11279
G1 X138.113 Y97.397 E13.21337
G1 X138.547 Y97.396 E13.23502
G1 X140.563 Y97.397 E13.33560
G1 X140.997 Y97.396 E13.35725
G1 X143.013 Y97.397 E13.45783
G1 X143.447 Y97.396 E13.47948
G1 X145.463 Y97.397 E13.58006
G1 X145.897 Y97.396 E13.60171
G1 X147.910 Y97.397 E13.70214
G1 X148.561 Y97.395 E13.73462
G1 X150.432 Y97.398 E13.82796
G1 X151.064 Y97.462 E13.85965
G1 X151.920 Y97.772 E13.90508
G1 X152.580 Y98.215 E13.94473
G1 X152.999 Y98.626 E13.97401
G1 X153.399 Y99.141 E14.00655
G1 X153.766 Y99.904 E14.04879
G1 X153.958 Y100.733 E14.09124
G1 X153.969 Y101.554 E14.13221
G1 X153.966 Y103.021 E14.20539
G1 X153.967 Y104.227 E14.26556
G1 X153.966 Y104.838 E14.29604
G1 X153.967 Y106.046 E14.35631
G1 X153.966 Y106.656 E14.38675
G1 X153.967 Y107.864 E14.44701
G1 X153.966 Y108.474 E14.47745
G1 X153.967 Y109.682 E14.53771
G1 X153.966 Y110.292 E14.56815
G1 X153.967 Y111.500 E14.62841
G1 X153.966 Y112.110 E14.65885
G1 X153.967 Y113.318 E14.71911
G1 X153.966 Y113.928 E14.74955
G1 X153.967 Y115.136 E14.80981
G1 X153.966 Y115.747 E14.84030
G1 X153.967 Y116.955 E14.90056
G1 X153.966 Y117.565 E14.93100
G1 X153.967 Y118.773 E14.99127
G1 X153.966 Y119.383 E15.02170
G1 X153.968 Y120.847 E15.09474
G1 X153.954 Y121.590 E15.13181
G1 X153.878 Y122.146 E15.15981
G1 X153.632 Y122.917 E15.20019
G1 X153.494 Y123.176 E15.21483
G1 X153.360 Y123.450 E15.23004
G1 X152.932 Y124.034 E15.26617
G1 X152.231 Y124.682 E15.31379
G1 X150.985 Y125.260 E15.38232
G1 X148.566 Y125.269 E15.50300
G1 X145.837 Y125.235 E15.63917
G1 X145.241 Y122.516 E15.77804
G1 X145.170 Y121.882 E15.80987
G1 X145.168 Y120.952 E15.85626
G1 X145.168 Y109.450 E16.43010
G1 X131.068 Y109.450 E17.13355
G1 X131.068 Y121.802 E17.74980
G1 X130.672 Y125.253 E17.92310
G1 X125.809 Y125.270 E18.16571
G1 X124.980 Y125.158 E18.20745
G1 X123.986 Y124.653 E18.26307
G1 X123.302 Y124.040 E18.30890
G1 X122.823 Y123.368 E18.35007
G1 X122.440 Y122.483 E18.39818
G1 X122.278 Y121.641 E18.44096
G1 X122.268 Y120.837 E18.48107
G1 X122.270 Y119.374 E18.55406
G1 X122.269 Y118.165 E18.61438
G1 X122.270 Y117.555 E18.64481
G1 X122.269 Y116.347 E18.70508
G1 X122.270 Y115.737 E18.73551
G1 X122.269 Y114.529 E18.79578
G1 X122.270 Y113.918 E18.82626
G1 X122.269 Y112.710 E18.88653
G1 X122.270 Y112.100 E18.91696
G1 X122.269 Y110.892 E18.97723
G1 X122.270 Y110.282 E19.00766
G1 X122.269 Y109.074 E19.06793
G1 X122.270 Y108.464 E19.09836
G1 X122.269 Y107.256 E19.15863
G1 X122.270 Y106.646 E19.18906
G1 X122.269 Y105.438 E19.24933
G1 X122.270 Y104.828 E19.27976
G1 X122.269 Y103.620 E19.34003
G1 X122.270 Y103.009 E19.37051
G1 X122.269 Y101.541 E19.44375
G1 X122.289 Y100.559 E19.49276
G1 X122.669 Y99.369 E19.55508
G1 F2400 E15.55508
G0 F9000 X84.507 Y81.463
;TYPE:WALL-INNER
G1 F2400 E19.55508
G1 F1800 X82.574 Y85.607 E19.78321
G1 X82.371 Y86.005 E19.80550
G1 X82.209 Y86.255 E19.82036
G1 X82.007 Y86.511 E19.83663
G1 X81.564 Y86.936 E19.86726
G1 X81.309 Y87.120 E19.88295
G1 X80.756 Y87.413 E19.91417
G1 X80.140 Y87.606 E19.94637
G1 X79.840 Y87.656 E19.96155
G1 X79.517 Y87.678 E19.97770
G1 X79.209 Y87.673 E19.99307
G1 X78.894 Y87.636 E20.00889
G1 X78.296 Y87.481 E20.03971
G1 X77.995 Y87.357 E20.05595
G1 X77.726 Y87.214 E20.07115
G1 X77.462 Y87.044 E20.08682
G1 X77.225 Y86.856 E20.10191
G1 X76.775 Y86.386 E20.13437
G1 X76.602 Y86.147 E20.14909
G1 X76.303 Y85.583 E20.18094
G1 X76.200 Y85.298 E20.19606
G1 X76.066 Y84.664 E20.22839
G1 X76.044 Y84.365 E20.24335
G1 X76.051 Y84.042 E20.25946
G1 X76.086 Y83.737 E20.27478
G1 X76.244 Y83.129 E20.30612
G1 X78.456 Y78.349 E20.56889
G1 X78.456 Y71.008 E20.93514
G1 X79.237 Y71.540 E20.98228
G1 X80.136 Y72.118 E21.03560
G1 X81.051 Y72.670 E21.08892
G1 X81.975 Y73.192 E21.14186
G1 X82.923 Y73.692 E21.19533
G1 X83.885 Y74.165 E21.24882
G1 X84.507 Y74.449 E21.28293
G1 X84.507 Y81.463 E21.63286
G0 F9000 X81.278 Y83.365
G1 F1800 X81.117 Y83.095 E21.64854
G1 X80.915 Y82.853 E21.66427
G1 X80.681 Y82.645 E21.67989
G1 X80.415 Y82.475 E21.69564
G1 X80.130 Y82.348 E21.71121
G1 X79.828 Y82.266 E21.72682
G1 X79.516 Y82.230 E21.74249
G1 X79.200 Y82.242 E21.75826
G1 X78.891 Y82.303 E21.77398
G1 X78.597 Y82.411 E21.78960
G1 X78.321 Y82.561 E21.80528
G1 X78.071 Y82.754 E21.82103
G1 X77.856 Y82.979 E21.83656
G1 X77.675 Y83.237 E21.85228
G1 X77.537 Y83.520 E21.86799
G1 X77.444 Y83.818 E21.88356
G1 X77.396 Y84.125 E21.89907
G1 X77.395 Y84.431 E21.91433
G1 X77.445 Y84.753 E21.93059
G1 X77.540 Y85.052 E21.94624
G1 X77.681 Y85.333 E21.96193
G1 X77.863 Y85.590 E21.97764
G1 X78.080 Y85.816 E21.99327
G1 X78.332 Y86.007 E22.00905
G1 X78.608 Y86.155 E22.02467
G1 X78.903 Y86.261 E22.04031
G1 X79.212 Y86.319 E22.05599
G1 X79.525 Y86.330 E22.07162
G1 X79.837 Y86.294 E22.08729
G1 X80.141 Y86.210 E22.10302
G1 X80.428 Y86.079 E22.11876
G1 X80.690 Y85.909 E22.13434
G1 X80.923 Y85.700 E22.14996
G1 X81.124 Y85.456 E22.16573
G1 X81.282 Y85.185 E22.18138
G1 X81.399 Y84.895 E22.19698
G1 X81.470 Y84.589 E22.21266
G1 X81.494 Y84.276 E22.22832
G1 X81.470 Y83.961 E22.24408
G1 X81.396 Y83.654 E22.25983
G1 X81.278 Y83.365 E22.27541
G0 F9000 X80.919 Y83.544
;TYPE:WALL-OUTER
G1 F1800 X80.790 Y83.327 E22.28800
G1 X80.627 Y83.132 E22.30068
G1 X80.439 Y82.965 E22.31323
G1 X80.225 Y82.828 E22.32590
G1 X79.995 Y82.726 E22.33846
G1 X79.752 Y82.660 E22.35102
G1 X79.501 Y82.631 E22.36362
G1 X79.247 Y82.641 E22.37631
G1 X78.999 Y82.690 E22.38892
G1 X78.762 Y82.776 E22.40150
G1 X78.540 Y82.897 E22.41411
G1 X78.340 Y83.052 E22.42673
G1 X78.166 Y83.234 E22.43930
G1 X78.020 Y83.441 E22.45193
G1 X77.910 Y83.668 E22.46452
G1 X77.835 Y83.909 E22.47711
G1 X77.796 Y84.157 E22.48964
G1 X77.795 Y84.401 E22.50181
G1 X77.836 Y84.661 E22.51494
G1 X77.912 Y84.901 E22.52750
G1 X78.025 Y85.127 E22.54011
G1 X78.172 Y85.334 E22.55277
G1 X78.347 Y85.516 E22.56537
G1 X78.549 Y85.669 E22.57801
G1 X78.771 Y85.788 E22.59058
G1 X79.008 Y85.874 E22.60316
G1 X79.257 Y85.920 E22.61579
G1 X79.509 Y85.929 E22.62837
G1 X79.760 Y85.900 E22.64098
G1 X80.004 Y85.833 E22.65360
G1 X80.235 Y85.728 E22.66626
G1 X80.446 Y85.590 E22.67884
G1 X80.634 Y85.422 E22.69142
G1 X80.795 Y85.227 E22.70403
G1 X80.922 Y85.008 E22.71666
G1 X81.016 Y84.774 E22.72924
G1 X81.073 Y84.528 E22.74184
G1 X81.093 Y84.276 E22.75445
G1 X81.073 Y84.024 E22.76706
G1 X81.014 Y83.777 E22.77973
G1 X80.919 Y83.544 E22.79229
G0 F9000 X81.177 Y83.391
G0 X82.672 Y85.636
G0 X82.940 Y85.770
G1 F1800 X82.721 Y86.199 E22.81632
G1 X82.528 Y86.497 E22.83403
G1 X82.313 Y86.770 E22.85137
G1 X81.813 Y87.250 E22.88595
G1 X81.527 Y87.456 E22.90353
G1 X80.907 Y87.785 E22.93855
G1 X80.231 Y87.997 E22.97389
G1 X79.891 Y88.053 E22.99109
G1 X79.527 Y88.079 E23.00929
G1 X79.184 Y88.072 E23.02641
G1 X78.832 Y88.031 E23.04409
G1 X78.486 Y87.958 E23.06173
G1 X78.155 Y87.856 E23.07901
G1 X77.833 Y87.723 E23.09639
G1 X77.518 Y87.556 E23.11418
G1 X77.228 Y87.369 E23.13139
G1 X76.954 Y87.152 E23.14883
G1 X76.467 Y86.644 E23.18394
G1 X76.264 Y86.363 E23.20124
G1 X75.933 Y85.739 E23.23648
G1 X75.816 Y85.413 E23.25376
G1 X75.669 Y84.718 E23.28920
G1 X75.643 Y84.379 E23.30616
G1 X75.652 Y84.021 E23.32402
G1 X75.692 Y83.668 E23.34175
G1 X75.866 Y82.995 E23.37643
G1 X78.056 Y78.260 E23.63670
G1 X78.056 Y70.228 E24.03742
G1 X78.584 Y70.611 E24.06996
G1 X79.458 Y71.207 E24.12274
G1 X80.347 Y71.779 E24.17548
G1 X81.252 Y72.325 E24.22821
G1 X82.170 Y72.843 E24.28080
G1 X83.104 Y73.335 E24.33347
G1 X84.056 Y73.804 E24.38641
G1 X84.907 Y74.193 E24.43309
G1 X84.907 Y81.553 E24.80029
G1 X82.940 Y85.770 E25.03244
G0 F9000 X82.443 Y85.554
;TYPE:SKIN
G1 F1800 X81.587 Y84.698 E25.09283
G0 F9000 X81.453 Y85.129
G1 F1800 X82.252 Y85.929 E25.14924
G0 F9000 X82.022 Y86.265
G1 F1800 X81.259 Y85.501 E25.20311
G0 F9000 X81.005 Y85.813
G1 F1800 X81.752 Y86.560 E25.25581
G0 F9000 X81.462 Y86.836
G1 F1800 X80.696 Y86.070 E25.30986
G0 F9000 X80.335 Y86.274
G1 F1800 X81.119 Y87.059 E25.36521
G0 F9000 X80.750 Y87.255
G1 F1800 X79.912 Y86.418 E25.42430
G0 F9000 X79.393 Y86.465
G1 F1800 X80.328 Y87.399 E25.49023
G0 F9000 X82.624 Y85.169
G1 F1800 X81.626 Y84.171 E25.56065
G0 F9000 X81.459 Y83.439
G1 F1800 X82.803 Y84.783 E25.65547
G0 F9000 X82.983 Y84.398
G1 F1800 X78.080 Y79.494 E26.00144
G0 F9000 X77.900 Y79.880
G1 F1800 X80.281 Y82.261 E26.16944
G0 F9000 X83.343 Y83.626
G1 F1800 X78.437 Y78.720 E26.51558
G0 F9000 X78.259 Y79.107
G1 F1800 X83.163 Y84.012 E26.86162
G0 F9000 X83.523 Y83.240
G1 F1800 X78.594 Y78.312 E27.20935
G0 F9000 X78.594 Y77.746
G1 F1800 X83.703 Y82.854 E27.56978
G0 F9000 X83.883 Y82.469
G1 F1800 X78.594 Y77.180 E27.94295
G0 F9000 X78.594 Y76.615
G1 F1800 X84.062 Y82.083 E28.32875
G0 F9000 X84.243 Y81.697
G1 F1800 X78.594 Y76.049 E28.72728
G0 F9000 X78.594 Y75.483
G1 F1800 X84.366 Y81.255 E29.13453
G0 F9000 X84.366 Y80.689
G1 F1800 X78.594 Y74.917 E29.54177
G0 F9000 X78.594 Y74.352
G1 F1800 X84.366 Y80.123 E29.94898
G0 F9000 X84.366 Y79.557
G1 F1800 X78.594 Y73.786 E30.35619
G0 F9000 X78.594 Y73.220
G1 F1800 X84.366 Y78.992 E30.76344
G0 F9000 X84.366 Y78.426
G1 F1800 X78.594 Y72.655 E31.17065
G0 F9000 X78.594 Y72.089
G1 F1800 X84.366 Y77.860 E31.57786
G0 F9000 X84.366 Y77.295
G1 F1800 X78.594 Y71.523 E31.98511
G0 F9000 X79.538 Y71.902
G1 F1800 X84.366 Y76.729 E32.32571
G0 F9000 X84.366 Y76.163
G1 F1800 X81.011 Y72.809 E32.56239
G0 F9000 X82.280 Y73.512
G1 F1800 X84.366 Y75.598 E32.70957
G0 F9000 X84.366 Y75.032
G1 F1800 X83.433 Y74.099 E32.77540
G0 F9000 X77.721 Y80.267
G1 F1800 X79.545 Y82.091 E32.90409
G0 F9000 X79.022 Y82.133
G1 F1800 X77.542 Y80.654 E33.00848
G0 F9000 X77.363 Y81.040
G1 F1800 X78.587 Y82.264 E33.09484
G0 F9000 X78.218 Y82.461
G1 F1800 X77.184 Y81.427 E33.16779
G0 F9000 X77.006 Y81.814
G1 F1800 X77.910 Y82.718 E33.23157
G0 F9000 X77.652 Y83.026
G1 F1800 X76.827 Y82.201 E33.28978
G0 F9000 X76.648 Y82.587
G1 F1800 X77.446 Y83.386 E33.34612
G0 F9000 X77.303 Y83.809
G1 F1800 X76.469 Y82.974 E33.40500
G0 F9000 X76.320 Y83.391
G1 F1800 X77.255 Y84.326 E33.47097
G0 F9000 X77.382 Y85.019
G1 F1800 X76.214 Y83.850 E33.55341
G0 F9000 X76.184 Y84.386
G1 F1800 X79.331 Y87.534 E33.77548
G0 F9000 X79.871 Y87.508
G1 F1800 X78.701 Y86.338 E33.85803
G0 F9000 X78.662 Y87.430
G1 F1800 X76.293 Y85.062 E34.02514
G0 F9000 X76.701 Y86.035
G1 F1800 X77.689 Y87.023 E34.09485
G1 F2400 E30.09485
G0 F9000 X115.492 Y81.463
;TYPE:WALL-INNER
G1 F2400 E34.09485
G1 F1800 X115.492 Y74.450 E34.44473
G1 X116.102 Y74.171 E34.47820
G1 X117.061 Y73.701 E34.53148
G1 X118.006 Y73.202 E34.58480
G1 X118.918 Y72.688 E34.63702
G1 X119.846 Y72.130 E34.69105
G1 X120.745 Y71.552 E34.74437
G1 X121.536 Y71.013 E34.79212
G1 X121.543 Y78.349 E35.15812
G1 X123.593 Y82.746 E35.40016
G1 X123.757 Y83.135 E35.42122
G1 X123.915 Y83.755 E35.45314
G1 X123.949 Y84.055 E35.46820
G1 X123.956 Y84.369 E35.48387
G1 X123.934 Y84.680 E35.49942
G1 X123.880 Y84.996 E35.51542
G1 X123.799 Y85.303 E35.53126
G1 X123.695 Y85.590 E35.54649
G1 X123.555 Y85.885 E35.56278
G1 X123.401 Y86.143 E35.57777
G1 X123.222 Y86.389 E35.59295
G1 X122.773 Y86.856 E35.62527
G1 X122.524 Y87.052 E35.64108
G1 X122.268 Y87.218 E35.65630
G1 X121.991 Y87.363 E35.67190
G1 X121.692 Y87.484 E35.68799
G1 X121.409 Y87.572 E35.70278
G1 X120.780 Y87.673 E35.73456
