;Generated with Cura_SteamEngine 15.01
; Default start code
G28 ; Home extruder
G1 Z15 F100
M107 ; Turn off fan
G90 ; Absolute positioning
M82 ; Extruder in absolute mode
M190 S60
; Activate all used extruder
M104 T0 S225
G92 E0 ; Reset extruder position
; Wait for all used extruders to reach temperature
M109 T0 S225
;Layer count: 175
;LAYER:0
M107
G0 F9000 X64.427 Y74.106 Z0.300
G0 X64.427 Y75.205
;TYPE:SKIRT
G1 F1800 X64.427 Y74.106 E0.05483
G1 X66.619 Y73.011 E0.17707
G1 X66.824 Y72.806 E0.19154
G1 X68.611 Y71.917 E0.29112
G1 X73.547 Y71.917 E0.53737
G1 X75.735 Y73.011 E0.65942
G1 X76.738 Y74.012 E0.73011
G1 X77.135 Y74.211 E0.75227
G1 X78.338 Y75.413 E0.83711
G1 X78.734 Y75.611 E0.85920
G1 X81.056 Y77.927 E1.02282
G1 X81.056 Y78.450 E1.04891
G1 X81.341 Y78.645 E1.06614
G1 X82.140 Y79.157 E1.11348
G1 X82.594 Y79.431 E1.13994
G1 X89.120 Y81.603 E1.48308
G1 X89.249 Y81.668 E1.49029
G1 X90.168 Y81.821 E1.53677
G1 X91.326 Y82.207 E1.59767
G1 X91.447 Y82.267 E1.60441
G1 X92.368 Y82.421 E1.65099
G1 X93.526 Y82.807 E1.71189
G1 X93.646 Y82.867 E1.71858
G1 X94.129 Y82.947 E1.74301
G1 X96.316 Y83.145 E1.85256
G1 X97.368 Y83.321 E1.90578
G1 X103.194 Y83.386 E2.19646
G1 X104.381 Y83.149 E2.25685
G1 X106.493 Y82.973 E2.36258
G1 X107.105 Y82.667 E2.39672
G1 X108.586 Y82.420 E2.47162
G1 X108.633 Y82.404 E2.47410
G1 X109.247 Y82.097 E2.50835
G1 X110.521 Y81.841 E2.57318
G1 X111.212 Y81.611 E2.60951
G1 X112.642 Y80.168 E2.71087
G1 X114.566 Y80.960 E2.81467
G1 X115.357 Y80.572 E2.85863
G1 X116.174 Y80.140 E2.90473
G1 X117.014 Y79.667 E2.95283
G1 X117.856 Y79.159 E3.00189
G1 X118.656 Y78.646 E3.04930
G1 X118.932 Y78.458 E3.06596
G1 X118.931 Y77.894 E3.09410
G1 X120.820 Y76.009 E3.22724
G1 X121.220 Y75.809 E3.24955
G1 X121.424 Y75.606 E3.26391
G1 X121.820 Y75.409 E3.28597
G1 X122.818 Y74.411 E3.35639
G1 X123.216 Y74.212 E3.37859
G1 X124.619 Y72.811 E3.47751
G1 X126.407 Y71.917 E3.57724
G1 X132.242 Y71.917 E3.86835
G1 X133.339 Y73.013 E3.94571
G1 X135.527 Y74.104 E4.06769
G1 X135.527 Y75.205 E4.12262
G1 X135.927 Y75.606 E4.15088
G1 X135.927 Y76.002 E4.17063
G1 X136.127 Y76.202 E4.18475
G1 X136.127 Y81.632 E4.45565
G1 X135.927 Y81.832 E4.46976
G1 X135.927 Y82.028 E4.47954
G1 X135.527 Y82.429 E4.50780
G1 X135.527 Y82.631 E4.51787
G1 X131.134 Y87.024 E4.82782
G1 X130.738 Y87.222 E4.84991
G1 X130.537 Y87.423 E4.86409
G1 X129.737 Y87.823 E4.90872
G1 X128.734 Y88.824 E4.97941
G1 X127.939 Y89.221 E5.02375
G1 X127.536 Y89.624 E5.05218
G1 X127.134 Y89.825 E5.07460
G1 X126.933 Y90.025 E5.08875
G1 X126.494 Y90.244 E5.11323
G1 X127.100 Y91.543 E5.18474
G1 X127.339 Y92.122 E5.21599
G1 X127.537 Y92.764 E5.24951
G1 X127.670 Y93.417 E5.28275
G1 X127.745 Y94.069 E5.31550
G1 X127.760 Y94.724 E5.34818
G1 X127.711 Y95.409 E5.38245
G1 X127.599 Y96.067 E5.41575
G1 X127.431 Y96.705 E5.44866
G1 X127.201 Y97.334 E5.48207
G1 X126.913 Y97.939 E5.51550
G1 X126.575 Y98.506 E5.54844
G1 X126.146 Y99.100 E5.58499
G1 X125.331 Y99.949 E5.64371
G1 X124.743 Y100.410 E5.68098
G1 X124.184 Y100.771 E5.71418
G1 X123.590 Y101.083 E5.74766
G1 X122.904 Y101.362 E5.78460
G1 X121.771 Y101.653 E5.84296
G1 X121.033 Y101.735 E5.88001
G1 X120.379 Y101.751 E5.91265
G1 X119.691 Y101.700 E5.94706
G1 X119.032 Y101.588 E5.98041
G1 X118.727 Y101.507 E5.99616
G1 X118.727 Y110.404 E6.44003
G1 X111.927 Y110.604 E6.77943
G1 X111.927 Y128.117 E7.65316
G1 X87.827 Y128.117 E8.85551
G1 X87.827 Y110.604 E9.72924
G1 X81.027 Y110.404 E10.06864
G1 X81.027 Y101.579 E10.50892
G1 X81.025 Y101.580 E10.50903
G1 X80.280 Y101.703 E10.54670
G1 X79.616 Y101.749 E10.57991
G1 X78.951 Y101.735 E10.61309
G1 X78.285 Y101.659 E10.64654
G1 X77.636 Y101.521 E10.67964
G1 X77.006 Y101.328 E10.71251
G1 X76.381 Y101.070 E10.74625
G1 X75.797 Y100.760 E10.77923
G1 X75.249 Y100.406 E10.81178
G1 X74.659 Y99.941 E10.84926
G1 X73.851 Y99.096 E10.90759
G1 X73.369 Y98.430 E10.94860
G1 X72.817 Y97.388 E11.00743
G1 X72.537 Y96.609 E11.04873
G1 X72.296 Y95.473 E11.10667
G1 X72.240 Y94.721 E11.14429
G1 X72.256 Y94.051 E11.17772
G1 X72.332 Y93.388 E11.21102
G1 X72.471 Y92.740 E11.24408
G1 X72.663 Y92.111 E11.27689
G1 X72.894 Y91.554 E11.30698
G1 X73.547 Y90.153 E11.38409
G1 X73.417 Y90.023 E11.39326
G1 X72.618 Y89.624 E11.43782
G1 X72.416 Y89.422 E11.45207
G1 X71.620 Y89.024 E11.49647
G1 X71.215 Y88.621 E11.52498
G1 X70.821 Y88.423 E11.54698
G1 X70.221 Y87.825 E11.58924
G1 X69.818 Y87.624 E11.61171
G1 X69.416 Y87.222 E11.64007
G1 X69.020 Y87.024 E11.66216
G1 X66.818 Y84.823 E11.81749
G1 X64.227 Y83.528 E11.96200
G1 X64.227 Y82.429 E12.01683
G1 X63.827 Y82.028 E12.04509
G1 X63.827 Y76.002 E12.34572
G1 X64.027 Y75.802 E12.35983
G1 X64.027 Y75.606 E12.36961
G1 X64.427 Y75.205 E12.39787
G1 F2400 E8.39787
G0 F9000 X78.456 Y81.275
;TYPE:WALL-INNER
G1 F2400 E12.39787
G1 F1800 X79.243 Y81.813 E12.44543
G1 X80.143 Y82.391 E12.49880
G1 X81.049 Y82.936 E12.55154
G1 X81.979 Y83.462 E12.60485
G1 X82.926 Y83.962 E12.65828
G1 X83.886 Y84.433 E12.71162
G1 X84.507 Y84.718 E12.74571
G1 X84.507 Y91.731 E13.09559
G1 X82.581 Y95.860 E13.32290
G1 X82.375 Y96.267 E13.34566
G1 X82.202 Y96.532 E13.36145
G1 X82.011 Y96.774 E13.37683
G1 X81.561 Y97.208 E13.40802
G1 X81.313 Y97.386 E13.42325
G1 X80.753 Y97.683 E13.45487
G1 X80.145 Y97.873 E13.48665
G1 X79.840 Y97.924 E13.50208
G1 X79.520 Y97.946 E13.51808
G1 X79.206 Y97.940 E13.53375
G1 X78.901 Y97.905 E13.54907
G1 X78.289 Y97.746 E13.58061
G1 X77.726 Y97.482 E13.61164
G1 X77.462 Y97.312 E13.62730
G1 X77.225 Y97.124 E13.64239
G1 X76.775 Y96.654 E13.67486
G1 X76.602 Y96.415 E13.68958
G1 X76.303 Y95.851 E13.72142
G1 X76.200 Y95.566 E13.73654
G1 X76.066 Y94.932 E13.76887
G1 X76.044 Y94.633 E13.78383
G1 X76.051 Y94.310 E13.79995
G1 X76.086 Y94.005 E13.81526
G1 X76.245 Y93.393 E13.84681
G1 X78.374 Y88.791 E14.09978
G1 X78.456 Y88.620 E14.10925
G1 X78.456 Y81.275 E14.47569
G0 F9000 X79.088 Y91.971
G1 F1800 X78.755 Y92.040 E14.49266
G1 X78.436 Y92.150 E14.50949
G1 X78.131 Y92.302 E14.52649
G1 X77.847 Y92.494 E14.54359
G1 X77.594 Y92.719 E14.56049
G1 X77.371 Y92.975 E14.57742
G1 X77.184 Y93.259 E14.59439
G1 X77.034 Y93.565 E14.61139
G1 X76.927 Y93.887 E14.62832
G1 X76.863 Y94.209 E14.64470
G1 X76.841 Y94.561 E14.66229
G1 X76.865 Y94.901 E14.67930
G1 X76.933 Y95.234 E14.69625
G1 X77.044 Y95.556 E14.71325
G1 X77.196 Y95.860 E14.73020
G1 X77.386 Y96.141 E14.74713
G1 X77.603 Y96.388 E14.76353
G1 X77.858 Y96.612 E14.78046
G1 X78.143 Y96.802 E14.79755
G1 X78.459 Y96.956 E14.81509
G1 X78.779 Y97.063 E14.83192
G1 X79.103 Y97.127 E14.84840
G1 X79.453 Y97.149 E14.86590
G1 X79.782 Y97.127 E14.88235
G1 X80.117 Y97.061 E14.89938
G1 X80.449 Y96.946 E14.91691
G1 X80.754 Y96.794 E14.93391
G1 X81.035 Y96.603 E14.95086
G1 X81.290 Y96.378 E14.96783
G1 X81.513 Y96.121 E14.98480
G1 X81.700 Y95.837 E15.00177
G1 X81.849 Y95.532 E15.01870
G1 X81.957 Y95.210 E15.03565
G1 X82.021 Y94.887 E15.05208
G1 X82.043 Y94.535 E15.06967
G1 X82.019 Y94.195 E15.08668
G1 X81.951 Y93.863 E15.10358
G1 X81.840 Y93.541 E15.12058
G1 X81.688 Y93.236 E15.13758
G1 X81.497 Y92.954 E15.15457
G1 X81.270 Y92.699 E15.17160
G1 X81.015 Y92.478 E15.18844
G1 X80.731 Y92.290 E15.20543
G1 X80.424 Y92.141 E15.22245
G1 X80.106 Y92.034 E15.23919
G1 X79.782 Y91.969 E15.25568
G1 X79.429 Y91.947 E15.27333
G1 X79.088 Y91.971 E15.29038
G0 F9000 X79.143 Y92.368
;TYPE:WALL-OUTER
G1 F1800 X78.861 Y92.427 E15.30475
G1 X78.591 Y92.520 E15.31900
G1 X78.333 Y92.648 E15.33337
G1 X78.093 Y92.811 E15.34784
G1 X77.879 Y93.001 E15.36212
G1 X77.690 Y93.218 E15.37648
G1 X77.532 Y93.458 E15.39081
G1 X77.405 Y93.717 E15.40520
G1 X77.314 Y93.990 E15.41956
G1 X77.260 Y94.261 E15.43335
G1 X77.242 Y94.559 E15.44824
G1 X77.262 Y94.846 E15.46260
G1 X77.320 Y95.129 E15.47701
G1 X77.413 Y95.401 E15.49135
G1 X77.542 Y95.657 E15.50565
G1 X77.703 Y95.896 E15.52003
G1 X77.886 Y96.105 E15.53389
G1 X78.102 Y96.294 E15.54821
G1 X78.342 Y96.454 E15.56260
G1 X78.611 Y96.585 E15.57752
G1 X78.882 Y96.676 E15.59179
G1 X79.155 Y96.730 E15.60567
G1 X79.452 Y96.748 E15.62051
G1 X79.729 Y96.730 E15.63436
G1 X80.012 Y96.674 E15.64876
G1 X80.294 Y96.577 E15.66363
G1 X80.551 Y96.448 E15.67798
G1 X80.790 Y96.286 E15.69239
G1 X81.005 Y96.096 E15.70670
G1 X81.194 Y95.879 E15.72106
G1 X81.352 Y95.638 E15.73543
G1 X81.478 Y95.380 E15.74976
G1 X81.570 Y95.107 E15.76413
G1 X81.624 Y94.835 E15.77797
G1 X81.642 Y94.537 E15.79286
G1 X81.622 Y94.250 E15.80721
G1 X81.564 Y93.968 E15.82158
G1 X81.471 Y93.696 E15.83592
G1 X81.342 Y93.439 E15.85027
G1 X81.180 Y93.200 E15.86467
G1 X80.989 Y92.984 E15.87905
G1 X80.772 Y92.797 E15.89335
G1 X80.532 Y92.638 E15.90771
G1 X80.273 Y92.512 E15.92208
G1 X80.002 Y92.421 E15.93634
G1 X79.729 Y92.366 E15.95023
G1 X79.431 Y92.348 E15.96513
G1 X79.143 Y92.368 E15.97953
G0 F9000 X79.120 Y92.069
G0 X76.177 Y93.112
G0 X76.009 Y92.920
G1 F1800 X78.013 Y88.618 E16.21630
G1 X78.056 Y88.529 E16.22124
G1 X78.056 Y80.496 E16.62200
G1 X78.591 Y80.883 E16.65495
G1 X79.464 Y81.480 E16.70771
G1 X80.354 Y82.051 E16.76047
G1 X81.250 Y82.591 E16.81266
G1 X82.171 Y83.111 E16.86542
G1 X83.107 Y83.605 E16.91823
G1 X84.057 Y84.072 E16.97104
G1 X84.907 Y84.461 E17.01768
G1 X84.907 Y91.821 E17.38487
G1 X82.940 Y96.038 E17.61702
G1 X82.722 Y96.467 E17.64102
G1 X82.528 Y96.765 E17.65876
G1 X82.312 Y97.038 E17.67613
G1 X81.814 Y97.518 E17.71064
G1 X81.527 Y97.724 E17.72826
G1 X80.907 Y98.053 E17.76328
G1 X80.232 Y98.265 E17.79858
G1 X79.528 Y98.347 E17.83394
G1 X79.185 Y98.339 E17.85106
G1 X78.835 Y98.299 E17.86863
G1 X78.154 Y98.124 E17.90371
G1 X77.833 Y97.991 E17.92105
G1 X77.518 Y97.824 E17.93883
G1 X77.228 Y97.637 E17.95605
G1 X76.954 Y97.420 E17.97349
G1 X76.467 Y96.912 E18.00859
G1 X76.264 Y96.631 E18.02589
G1 X75.933 Y96.007 E18.06113
G1 X75.816 Y95.681 E18.07841
G1 X75.669 Y94.986 E18.11385
G1 X75.643 Y94.647 E18.13081
G1 X75.652 Y94.289 E18.14868
G1 X75.692 Y93.939 E18.16625
G1 X75.767 Y93.586 E18.18426
G1 X75.863 Y93.272 E18.20064
G1 X76.009 Y92.920 E18.21965
G0 F9000 X76.495 Y93.183
;TYPE:SKIN
G1 F1800 X76.973 Y93.378 E18.24695
G1 X76.763 Y92.602 E18.27443
G1 X77.429 Y92.702 E18.30542
G1 X77.032 Y92.022 E18.34471
G0 F9000 X77.211 Y91.636
G1 F1800 X77.877 Y92.302 E18.39170
G0 F9000 X78.234 Y92.093
G1 F1800 X77.390 Y91.250 E18.45121
G0 F9000 X77.569 Y90.863
G1 F1800 X78.637 Y91.930 E18.52653
G0 F9000 X79.100 Y91.828
G1 F1800 X77.748 Y90.476 E18.62192
G0 F9000 X77.927 Y90.089
G1 F1800 X79.657 Y91.819 E18.74398
G0 F9000 X80.381 Y91.978
G1 F1800 X78.107 Y89.703 E18.90446
G0 F9000 X78.285 Y89.316
G1 F1800 X83.191 Y94.221 E19.25057
G0 F9000 X83.370 Y93.835
G1 F1800 X78.462 Y88.927 E19.59685
G0 F9000 X78.596 Y88.495
G1 F1800 X83.551 Y93.450 E19.94645
G0 F9000 X83.730 Y93.064
G1 F1800 X78.596 Y87.930 E20.30869
G0 F9000 X78.596 Y87.364
G1 F1800 X83.910 Y92.679 E20.68365
G0 F9000 X84.090 Y92.292
G1 F1800 X78.596 Y86.798 E21.07128
G0 F9000 X78.596 Y86.233
G1 F1800 X84.270 Y91.907 E21.47162
G0 F9000 X84.367 Y91.438
G1 F1800 X78.596 Y85.667 E21.87879
G0 F9000 X78.596 Y85.101
G1 F1800 X84.367 Y90.872 E22.28597
G0 F9000 X84.367 Y90.306
G1 F1800 X78.596 Y84.536 E22.69311
G0 F9000 X78.596 Y83.970
G1 F1800 X84.367 Y89.741 E23.10028
G0 F9000 X84.367 Y89.175
G1 F1800 X78.596 Y83.404 E23.50746
G0 F9000 X78.596 Y82.838
G1 F1800 X84.367 Y88.609 E23.91463
G0 F9000 X84.367 Y88.043
G1 F1800 X78.596 Y82.273 E24.32177
G0 F9000 X78.596 Y81.707
G1 F1800 X84.367 Y87.478 E24.72895
G0 F9000 X84.367 Y86.912
G1 F1800 X79.777 Y82.322 E25.05280
G0 F9000 X78.374 Y88.790
G0 X76.337 Y93.590
G1 F1800 X76.731 Y94.267 E25.08250
G1 X76.222 Y94.041 E25.11028
G0 F9000 X76.185 Y94.569
G1 F1800 X76.775 Y95.160 E25.15194
G0 F9000 X76.270 Y95.221
G1 F1800 X77.273 Y96.223 E25.22268
G0 F9000 X76.604 Y96.120
G1 F1800 X77.884 Y97.401 E25.31302
G0 F9000 X77.773 Y96.724
G1 F1800 X78.775 Y97.726 E25.38372
G0 F9000 X78.830 Y97.215
G1 F1800 X79.418 Y97.803 E25.42520
G0 F9000 X79.468 Y97.287
G1 F1800 X80.168 Y97.705 E25.45876
G1 X80.197 Y97.167 E25.48813
G1 X80.990 Y97.395 E25.51550
G1 X80.971 Y96.810 E25.54171
G1 X81.651 Y96.924 E25.56760
G1 X81.559 Y96.267 E25.59308
G1 X82.170 Y96.313 E25.61945
G1 X81.975 Y95.552 E25.64669
G1 X82.561 Y95.571 E25.67594
G1 X82.160 Y94.888 E25.71545
G0 F9000 X82.168 Y94.330
G1 F1800 X82.831 Y94.993 E25.76223
G0 F9000 X83.010 Y94.607
G1 F1800 X82.010 Y93.607 E25.83279
G0 F9000 X84.367 Y86.346
G1 F1800 X81.205 Y83.185 E26.05585
G0 F9000 X82.459 Y83.874
G1 F1800 X84.367 Y85.781 E26.19043
G0 F9000 X84.367 Y85.215
G1 F1800 X83.599 Y84.448 E26.24458
G1 F2400 E22.24458
G0 F9000 X98.110 Y111.993
;TYPE:WALL-INNER
G1 F2400 E26.24458
G1 F1800 X98.725 Y111.718 E26.27819
G1 X99.402 Y111.551 E26.31298
G1 X99.744 Y111.513 E26.33015
G1 X100.084 Y111.505 E26.34712
G1 X100.775 Y111.581 E26.38180
G1 X101.111 Y111.665 E26.39908
G1 X101.440 Y111.779 E26.41645
G1 X101.751 Y111.918 E26.43344
G1 X102.051 Y112.087 E26.45062
G1 X102.331 Y112.277 E26.46750
G1 X102.848 Y112.740 E26.50213
G1 X103.076 Y113.009 E26.51972
G1 X103.267 Y113.275 E26.53606
G1 X103.594 Y113.894 E26.57098
G1 X103.711 Y114.209 E26.58775
G1 X103.863 Y114.892 E26.62266
G1 X103.895 Y115.243 E26.64024
G1 X103.896 Y115.554 E26.65576
G1 X103.802 Y116.268 E26.69169
G1 X103.593 Y116.917 E26.72570
G1 X103.441 Y117.237 E26.74338
G1 X103.269 Y117.529 E26.76028
G1 X103.069 Y117.808 E26.77741
G1 X102.850 Y118.064 E26.79422
G1 X102.332 Y118.528 E26.82891
G1 X102.053 Y118.717 E26.84573
G1 X101.428 Y119.029 E26.88058
G1 X101.099 Y119.144 E26.89796
G1 X100.773 Y119.224 E26.91471
G1 X100.074 Y119.301 E26.94980
G1 X99.732 Y119.294 E26.96686
G1 X99.396 Y119.255 E26.98374
G1 X99.051 Y119.185 E27.00130
G1 X98.726 Y119.088 E27.01822
G1 X98.101 Y118.808 E27.05239
G1 X97.797 Y118.621 E27.07019
G1 X97.270 Y118.187 E27.10426
G1 X97.032 Y117.933 E27.12162
G1 X96.824 Y117.665 E27.13855
G1 X96.635 Y117.373 E27.15590
G1 X96.473 Y117.066 E27.17322
G1 X96.341 Y116.749 E27.19035
G1 X96.237 Y116.422 E27.20747
G1 X96.160 Y116.080 E27.22496
G1 X96.115 Y115.734 E27.24236
G1 X96.100 Y115.396 E27.25924
G1 X96.115 Y115.051 E27.27647
G1 X96.161 Y114.713 E27.29349
G1 X96.238 Y114.376 E27.31074
G1 X96.343 Y114.047 E27.32797
G1 X96.477 Y113.730 E27.34514
G1 X96.643 Y113.419 E27.36272
G1 X96.830 Y113.130 E27.37990
G1 X97.038 Y112.867 E27.39663
G1 X97.278 Y112.611 E27.41413
G1 X97.533 Y112.384 E27.43117
G1 X97.813 Y112.175 E27.44860
G1 X98.110 Y111.993 E27.46598
G0 F9000 X98.789 Y113.215
G1 F1800 X98.518 Y113.387 E27.48199
G1 X98.252 Y113.614 E27.49944
G1 X98.028 Y113.864 E27.51618
G1 X97.841 Y114.142 E27.53290
G1 X97.693 Y114.439 E27.54945
G1 X97.585 Y114.754 E27.56607
G1 X97.521 Y115.069 E27.58210
G1 X97.499 Y115.403 E27.59880
G1 X97.521 Y115.736 E27.61545
G1 X97.587 Y116.064 E27.63214
G1 X97.698 Y116.380 E27.64885
G1 X97.847 Y116.677 E27.66543
G1 X98.037 Y116.954 E27.68219
G1 X98.262 Y117.202 E27.69890
G1 X98.519 Y117.419 E27.71568
G1 X98.801 Y117.597 E27.73231
G1 X99.103 Y117.737 E27.74892
G1 X99.422 Y117.836 E27.76558
G1 X99.752 Y117.891 E27.78228
G1 X100.086 Y117.903 E27.79895
G1 X100.420 Y117.869 E27.81570
G1 X100.745 Y117.791 E27.83237
G1 X101.058 Y117.670 E27.84912
G1 X101.349 Y117.508 E27.86573
G1 X101.618 Y117.311 E27.88237
G1 X101.860 Y117.075 E27.89923
G1 X102.064 Y116.813 E27.91580
G1 X102.235 Y116.526 E27.93246
G1 X102.365 Y116.215 E27.94928
G1 X102.451 Y115.895 E27.96581
G1 X102.496 Y115.567 E27.98233
G1 X102.497 Y115.243 E27.99849
G1 X102.450 Y114.896 E28.01596
G1 X102.360 Y114.575 E28.03260
G1 X102.228 Y114.266 E28.04936
G1 X102.056 Y113.981 E28.06597
G1 X101.848 Y113.718 E28.08270
G1 X101.606 Y113.487 E28.09939
G1 X101.339 Y113.291 E28.11591
G1 X101.044 Y113.130 E28.13268
G1 X100.730 Y113.011 E28.14943
G1 X100.405 Y112.935 E28.16608
G1 X100.073 Y112.903 E28.18272
G1 X99.738 Y112.915 E28.19945
G1 X99.407 Y112.973 E28.21621
G1 X99.089 Y113.073 E28.23284
G1 X98.789 Y113.215 E28.24940
G0 F9000 X98.982 Y113.566
;TYPE:WALL-OUTER
G1 F1800 X98.756 Y113.710 E28.26277
G1 X98.532 Y113.901 E28.27746
G1 X98.345 Y114.110 E28.29145
G1 X98.188 Y114.343 E28.30547
G1 X98.063 Y114.594 E28.31946
G1 X97.972 Y114.859 E28.33344
G1 X97.918 Y115.122 E28.34683
G1 X97.900 Y115.403 E28.36088
G1 X97.918 Y115.683 E28.37488
