;Generated with Cura_SteamEngine 15.01
; Default start code
G28 ; Home extruder
G1 Z15 F100
M107 ; Turn off fan
G90 ; Absolute positioning
M82 ; Extruder in absolute mode
M190 S60
; Activate all used extruder
M104 T0 S220
G92 E0 ; Reset extruder position
; Wait for all used extruders to reach temperature
M109 T0 S220
;Layer count: 80
;LAYER:0
M107
G0 F9000 X85.834 Y83.202 Z0.300
G0 X84.709 Y84.726
;TYPE:SKIRT
G1 F1800 X85.834 Y83.202 E0.09450
G1 X88.557 Y83.200 E0.23036
G1 X89.806 Y83.203 E0.29267
G1 X91.382 Y83.202 E0.37130
G1 X92.350 Y83.203 E0.41959
G1 X93.932 Y83.202 E0.49852
G1 X94.901 Y83.203 E0.54686
G1 X96.482 Y83.202 E0.62574
G1 X97.450 Y83.203 E0.67403
G1 X99.032 Y83.202 E0.75296
G1 X100.001 Y83.203 E0.80130
G1 X101.582 Y83.202 E0.88018
G1 X102.551 Y83.203 E0.92852
G1 X104.132 Y83.202 E1.00740
G1 X105.100 Y83.203 E1.05569
G1 X106.682 Y83.202 E1.13462
G1 X107.651 Y83.203 E1.18296
G1 X109.232 Y83.202 E1.26184
G1 X110.197 Y83.203 E1.30998
G1 X111.440 Y83.201 E1.37199
G1 X114.414 Y83.198 E1.52037
G1 X115.632 Y85.350 E1.64373
G1 X115.853 Y86.079 E1.68174
G1 X115.945 Y86.645 E1.71035
G1 X115.951 Y117.200 E3.23474
G1 X107.050 Y117.200 E3.67882
G1 X107.050 Y92.200 E4.92607
G1 X106.250 Y92.200 E4.96598
G1 X106.250 Y95.200 E5.11565
G1 X93.350 Y95.200 E5.75924
G1 X93.350 Y92.200 E5.90891
G1 X92.950 Y92.200 E5.92886
G1 X92.950 Y117.200 E7.17612
G1 X84.050 Y117.200 E7.62014
G1 X84.050 Y87.004 E9.12663
G1 X84.068 Y86.440 E9.15478
G1 X84.325 Y85.440 E9.20629
G1 X84.709 Y84.726 E9.24674
G1 F2400 E5.24674
G0 F9000 X87.850 Y87.073
;TYPE:WALL-INNER
G1 F2400 E9.24674
G1 F1800 X87.852 Y87.001 E9.25033
G1 X88.555 Y87.000 E9.28540
G1 X89.799 Y87.003 E9.34747
G1 X112.145 Y87.000 E10.46231
G1 X112.150 Y113.400 E11.77941
G1 X110.850 Y113.400 E11.84427
G1 X110.850 Y88.400 E13.09153
G1 X89.150 Y88.400 E14.17414
G1 X89.150 Y113.400 E15.42140
G1 X87.850 Y113.400 E15.48626
G1 X87.850 Y87.073 E16.79972
G0 F9000 X87.450 Y87.060
;TYPE:WALL-OUTER
G1 F1800 X87.454 Y86.924 E16.80650
G1 X87.515 Y86.686 E16.81876
G1 X87.561 Y86.601 E16.82358
G1 X112.432 Y86.600 E18.06440
G1 X112.489 Y86.701 E18.07019
G1 X112.545 Y86.915 E18.08122
G1 X112.550 Y113.800 E19.42252
G1 X110.450 Y113.800 E19.52729
G1 X110.450 Y88.800 E20.77455
G1 X89.550 Y88.800 E21.81725
G1 X89.550 Y113.800 E23.06451
G1 X87.450 Y113.800 E23.16928
G1 X87.450 Y87.060 E24.50334
G0 F9000 X87.989 Y87.141
;TYPE:SKIN
G1 F1800 X89.108 Y88.259 E24.58226
G0 F9000 X89.009 Y88.727
G1 F1800 X87.989 Y87.706 E24.65426
G0 F9000 X87.989 Y88.272
G1 F1800 X89.009 Y89.292 E24.72623
G0 F9000 X89.009 Y89.858
G1 F1800 X87.989 Y88.838 E24.79819
G0 F9000 X87.989 Y89.403
G1 F1800 X89.009 Y90.424 E24.87019
G0 F9000 X89.009 Y90.989
G1 F1800 X87.989 Y89.969 E24.94216
G0 F9000 X87.989 Y90.535
G1 F1800 X89.009 Y91.555 E25.01413
G0 F9000 X89.009 Y92.121
G1 F1800 X87.989 Y91.100 E25.08613
G0 F9000 X87.989 Y91.666
G1 F1800 X89.009 Y92.686 E25.15809
G0 F9000 X89.009 Y93.252
G1 F1800 X87.989 Y92.232 E25.23006
G0 F9000 X87.989 Y92.797
G1 F1800 X89.009 Y93.818 E25.30206
G0 F9000 X89.009 Y94.383
G1 F1800 X87.989 Y93.363 E25.37403
G0 F9000 X87.989 Y93.929
G1 F1800 X89.009 Y94.949 E25.44600
G0 F9000 X89.009 Y95.515
G1 F1800 X87.989 Y94.494 E25.51800
G0 F9000 X87.989 Y95.060
G1 F1800 X89.009 Y96.080 E25.58996
G0 F9000 X89.009 Y96.646
G1 F1800 X87.989 Y95.626 E25.66193
G0 F9000 X87.989 Y96.191
G1 F1800 X89.009 Y97.212 E25.73393
G0 F9000 X89.009 Y97.778
G1 F1800 X87.989 Y96.757 E25.80593
G0 F9000 X87.989 Y97.323
G1 F1800 X89.009 Y98.343 E25.87790
G0 F9000 X89.009 Y98.909
G1 F1800 X87.989 Y97.889 E25.94987
G0 F9000 X87.989 Y98.454
G1 F1800 X89.009 Y99.475 E26.02187
G0 F9000 X89.009 Y100.040
G1 F1800 X87.989 Y99.020 E26.09384
G0 F9000 X87.989 Y99.586
G1 F1800 X89.009 Y100.606 E26.16580
G0 F9000 X89.009 Y101.172
G1 F1800 X87.989 Y100.151 E26.23780
G0 F9000 X87.989 Y100.717
G1 F1800 X89.009 Y101.737 E26.30977
G0 F9000 X89.009 Y102.303
G1 F1800 X87.989 Y101.283 E26.38174
G0 F9000 X87.989 Y101.848
G1 F1800 X89.009 Y102.869 E26.45374
G0 F9000 X89.009 Y103.434
G1 F1800 X87.989 Y102.414 E26.52571
G0 F9000 X87.989 Y102.980
G1 F1800 X89.009 Y104.000 E26.59767
G0 F9000 X89.009 Y104.566
G1 F1800 X87.989 Y103.545 E26.66967
G0 F9000 X87.989 Y104.111
G1 F1800 X89.009 Y105.131 E26.74164
G0 F9000 X89.009 Y105.697
G1 F1800 X87.989 Y104.677 E26.81361
G0 F9000 X87.989 Y105.242
G1 F1800 X89.009 Y106.263 E26.88561
G0 F9000 X89.009 Y106.828
G1 F1800 X87.989 Y105.808 E26.95758
G0 F9000 X87.989 Y106.374
G1 F1800 X89.009 Y107.394 E27.02954
G0 F9000 X89.009 Y107.960
G1 F1800 X87.989 Y106.940 E27.10151
G0 F9000 X87.989 Y107.505
G1 F1800 X89.009 Y108.526 E27.17351
G0 F9000 X89.009 Y109.091
G1 F1800 X87.989 Y108.071 E27.24548
G0 F9000 X87.989 Y108.637
G1 F1800 X89.009 Y109.657 E27.31744
G0 F9000 X89.009 Y110.223
G1 F1800 X87.989 Y109.202 E27.38944
G0 F9000 X87.989 Y109.768
G1 F1800 X89.009 Y110.788 E27.46141
G0 F9000 X89.009 Y111.354
G1 F1800 X87.989 Y110.334 E27.53338
G0 F9000 X87.989 Y110.899
G1 F1800 X89.009 Y111.920 E27.60538
G0 F9000 X89.009 Y112.485
G1 F1800 X87.989 Y111.465 E27.67735
G0 F9000 X87.989 Y112.031
G1 F1800 X89.009 Y113.051 E27.74931
G0 F9000 X88.652 Y113.259
G1 F1800 X87.989 Y112.596 E27.79609
G0 F9000 X87.989 Y113.162
G1 F1800 X88.086 Y113.259 E27.80293
G0 F9000 X89.209 Y88.459
G0 X110.791 Y88.459
G0 X110.989 Y112.969
G1 F1800 X111.278 Y113.258 E27.82333
G0 F9000 X111.844 Y113.258
G1 F1800 X110.989 Y112.403 E27.88365
G0 F9000 X110.989 Y111.838
G1 F1800 X112.009 Y112.858 E27.95562
G0 F9000 X112.009 Y112.292
G1 F1800 X110.989 Y111.272 E28.02758
G0 F9000 X110.989 Y110.706
G1 F1800 X112.009 Y111.727 E28.09959
G0 F9000 X112.009 Y111.161
G1 F1800 X110.989 Y110.141 E28.17155
G0 F9000 X110.989 Y109.575
G1 F1800 X112.009 Y110.595 E28.24352
G0 F9000 X112.009 Y110.030
G1 F1800 X110.989 Y109.009 E28.31552
G0 F9000 X110.989 Y108.444
G1 F1800 X112.009 Y109.463 E28.38745
G0 F9000 X112.009 Y108.897
G1 F1800 X110.989 Y107.878 E28.45938
G0 F9000 X110.989 Y107.312
G1 F1800 X112.009 Y108.332 E28.53135
G0 F9000 X112.009 Y107.766
G1 F1800 X110.989 Y106.746 E28.60332
G0 F9000 X110.989 Y106.181
G1 F1800 X112.009 Y107.200 E28.67525
G0 F9000 X112.008 Y106.634
G1 F1800 X110.989 Y105.615 E28.74714
G0 F9000 X110.989 Y105.049
G1 F1800 X112.008 Y106.068 E28.81904
G0 F9000 X112.008 Y105.503
G1 F1800 X110.989 Y104.484 E28.89093
G0 F9000 X110.989 Y103.918
G1 F1800 X112.008 Y104.937 E28.96283
G0 F9000 X112.008 Y104.371
G1 F1800 X110.989 Y103.352 E29.03473
G0 F9000 X110.989 Y102.787
G1 F1800 X112.008 Y103.806 E29.10662
G0 F9000 X112.007 Y103.239
G1 F1800 X110.989 Y102.221 E29.17845
G0 F9000 X110.989 Y101.655
G1 F1800 X112.007 Y102.674 E29.25031
G0 F9000 X112.007 Y102.108
G1 F1800 X110.989 Y101.090 E29.32213
G0 F9000 X110.989 Y100.524
G1 F1800 X112.007 Y101.542 E29.39396
G0 F9000 X112.007 Y100.976
G1 F1800 X110.989 Y99.958 E29.46578
G0 F9000 X110.989 Y99.393
G1 F1800 X112.007 Y100.411 E29.53761
G0 F9000 X112.007 Y99.844
G1 F1800 X110.989 Y98.827 E29.60940
G0 F9000 X110.989 Y98.261
G1 F1800 X112.007 Y99.279 E29.68123
G0 F9000 X112.007 Y98.713
G1 F1800 X110.989 Y97.695 E29.75305
G0 F9000 X110.989 Y97.130
G1 F1800 X112.007 Y98.147 E29.82484
G0 F9000 X112.007 Y97.582
G1 F1800 X110.989 Y96.564 E29.89667
G0 F9000 X110.989 Y95.998
G1 F1800 X112.007 Y97.016 E29.96849
G0 F9000 X112.006 Y96.450
G1 F1800 X110.989 Y95.433 E30.04025
G0 F9000 X110.989 Y94.867
G1 F1800 X112.006 Y95.884 E30.11200
G0 F9000 X112.006 Y95.318
G1 F1800 X110.989 Y94.301 E30.18376
G0 F9000 X110.989 Y93.736
G1 F1800 X112.006 Y94.753 E30.25551
G0 F9000 X112.006 Y94.187
G1 F1800 X110.989 Y93.170 E30.32727
G0 F9000 X110.989 Y92.604
G1 F1800 X112.005 Y93.620 E30.39895
G0 F9000 X112.005 Y93.055
G1 F1800 X110.989 Y92.039 E30.47063
G0 F9000 X110.989 Y91.473
G1 F1800 X112.005 Y92.489 E30.54232
G0 F9000 X112.005 Y91.923
G1 F1800 X110.989 Y90.907 E30.61400
G0 F9000 X110.989 Y90.342
G1 F1800 X112.005 Y91.358 E30.68569
G0 F9000 X112.005 Y90.792
G1 F1800 X110.989 Y89.776 E30.75737
G0 F9000 X110.989 Y89.210
G1 F1800 X112.005 Y90.226 E30.82906
G0 F9000 X112.005 Y89.660
G1 F1800 X110.989 Y88.645 E30.90071
G0 F9000 X110.604 Y88.259
G1 F1800 X109.484 Y87.140 E30.97969
G0 F9000 X108.919 Y87.140
G1 F1800 X110.038 Y88.259 E31.05864
G0 F9000 X109.472 Y88.259
G1 F1800 X108.353 Y87.140 E31.13759
G0 F9000 X107.787 Y87.140
G1 F1800 X108.907 Y88.259 E31.21658
G0 F9000 X108.341 Y88.259
G1 F1800 X107.222 Y87.140 E31.29553
G0 F9000 X106.656 Y87.140
G1 F1800 X107.775 Y88.259 E31.37448
G0 F9000 X107.210 Y88.259
G1 F1800 X106.090 Y87.140 E31.45347
G0 F9000 X105.525 Y87.140
G1 F1800 X106.644 Y88.259 E31.53242
G0 F9000 X106.078 Y88.259
G1 F1800 X104.959 Y87.140 E31.61137
G0 F9000 X104.393 Y87.140
G1 F1800 X105.513 Y88.259 E31.69036
G0 F9000 X104.947 Y88.259
G1 F1800 X103.828 Y87.140 E31.76931
G0 F9000 X103.262 Y87.140
G1 F1800 X104.381 Y88.259 E31.84826
G0 F9000 X103.816 Y88.259
G1 F1800 X102.696 Y87.140 E31.92725
G0 F9000 X102.130 Y87.140
G1 F1800 X103.250 Y88.259 E32.00624
G0 F9000 X102.684 Y88.259
G1 F1800 X101.565 Y87.140 E32.08519
G0 F9000 X100.999 Y87.140
G1 F1800 X102.118 Y88.259 E32.16414
G0 F9000 X101.553 Y88.259
G1 F1800 X100.433 Y87.140 E32.24313
G0 F9000 X99.868 Y87.141
G1 F1800 X100.987 Y88.259 E32.32204
G0 F9000 X100.421 Y88.259
G1 F1800 X99.303 Y87.141 E32.40092
G0 F9000 X98.737 Y87.141
G1 F1800 X99.856 Y88.259 E32.47984
G0 F9000 X99.290 Y88.259
G1 F1800 X98.171 Y87.141 E32.55876
G0 F9000 X97.606 Y87.141
G1 F1800 X98.724 Y88.259 E32.63764
G0 F9000 X98.159 Y88.259
G1 F1800 X97.040 Y87.141 E32.71655
G0 F9000 X96.474 Y87.141
G1 F1800 X97.593 Y88.259 E32.79547
G0 F9000 X97.027 Y88.259
G1 F1800 X95.909 Y87.141 E32.87435
G0 F9000 X95.343 Y87.141
G1 F1800 X96.462 Y88.259 E32.95327
G0 F9000 X95.896 Y88.259
G1 F1800 X94.777 Y87.141 E33.03218
G0 F9000 X94.212 Y87.141
G1 F1800 X95.330 Y88.259 E33.11106
G0 F9000 X94.765 Y88.259
G1 F1800 X93.646 Y87.141 E33.18998
G0 F9000 X93.080 Y87.141
G1 F1800 X94.199 Y88.259 E33.26890
G0 F9000 X93.633 Y88.259
G1 F1800 X92.515 Y87.141 E33.34778
G0 F9000 X91.949 Y87.141
G1 F1800 X93.067 Y88.259 E33.42666
G0 F9000 X92.502 Y88.259
G1 F1800 X91.383 Y87.141 E33.50558
G0 F9000 X90.817 Y87.141
G1 F1800 X91.936 Y88.259 E33.58449
G0 F9000 X91.370 Y88.259
G1 F1800 X90.252 Y87.141 E33.66337
G0 F9000 X89.686 Y87.141
G1 F1800 X90.805 Y88.259 E33.74229
G0 F9000 X90.239 Y88.259
G1 F1800 X89.120 Y87.141 E33.82120
G0 F9000 X88.555 Y87.141
G1 F1800 X89.673 Y88.259 E33.90009
G0 F9000 X110.050 Y87.140
G1 F1800 X112.005 Y89.094 E34.03799
G0 F9000 X112.005 Y88.529
G1 F1800 X110.616 Y87.140 E34.13599
G0 F9000 X111.181 Y87.140
G1 F1800 X112.005 Y87.963 E34.19409
G0 F9000 X112.005 Y87.397
G1 F1800 X111.747 Y87.140 E34.21226
;LAYER:1
M106 S63
G0 F9000 X111.377 Y86.800 Z0.500
;TYPE:WALL-INNER
G1 F1920 X112.090 Y86.801 E34.23597
G1 X112.119 Y86.856 E34.23804
G1 X112.145 Y86.953 E34.24138
G1 X112.150 Y113.400 E35.12101
G1 X110.850 Y113.400 E35.16425
G1 X110.850 Y88.400 E35.99575
G1 X89.150 Y88.400 E36.71750
G1 X89.150 Y113.400 E37.54900
G1 X87.850 Y113.400 E37.59224
G1 X87.850 Y87.123 E38.46622
G1 X87.855 Y86.953 E38.47187
G1 X87.867 Y86.896 E38.47381
G1 X87.913 Y86.801 E38.47732
G1 X110.200 Y86.802 E39.21859
G1 X111.377 Y86.800 E39.25774
G0 F9000 X112.532 Y86.841
;TYPE:WALL-OUTER
G1 F1740 X112.545 Y86.921 E39.26043
G1 X112.550 Y113.800 E40.15443
G1 X110.450 Y113.800 E40.22428
G1 X110.450 Y88.800 E41.05578
G1 X89.550 Y88.800 E41.75092
G1 X89.550 Y113.800 E42.58242
G1 X87.450 Y113.800 E42.65227
G1 X87.450 Y87.112 E43.53991
G1 X87.455 Y86.909 E43.54667
G1 X87.486 Y86.766 E43.55153
G1 X87.591 Y86.547 E43.55961
G1 X87.627 Y86.497 E43.56166
G1 X87.724 Y86.401 E43.56620
G1 X112.272 Y86.401 E44.38267
G1 X112.414 Y86.558 E44.38971
G1 X112.490 Y86.701 E44.39510
G1 X112.532 Y86.841 E44.39996
G0 F9000 X111.896 Y86.941
;TYPE:SKIN
G1 F1740 X110.578 Y88.260 E44.46198
G0 F9000 X110.989 Y88.414
G1 F1740 X112.004 Y87.399 E44.50972
G0 F9000 X112.004 Y87.965
G1 F1740 X110.989 Y88.980 E44.55746
G0 F9000 X110.989 Y89.545
G1 F1740 X112.004 Y88.531 E44.60518
G0 F9000 X112.004 Y89.096
G1 F1740 X110.989 Y90.111 E44.65292
G0 F9000 X110.989 Y90.677
G1 F1740 X112.004 Y89.662 E44.70067
G0 F9000 X112.004 Y90.228
G1 F1740 X110.989 Y91.242 E44.74839
G0 F9000 X110.989 Y91.808
G1 F1740 X112.005 Y90.793 E44.79615
G0 F9000 X112.005 Y91.358
G1 F1740 X110.989 Y92.374 E44.84394
G0 F9000 X110.989 Y92.939
G1 F1740 X112.005 Y91.924 E44.89171
G0 F9000 X112.005 Y92.490
G1 F1740 X110.989 Y93.505 E44.93947
G0 F9000 X110.989 Y94.071
G1 F1740 X112.005 Y93.055 E44.98726
G0 F9000 X112.005 Y93.620
G1 F1740 X110.989 Y94.637 E45.03508
G0 F9000 X110.989 Y95.202
G1 F1740 X112.005 Y94.186 E45.08287
G0 F9000 X112.005 Y94.752
G1 F1740 X110.989 Y95.768 E45.13065
G0 F9000 X110.989 Y96.334
G1 F1740 X112.005 Y95.317 E45.17847
G0 F9000 X112.005 Y95.883
G1 F1740 X110.989 Y96.899 E45.22626
G0 F9000 X110.989 Y97.465
G1 F1740 X112.005 Y96.449 E45.27405
G0 F9000 X112.006 Y97.014
G1 F1740 X110.989 Y98.031 E45.32188
G0 F9000 X110.989 Y98.596
G1 F1740 X112.006 Y97.580 E45.36970
G0 F9000 X112.006 Y98.145
G1 F1740 X110.989 Y99.162 E45.41753
G0 F9000 X110.989 Y99.728
G1 F1740 X112.006 Y98.711 E45.46537
G0 F9000 X112.006 Y99.277
G1 F1740 X110.989 Y100.293 E45.51318
G0 F9000 X110.989 Y100.859
G1 F1740 X112.006 Y99.842 E45.56102
G0 F9000 X110.791 Y88.459
G0 X110.012 Y88.260
G1 F1740 X111.331 Y86.941 E45.62306
G0 F9000 X110.765 Y86.941
G1 F1740 X109.446 Y88.260 E45.68510
G0 F9000 X108.881 Y88.260
G1 F1740 X110.199 Y86.941 E45.74712
G0 F9000 X109.634 Y86.941
G1 F1740 X108.315 Y88.260 E45.80916
G0 F9000 X107.749 Y88.260
G1 F1740 X109.068 Y86.941 E45.87120
G0 F9000 X108.502 Y86.941
G1 F1740 X107.183 Y88.260 E45.93325
G0 F9000 X106.618 Y88.260
G1 F1740 X107.937 Y86.941 E45.99529
G0 F9000 X107.371 Y86.941
G1 F1740 X106.052 Y88.260 E46.05733
G0 F9000 X105.486 Y88.260
G1 F1740 X106.805 Y86.941 E46.11937
G0 F9000 X106.239 Y86.941
G1 F1740 X104.921 Y88.260 E46.18139
G0 F9000 X104.355 Y88.260
G1 F1740 X105.674 Y86.941 E46.24343
G0 F9000 X105.108 Y86.941
G1 F1740 X103.789 Y88.260 E46.30547
G0 F9000 X103.224 Y88.260
G1 F1740 X104.542 Y86.941 E46.36749
G0 F9000 X103.977 Y86.941
G1 F1740 X102.658 Y88.260 E46.42953
G0 F9000 X102.092 Y88.260
G1 F1740 X103.411 Y86.941 E46.49157
G0 F9000 X102.845 Y86.941
G1 F1740 X101.527 Y88.260 E46.55359
G0 F9000 X100.961 Y88.260
G1 F1740 X102.280 Y86.941 E46.61563
G0 F9000 X101.714 Y86.941
G1 F1740 X100.395 Y88.260 E46.67768
G0 F9000 X99.830 Y88.260
G1 F1740 X101.148 Y86.941 E46.73969
G0 F9000 X100.583 Y86.941
G1 F1740 X99.264 Y88.260 E46.80174
G0 F9000 X98.698 Y88.260
G1 F1740 X100.017 Y86.941 E46.86378
G0 F9000 X99.451 Y86.941
G1 F1740 X98.132 Y88.260 E46.92582
G0 F9000 X97.567 Y88.260
G1 F1740 X98.886 Y86.941 E46.98786
G0 F9000 X98.320 Y86.941
G1 F1740 X97.001 Y88.260 E47.04990
G0 F9000 X96.435 Y88.260
G1 F1740 X97.754 Y86.941 E47.11194
G0 F9000 X97.188 Y86.941
G1 F1740 X95.870 Y88.260 E47.17396
G0 F9000 X95.304 Y88.260
G1 F1740 X96.623 Y86.941 E47.23600
G0 F9000 X96.057 Y86.941
G1 F1740 X94.738 Y88.260 E47.29805
G0 F9000 X94.173 Y88.260
G1 F1740 X95.491 Y86.941 E47.36006
G0 F9000 X94.926 Y86.941
G1 F1740 X93.607 Y88.260 E47.42211
G0 F9000 X93.041 Y88.260
G1 F1740 X94.360 Y86.941 E47.48415
G0 F9000 X93.794 Y86.941
G1 F1740 X92.476 Y88.260 E47.54617
G0 F9000 X91.910 Y88.260
G1 F1740 X93.229 Y86.941 E47.60821
G0 F9000 X92.663 Y86.941
G1 F1740 X91.344 Y88.260 E47.67025
G0 F9000 X90.779 Y88.260
G1 F1740 X92.097 Y86.941 E47.73227
G0 F9000 X91.532 Y86.941
G1 F1740 X90.213 Y88.260 E47.79431
G0 F9000 X89.647 Y88.260
G1 F1740 X90.966 Y86.941 E47.85635
G0 F9000 X90.400 Y86.941
G1 F1740 X89.082 Y88.260 E47.91837
G0 F9000 X89.009 Y88.333
G1 F1740 X87.990 Y89.352 E47.96630
G0 F9000 X87.990 Y89.917
G1 F1740 X89.009 Y88.898 E48.01423
G0 F9000 X89.009 Y89.464
G1 F1740 X87.990 Y90.483 E48.06216
G0 F9000 X87.990 Y91.049
G1 F1740 X89.009 Y90.030 E48.11009
G0 F9000 X89.009 Y90.595
G1 F1740 X87.990 Y91.614 E48.15802
G0 F9000 X87.990 Y92.180
G1 F1740 X89.009 Y91.161 E48.20595
G0 F9000 X89.009 Y91.727
G1 F1740 X87.990 Y92.746 E48.25388
G0 F9000 X87.990 Y93.311
