;Generated with Cura_SteamEngine 15.01
; Default start code
G28 ; Home extruder
G1 Z15 F100
M107 ; Turn off fan
G90 ; Absolute positioning
M82 ; Extruder in absolute mode
M190 S60
; Activate all used extruder
M104 T0 S225
G92 E0 ; Reset extruder position
; Wait for all used extruders to reach temperature
M109 T0 S225
;Layer count: 175
;LAYER:0
M107
G0 F9000 X64.427 Y74.206 Z0.300
G0 X64.427 Y75.205
;TYPE:SKIRT
G1 F1800 X64.427 Y74.206 E0.04984
G1 X66.419 Y73.211 E0.16093
G1 X66.622 Y73.008 E0.17525
G1 X67.019 Y72.810 E0.19739
G1 X67.914 Y71.917 E0.26046
G1 X73.350 Y71.917 E0.53167
G1 X74.323 Y72.405 E0.58597
G1 X75.532 Y72.808 E0.64955
G1 X76.738 Y74.013 E0.73461
G1 X77.135 Y74.211 E0.75674
G1 X78.538 Y75.612 E0.85566
G1 X78.936 Y75.811 E0.87786
G1 X81.056 Y77.932 E1.02747
G1 X81.056 Y78.449 E1.05326
G1 X81.320 Y78.629 E1.06921
G1 X82.160 Y79.170 E1.11905
G1 X82.280 Y79.242 E1.12603
G1 X88.126 Y81.206 E1.43371
G1 X88.527 Y81.406 E1.45607
G1 X89.119 Y81.603 E1.48720
G1 X89.248 Y81.668 E1.49440
G1 X90.168 Y81.821 E1.54093
G1 X91.326 Y82.207 E1.60183
G1 X91.447 Y82.267 E1.60857
G1 X92.368 Y82.421 E1.65515
G1 X93.526 Y82.807 E1.71605
G1 X93.646 Y82.867 E1.72275
G1 X94.118 Y82.945 E1.74661
G1 X96.206 Y83.136 E1.85122
G1 X97.867 Y83.319 E1.93459
G1 X103.216 Y83.382 E2.20147
G1 X104.381 Y83.149 E2.26074
G1 X106.493 Y82.973 E2.36648
G1 X107.105 Y82.667 E2.40061
G1 X108.586 Y82.420 E2.47552
G1 X108.633 Y82.404 E2.47800
G1 X109.247 Y82.097 E2.51225
G1 X110.531 Y81.839 E2.57758
G1 X111.824 Y81.407 E2.64560
G1 X118.092 Y78.272 E2.99524
G1 X118.092 Y79.008 E3.03196
G1 X118.646 Y78.652 E3.06482
G1 X118.932 Y78.457 E3.08209
G1 X118.931 Y77.891 E3.11032
G1 X121.022 Y75.809 E3.25754
G1 X121.819 Y75.410 E3.30200
G1 X122.421 Y74.811 E3.34437
G1 X122.817 Y74.612 E3.36648
G1 X124.619 Y72.811 E3.49359
G1 X126.407 Y71.917 E3.59332
G1 X131.343 Y71.917 E3.83958
G1 X133.130 Y72.806 E3.93916
G1 X133.335 Y73.011 E3.95362
G1 X135.527 Y74.106 E4.07587
G1 X135.527 Y75.202 E4.13055
G1 X135.727 Y75.402 E4.14466
G1 X135.727 Y75.602 E4.15463
G1 X135.927 Y75.802 E4.16875
G1 X135.927 Y76.002 E4.17872
G1 X136.127 Y76.202 E4.19283
G1 X136.127 Y81.632 E4.46374
G1 X135.927 Y81.832 E4.47785
G1 X135.927 Y83.028 E4.53752
G1 X134.334 Y83.824 E4.62636
G1 X131.134 Y87.024 E4.85214
G1 X130.738 Y87.222 E4.87423
G1 X130.537 Y87.423 E4.88841
G1 X129.737 Y87.823 E4.93303
G1 X128.734 Y88.824 E5.00373
G1 X127.939 Y89.221 E5.04806
G1 X127.536 Y89.624 E5.07650
G1 X127.134 Y89.825 E5.09892
G1 X126.933 Y90.025 E5.11307
G1 X126.494 Y90.244 E5.13754
G1 X127.063 Y91.463 E5.20466
G1 X127.337 Y92.114 E5.23990
G1 X127.535 Y92.764 E5.27380
G1 X127.671 Y93.417 E5.30707
G1 X127.744 Y94.069 E5.33980
G1 X127.760 Y94.724 E5.37249
G1 X127.709 Y95.409 E5.40676
G1 X127.599 Y96.067 E5.44005
G1 X127.429 Y96.705 E5.47299
G1 X127.203 Y97.330 E5.50614
G1 X126.913 Y97.939 E5.53980
G1 X126.574 Y98.509 E5.57288
G1 X126.143 Y99.103 E5.60950
G1 X125.331 Y99.948 E5.66796
G1 X124.739 Y100.413 E5.70552
G1 X124.183 Y100.772 E5.73854
G1 X123.590 Y101.083 E5.77194
G1 X122.904 Y101.362 E5.80889
G1 X121.771 Y101.653 E5.86725
G1 X121.033 Y101.735 E5.90430
G1 X120.379 Y101.751 E5.93694
G1 X119.691 Y101.700 E5.97135
G1 X119.527 Y101.672 E5.97965
G1 X119.527 Y110.416 E6.41589
G1 X111.927 Y110.616 E6.79519
G1 X111.927 Y128.117 E7.66832
G1 X87.827 Y128.117 E8.87067
G1 X87.827 Y110.616 E9.74380
G1 X80.227 Y110.416 E10.12310
G1 X80.227 Y101.707 E10.55759
G1 X79.615 Y101.749 E10.58820
G1 X78.951 Y101.735 E10.62133
G1 X78.285 Y101.659 E10.65477
G1 X77.636 Y101.521 E10.68788
G1 X77.006 Y101.328 E10.72075
G1 X76.381 Y101.070 E10.75448
G1 X75.797 Y100.760 E10.78747
G1 X75.249 Y100.406 E10.82002
G1 X74.659 Y99.941 E10.85750
G1 X73.851 Y99.096 E10.91582
G1 X73.369 Y98.430 E10.95684
G1 X72.817 Y97.388 E11.01567
G1 X72.537 Y96.609 E11.05697
G1 X72.296 Y95.473 E11.11491
G1 X72.240 Y94.721 E11.15253
G1 X72.256 Y94.051 E11.18596
G1 X72.332 Y93.388 E11.21926
G1 X72.471 Y92.740 E11.25232
G1 X72.666 Y92.102 E11.28560
G1 X72.936 Y91.463 E11.32021
G1 X73.547 Y90.153 E11.39233
G1 X73.417 Y90.023 E11.40150
G1 X72.618 Y89.624 E11.44606
G1 X72.416 Y89.422 E11.46031
G1 X71.620 Y89.024 E11.50471
G1 X71.215 Y88.621 E11.53321
G1 X70.821 Y88.423 E11.55521
G1 X70.221 Y87.825 E11.59748
G1 X69.818 Y87.624 E11.61994
G1 X69.416 Y87.222 E11.64831
G1 X69.020 Y87.024 E11.67039
G1 X66.818 Y84.823 E11.82572
G1 X64.227 Y83.528 E11.97023
G1 X64.227 Y82.429 E12.02506
G1 X63.827 Y82.028 E12.05332
G1 X63.827 Y76.002 E12.35396
G1 X64.027 Y75.802 E12.36807
G1 X64.027 Y75.606 E12.37785
G1 X64.427 Y75.205 E12.40611
G1 F2400 E8.40611
G0 F9000 X78.456 Y81.276
;TYPE:WALL-INNER
G1 F2400 E12.40611
G1 F1800 X79.237 Y81.808 E12.45325
G1 X80.136 Y82.386 E12.50657
G1 X81.051 Y82.938 E12.55989
G1 X81.975 Y83.460 E12.61283
G1 X82.923 Y83.960 E12.66630
G1 X83.885 Y84.433 E12.71979
G1 X84.507 Y84.717 E12.75390
G1 X84.507 Y91.731 E13.10383
G1 X82.574 Y95.875 E13.33196
G1 X82.371 Y96.273 E13.35425
G1 X82.209 Y96.523 E13.36911
G1 X82.007 Y96.779 E13.38538
G1 X81.564 Y97.204 E13.41601
G1 X81.309 Y97.388 E13.43170
G1 X80.756 Y97.681 E13.46292
G1 X80.140 Y97.874 E13.49513
G1 X79.840 Y97.924 E13.51030
G1 X79.519 Y97.946 E13.52635
G1 X79.206 Y97.940 E13.54197
G1 X78.901 Y97.905 E13.55729
G1 X78.289 Y97.746 E13.58883
G1 X77.726 Y97.482 E13.61986
G1 X77.462 Y97.312 E13.63552
G1 X77.225 Y97.124 E13.65061
G1 X76.775 Y96.654 E13.68308
G1 X76.602 Y96.415 E13.69780
G1 X76.303 Y95.851 E13.72964
G1 X76.200 Y95.566 E13.74476
G1 X76.066 Y94.932 E13.77709
G1 X76.044 Y94.633 E13.79205
G1 X76.051 Y94.310 E13.80817
G1 X76.086 Y94.005 E13.82348
G1 X76.244 Y93.397 E13.85482
G1 X78.456 Y88.617 E14.11760
G1 X78.456 Y81.276 E14.48384
G0 F9000 X79.200 Y92.510
G1 F1800 X78.891 Y92.571 E14.49955
G1 X78.597 Y92.679 E14.51518
G1 X78.321 Y92.829 E14.53085
G1 X78.071 Y93.022 E14.54661
G1 X77.856 Y93.247 E14.56214
G1 X77.675 Y93.505 E14.57786
G1 X77.537 Y93.788 E14.59357
G1 X77.444 Y94.086 E14.60914
G1 X77.396 Y94.393 E14.62464
G1 X77.395 Y94.699 E14.63991
G1 X77.445 Y95.021 E14.65617
G1 X77.540 Y95.320 E14.67182
G1 X77.681 Y95.601 E14.68750
G1 X77.863 Y95.858 E14.70322
G1 X78.081 Y96.085 E14.71892
G1 X78.332 Y96.274 E14.73459
G1 X78.607 Y96.422 E14.75017
G1 X78.903 Y96.529 E14.76588
G1 X79.212 Y96.587 E14.78156
G1 X79.525 Y96.598 E14.79719
G1 X79.837 Y96.562 E14.81286
G1 X80.141 Y96.478 E14.82859
G1 X80.428 Y96.347 E14.84433
G1 X80.690 Y96.177 E14.85991
G1 X80.923 Y95.968 E14.87553
G1 X81.124 Y95.724 E14.89130
G1 X81.282 Y95.453 E14.90695
G1 X81.399 Y95.163 E14.92255
G1 X81.470 Y94.857 E14.93822
G1 X81.494 Y94.544 E14.95388
G1 X81.470 Y94.229 E14.96965
G1 X81.396 Y93.922 E14.98540
G1 X81.278 Y93.633 E15.00097
G1 X81.117 Y93.363 E15.01666
G1 X80.915 Y93.121 E15.03238
G1 X80.681 Y92.913 E15.04800
G1 X80.415 Y92.743 E15.06375
G1 X80.130 Y92.616 E15.07932
G1 X79.828 Y92.534 E15.09493
G1 X79.516 Y92.498 E15.11060
G1 X79.200 Y92.510 E15.12638
G0 F9000 X79.247 Y92.909
;TYPE:WALL-OUTER
G1 F1800 X78.999 Y92.958 E15.13899
G1 X78.762 Y93.044 E15.15157
G1 X78.540 Y93.165 E15.16418
G1 X78.340 Y93.320 E15.17681
G1 X78.166 Y93.502 E15.18937
G1 X78.020 Y93.709 E15.20201
G1 X77.910 Y93.936 E15.21459
G1 X77.835 Y94.177 E15.22718
G1 X77.796 Y94.425 E15.23971
G1 X77.795 Y94.669 E15.25188
G1 X77.836 Y94.929 E15.26501
G1 X77.912 Y95.169 E15.27757
G1 X78.025 Y95.395 E15.29018
G1 X78.172 Y95.602 E15.30284
G1 X78.347 Y95.784 E15.31544
G1 X78.549 Y95.936 E15.32805
G1 X78.771 Y96.056 E15.34064
G1 X79.008 Y96.142 E15.35322
G1 X79.257 Y96.188 E15.36586
G1 X79.509 Y96.197 E15.37844
G1 X79.760 Y96.168 E15.39104
G1 X80.004 Y96.101 E15.40366
G1 X80.235 Y95.996 E15.41632
G1 X80.446 Y95.858 E15.42890
G1 X80.634 Y95.690 E15.44148
G1 X80.795 Y95.495 E15.45410
G1 X80.922 Y95.276 E15.46673
G1 X81.016 Y95.042 E15.47931
G1 X81.073 Y94.796 E15.49191
G1 X81.093 Y94.544 E15.50452
G1 X81.073 Y94.292 E15.51713
G1 X81.014 Y94.045 E15.52980
G1 X80.919 Y93.812 E15.54235
G1 X80.790 Y93.595 E15.55495
G1 X80.627 Y93.400 E15.56763
G1 X80.439 Y93.233 E15.58017
G1 X80.225 Y93.096 E15.59285
G1 X79.995 Y92.994 E15.60540
G1 X79.752 Y92.928 E15.61797
G1 X79.501 Y92.899 E15.63057
G1 X79.247 Y92.909 E15.64325
G0 F9000 X79.235 Y92.609
G0 X76.147 Y93.367
G0 X75.866 Y93.263
G1 F1800 X78.056 Y88.528 E15.90353
G1 X78.056 Y80.496 E16.30424
G1 X78.584 Y80.879 E16.33679
G1 X79.458 Y81.475 E16.38956
G1 X80.347 Y82.047 E16.44230
G1 X81.252 Y82.593 E16.49504
G1 X82.170 Y83.111 E16.54762
G1 X83.104 Y83.603 E16.60029
G1 X84.056 Y84.072 E16.65324
G1 X84.907 Y84.461 E16.69992
G1 X84.907 Y91.821 E17.06711
G1 X82.940 Y96.038 E17.29926
G1 X82.721 Y96.467 E17.32329
G1 X82.528 Y96.765 E17.34100
G1 X82.313 Y97.038 E17.35834
G1 X81.813 Y97.518 E17.39292
G1 X81.527 Y97.724 E17.41050
G1 X80.907 Y98.053 E17.44552
G1 X80.231 Y98.265 E17.48087
G1 X79.891 Y98.321 E17.49806
G1 X79.527 Y98.347 E17.51626
G1 X79.185 Y98.339 E17.53333
G1 X78.835 Y98.299 E17.55091
G1 X78.154 Y98.124 E17.58598
G1 X77.833 Y97.991 E17.60332
G1 X77.518 Y97.824 E17.62111
G1 X77.228 Y97.637 E17.63832
G1 X76.954 Y97.420 E17.65576
G1 X76.467 Y96.912 E17.69087
G1 X76.264 Y96.631 E17.70816
G1 X75.933 Y96.007 E17.74340
G1 X75.816 Y95.681 E17.76068
G1 X75.669 Y94.986 E17.79612
G1 X75.643 Y94.647 E17.81309
G1 X75.652 Y94.289 E17.83095
G1 X75.692 Y93.936 E17.84868
G1 X75.866 Y93.263 E17.88336
G0 F9000 X76.337 Y93.591
;TYPE:SKIN
G1 F1800 X77.255 Y94.509 E17.94813
G0 F9000 X77.321 Y94.009
G1 F1800 X76.496 Y93.183 E18.00637
G0 F9000 X76.675 Y92.797
G1 F1800 X77.474 Y93.596 E18.06274
G0 F9000 X77.687 Y93.244
G1 F1800 X76.854 Y92.410 E18.12155
G0 F9000 X77.032 Y92.023
G1 F1800 X77.952 Y92.942 E18.18643
G0 F9000 X78.271 Y92.696
G1 F1800 X77.211 Y91.636 E18.26122
G0 F9000 X77.391 Y91.250
G1 F1800 X78.649 Y92.508 E18.34998
G0 F9000 X79.094 Y92.387
G1 F1800 X77.570 Y90.863 E18.45750
G0 F9000 X77.749 Y90.477
G1 F1800 X79.643 Y92.371 E18.59113
G0 F9000 X80.434 Y92.596
G1 F1800 X77.928 Y90.090 E18.76795
G0 F9000 X78.107 Y89.703
G1 F1800 X83.010 Y94.607 E19.11391
G0 F9000 X82.831 Y94.993
G1 F1800 X81.396 Y93.558 E19.21516
G0 F9000 X81.619 Y94.347
G1 F1800 X82.650 Y95.378 E19.28790
G0 F9000 X82.471 Y95.764
G1 F1800 X81.603 Y94.897 E19.34911
G0 F9000 X81.477 Y95.337
G1 F1800 X82.281 Y96.140 E19.40580
G0 F9000 X82.060 Y96.485
G1 F1800 X81.290 Y95.715 E19.46013
G0 F9000 X81.047 Y96.037
G1 F1800 X81.795 Y96.786 E19.51294
G0 F9000 X81.506 Y97.063
G1 F1800 X80.748 Y96.305 E19.56642
G0 F9000 X80.393 Y96.515
G1 F1800 X81.176 Y97.298 E19.62167
G0 F9000 X80.806 Y97.494
G1 F1800 X79.979 Y96.667 E19.68002
G0 F9000 X79.482 Y96.735
G1 F1800 X80.393 Y97.647 E19.74433
G0 F9000 X83.191 Y94.221
G1 F1800 X78.286 Y89.317 E20.09037
G0 F9000 X78.465 Y88.930
G1 F1800 X83.370 Y93.835 E20.43644
G0 F9000 X83.551 Y93.450
G1 F1800 X78.596 Y88.495 E20.78604
G0 F9000 X78.596 Y87.930
G1 F1800 X83.730 Y93.064 E21.14827
G0 F9000 X83.910 Y92.679
G1 F1800 X78.596 Y87.364 E21.52324
G0 F9000 X78.596 Y86.798
G1 F1800 X84.090 Y92.292 E21.91087
G0 F9000 X84.270 Y91.907
G1 F1800 X78.596 Y86.233 E22.31120
G0 F9000 X78.596 Y85.667
G1 F1800 X84.367 Y91.438 E22.71838
G0 F9000 X84.367 Y90.872
G1 F1800 X78.596 Y85.101 E23.12555
G0 F9000 X78.596 Y84.536
G1 F1800 X84.367 Y90.306 E23.53269
G0 F9000 X84.367 Y89.741
G1 F1800 X78.596 Y83.970 E23.93987
G0 F9000 X78.596 Y83.404
G1 F1800 X84.367 Y89.175 E24.34704
G0 F9000 X84.367 Y88.609
G1 F1800 X78.596 Y82.838 E24.75422
G0 F9000 X78.596 Y82.273
G1 F1800 X84.367 Y88.043 E25.16136
G0 F9000 X84.367 Y87.478
G1 F1800 X78.596 Y81.707 E25.56853
G0 F9000 X79.775 Y82.321
G1 F1800 X84.367 Y86.912 E25.89249
G0 F9000 X84.367 Y86.346
G1 F1800 X81.207 Y83.187 E26.11541
G0 F9000 X82.459 Y83.873
G1 F1800 X84.367 Y85.781 E26.25003
G0 F9000 X84.367 Y85.215
G1 F1800 X83.599 Y84.447 E26.30422
G0 F9000 X76.222 Y94.041
G1 F1800 X77.342 Y95.161 E26.38324
G0 F9000 X76.270 Y95.221
G1 F1800 X78.775 Y97.726 E26.55998
G0 F9000 X79.418 Y97.803
G1 F1800 X76.185 Y94.569 E26.78812
G0 F9000 X76.604 Y96.120
G1 F1800 X77.884 Y97.401 E26.87847
G0 F9000 X78.834 Y96.653
G1 F1800 X79.944 Y97.763 E26.95678
G1 F2400 E22.95678
G0 F9000 X115.492 Y91.731
;TYPE:WALL-INNER
G1 F2400 E26.95678
G1 F1800 X115.492 Y84.718 E27.30666
G1 X116.102 Y84.439 E27.34013
G1 X117.061 Y83.969 E27.39341
G1 X118.006 Y83.470 E27.44672
G1 X118.918 Y82.956 E27.49895
G1 X119.846 Y82.398 E27.55298
G1 X120.745 Y81.820 E27.60630
G1 X121.536 Y81.281 E27.65405
G1 X121.543 Y88.617 E28.02005
G1 X123.593 Y93.014 E28.26208
G1 X123.757 Y93.403 E28.28315
G1 X123.915 Y94.023 E28.31507
G1 X123.949 Y94.323 E28.33013
G1 X123.956 Y94.637 E28.34580
G1 X123.934 Y94.948 E28.36135
G1 X123.880 Y95.264 E28.37735
G1 X123.799 Y95.571 E28.39319
G1 X123.695 Y95.858 E28.40842
G1 X123.555 Y96.153 E28.42471
G1 X123.401 Y96.411 E28.43970
G1 X123.222 Y96.657 E28.45488
G1 X122.773 Y97.124 E28.48720
G1 X122.524 Y97.320 E28.50301
G1 X122.268 Y97.486 E28.51823
G1 X121.991 Y97.631 E28.53383
G1 X121.708 Y97.746 E28.54907
G1 X121.085 Y97.906 E28.58116
G1 X120.782 Y97.939 E28.59636
G1 X120.466 Y97.947 E28.61213
G1 X120.150 Y97.924 E28.62794
G1 X119.530 Y97.788 E28.65961
G1 X119.244 Y97.684 E28.67479
G1 X118.957 Y97.548 E28.69064
G1 X118.695 Y97.393 E28.70582
G1 X118.436 Y97.204 E28.72182
G1 X118.198 Y96.994 E28.73765
G1 X117.985 Y96.770 E28.75308
G1 X117.786 Y96.517 E28.76913
G1 X117.628 Y96.269 E28.78381
G1 X115.492 Y91.731 E29.03403
G0 F9000 X118.791 Y93.504
G1 F1800 X118.652 Y93.787 E29.04976
G1 X118.559 Y94.087 E29.06543
G1 X118.512 Y94.395 E29.08098
G1 X118.511 Y94.698 E29.09609
G1 X118.560 Y95.020 E29.11234
G1 X118.656 Y95.321 E29.12811
G1 X118.798 Y95.602 E29.14381
G1 X118.979 Y95.858 E29.15945
G1 X119.197 Y96.085 E29.17516
G1 X119.448 Y96.273 E29.19080
G1 X119.722 Y96.422 E29.20636
G1 X120.019 Y96.529 E29.22211
G1 X120.328 Y96.587 E29.23780
G1 X120.642 Y96.598 E29.25347
G1 X120.953 Y96.562 E29.26909
G1 X121.256 Y96.478 E29.28478
G1 X121.544 Y96.347 E29.30056
G1 X121.805 Y96.177 E29.31610
G1 X122.039 Y95.968 E29.33176
G1 X122.239 Y95.724 E29.34750
G1 X122.398 Y95.454 E29.36313
G1 X122.515 Y95.162 E29.37882
G1 X122.585 Y94.856 E29.39448
G1 X122.609 Y94.544 E29.41010
G1 X122.585 Y94.230 E29.42581
G1 X122.512 Y93.924 E29.44150
G1 X122.393 Y93.632 E29.45723
G1 X122.232 Y93.363 E29.47287
G1 X122.031 Y93.121 E29.48857
G1 X121.796 Y92.913 E29.50423
G1 X121.531 Y92.743 E29.51993
G1 X121.244 Y92.616 E29.53559
G1 X120.943 Y92.534 E29.55115
G1 X120.632 Y92.498 E29.56677
G1 X120.316 Y92.510 E29.58255
G1 X120.007 Y92.571 E29.59826
G1 X119.712 Y92.679 E29.61394
G1 X119.437 Y92.829 E29.62957
G1 X119.187 Y93.022 E29.64532
G1 X118.972 Y93.247 E29.66085
G1 X118.791 Y93.504 E29.67653
G0 F9000 X119.136 Y93.709
;TYPE:WALL-OUTER
G1 F1800 X119.025 Y93.936 E29.68914
G1 X118.950 Y94.177 E29.70173
G1 X118.912 Y94.426 E29.71430
G1 X118.911 Y94.669 E29.72642
G1 X118.951 Y94.929 E29.73954
G1 X119.027 Y95.170 E29.75215
G1 X119.141 Y95.395 E29.76473
G1 X119.288 Y95.602 E29.77740
G1 X119.463 Y95.784 E29.79000
G1 X119.665 Y95.936 E29.80261
G1 X119.886 Y96.056 E29.81516
G1 X120.124 Y96.142 E29.82778
G1 X120.373 Y96.188 E29.84041
G1 X120.625 Y96.197 E29.85299
G1 X120.876 Y96.168 E29.86560
G1 X121.119 Y96.101 E29.87818
G1 X121.351 Y95.996 E29.89088
G1 X121.561 Y95.858 E29.90342
G1 X121.750 Y95.690 E29.91603
G1 X121.910 Y95.495 E29.92862
G1 X122.038 Y95.277 E29.94123
G1 X122.132 Y95.042 E29.95386
G1 X122.188 Y94.796 E29.96644
G1 X122.208 Y94.544 E29.97906
G1 X122.188 Y94.292 E29.99167
G1 X122.130 Y94.046 E30.00428
G1 X122.034 Y93.811 E30.01694
G1 X121.905 Y93.595 E30.02949
G1 X121.743 Y93.400 E30.04214
G1 X121.554 Y93.233 E30.05473
G1 X121.341 Y93.096 E30.06736
G1 X121.110 Y92.994 E30.07996
G1 X120.867 Y92.928 E30.09252
G1 X120.617 Y92.899 E30.10508
G1 X120.363 Y92.909 E30.11776
G1 X120.115 Y92.958 E30.13037
G1 X119.877 Y93.044 E30.14300
G1 X119.656 Y93.165 E30.15557
G1 X119.456 Y93.320 E30.16819
G1 X119.282 Y93.502 E30.18075
G1 X119.136 Y93.709 E30.19339
G0 F9000 X118.892 Y93.537
G0 X117.542 Y96.321
G0 X117.278 Y96.466
G1 F1800 X115.092 Y91.820 E30.44955
G1 X115.092 Y84.461 E30.81670
G1 X115.931 Y84.078 E30.86271
G1 X116.880 Y83.612 E30.91546
