;Generated with Cura_SteamEngine 15.01
; Default start code
G28 ; Home extruder
G1 Z15 F100
M107 ; Turn off fan
G90 ; Absolute positioning
M82 ; Extruder in absolute mode
M190 S60
; Activate all used extruder
M104 T0 S225
G92 E0 ; Reset extruder position
; Wait for all used extruders to reach temperature
M109 T0 S225
;Layer count: 175
;LAYER:0
M107
G0 F9000 X64.427 Y74.106 Z0.300
G0 X64.427 Y75.205
;TYPE:SKIRT
G1 F1800 X64.427 Y74.106 E0.05483
G1 X66.619 Y73.011 E0.17707
G1 X66.824 Y72.806 E0.19154
G1 X68.611 Y71.917 E0.29112
G1 X73.547 Y71.917 E0.53737
G1 X75.735 Y73.011 E0.65942
G1 X76.738 Y74.012 E0.73011
G1 X77.135 Y74.211 E0.75227
G1 X78.338 Y75.413 E0.83711
G1 X78.734 Y75.611 E0.85920
G1 X81.056 Y77.927 E1.02282
G1 X81.056 Y78.449 E1.04886
G1 X81.348 Y78.649 E1.06652
G1 X82.167 Y79.174 E1.11505
G1 X82.281 Y79.242 E1.12168
G1 X88.126 Y81.206 E1.42931
G1 X88.527 Y81.406 E1.45166
G1 X89.119 Y81.603 E1.48279
G1 X89.248 Y81.668 E1.49000
G1 X90.168 Y81.821 E1.53653
G1 X91.326 Y82.207 E1.59742
G1 X91.447 Y82.267 E1.60416
G1 X92.368 Y82.421 E1.65075
G1 X93.526 Y82.807 E1.71165
G1 X93.646 Y82.867 E1.71834
G1 X94.129 Y82.947 E1.74277
G1 X96.316 Y83.145 E1.85232
G1 X97.368 Y83.321 E1.90554
G1 X103.194 Y83.386 E2.19621
G1 X104.381 Y83.149 E2.25660
G1 X106.493 Y82.973 E2.36234
G1 X107.105 Y82.667 E2.39647
G1 X108.586 Y82.420 E2.47138
G1 X108.633 Y82.404 E2.47386
G1 X109.247 Y82.097 E2.50811
G1 X110.531 Y81.839 E2.57344
G1 X111.827 Y81.406 E2.64162
G1 X118.091 Y78.274 E2.99102
G1 X118.091 Y79.009 E3.02768
G1 X118.647 Y78.652 E3.06065
G1 X118.943 Y78.450 E3.07853
G1 X118.943 Y77.886 E3.10667
G1 X120.818 Y76.010 E3.23899
G1 X121.220 Y75.809 E3.26142
G1 X121.424 Y75.606 E3.27577
G1 X121.820 Y75.409 E3.29784
G1 X122.818 Y74.411 E3.36825
G1 X123.216 Y74.212 E3.39045
G1 X124.619 Y72.811 E3.48937
G1 X126.407 Y71.917 E3.58911
G1 X132.242 Y71.917 E3.88021
G1 X133.339 Y73.013 E3.95758
G1 X135.527 Y74.104 E4.07956
G1 X135.527 Y75.205 E4.13449
G1 X135.927 Y75.606 E4.16274
G1 X135.927 Y76.002 E4.18250
G1 X136.127 Y76.202 E4.19661
G1 X136.127 Y81.632 E4.46751
G1 X135.927 Y81.832 E4.48163
G1 X135.927 Y82.028 E4.49140
G1 X135.527 Y82.429 E4.51966
G1 X135.527 Y82.631 E4.52974
G1 X131.134 Y87.024 E4.83969
G1 X130.738 Y87.222 E4.86178
G1 X130.537 Y87.423 E4.87596
G1 X129.737 Y87.823 E4.92058
G1 X128.734 Y88.824 E4.99128
G1 X127.939 Y89.221 E5.03561
G1 X127.536 Y89.624 E5.06405
G1 X127.133 Y89.825 E5.08651
G1 X126.933 Y90.024 E5.10059
G1 X126.494 Y90.244 E5.12509
G1 X127.035 Y91.405 E5.18899
G1 X127.113 Y91.568 E5.19801
G1 X127.341 Y92.129 E5.22822
G1 X127.537 Y92.764 E5.26137
G1 X127.670 Y93.417 E5.29462
G1 X127.745 Y94.069 E5.32736
G1 X127.760 Y94.724 E5.36005
G1 X127.711 Y95.409 E5.39431
G1 X127.599 Y96.067 E5.42761
G1 X127.431 Y96.705 E5.46053
G1 X127.201 Y97.334 E5.49394
G1 X126.913 Y97.939 E5.52737
G1 X126.575 Y98.506 E5.56030
G1 X126.146 Y99.100 E5.59686
G1 X125.331 Y99.949 E5.65557
G1 X124.737 Y100.415 E5.69324
G1 X124.183 Y100.772 E5.72612
G1 X123.590 Y101.083 E5.75952
G1 X122.904 Y101.362 E5.79647
G1 X121.771 Y101.653 E5.85483
G1 X121.033 Y101.735 E5.89188
G1 X120.379 Y101.751 E5.92451
G1 X119.691 Y101.700 E5.95893
G1 X119.032 Y101.588 E5.99228
G1 X118.727 Y101.507 E6.00803
G1 X118.727 Y110.404 E6.45190
G1 X111.927 Y110.604 E6.79130
G1 X111.927 Y128.117 E7.66503
G1 X87.827 Y128.117 E8.86738
G1 X87.827 Y110.604 E9.74111
G1 X81.027 Y110.404 E10.08051
G1 X81.027 Y101.579 E10.52079
G1 X81.025 Y101.580 E10.52090
G1 X80.280 Y101.703 E10.55857
G1 X79.616 Y101.749 E10.59178
G1 X78.951 Y101.735 E10.62496
G1 X78.285 Y101.659 E10.65840
G1 X77.636 Y101.521 E10.69151
G1 X77.006 Y101.328 E10.72438
G1 X76.381 Y101.070 E10.75811
G1 X75.791 Y100.757 E10.79143
G1 X75.242 Y100.399 E10.82413
G1 X74.662 Y99.943 E10.86094
G1 X73.851 Y99.096 E10.91945
G1 X73.369 Y98.430 E10.96046
G1 X72.817 Y97.388 E11.01929
G1 X72.537 Y96.609 E11.06059
G1 X72.296 Y95.473 E11.11853
G1 X72.240 Y94.721 E11.15615
G1 X72.256 Y94.051 E11.18958
G1 X72.332 Y93.388 E11.22288
G1 X72.470 Y92.743 E11.25578
G1 X72.664 Y92.106 E11.28901
G1 X72.930 Y91.478 E11.32303
G1 X73.548 Y90.154 E11.39593
G1 X73.417 Y90.023 E11.40517
G1 X72.618 Y89.624 E11.44973
G1 X72.416 Y89.422 E11.46398
G1 X71.620 Y89.024 E11.50838
G1 X71.215 Y88.621 E11.53688
G1 X70.821 Y88.423 E11.55888
G1 X70.221 Y87.825 E11.60115
G1 X69.818 Y87.624 E11.62361
G1 X69.416 Y87.222 E11.65198
G1 X69.020 Y87.024 E11.67407
G1 X66.818 Y84.823 E11.82939
G1 X64.227 Y83.528 E11.97390
G1 X64.227 Y82.429 E12.02873
G1 X63.827 Y82.028 E12.05699
G1 X63.827 Y76.002 E12.35763
G1 X64.027 Y75.802 E12.37174
G1 X64.027 Y75.606 E12.38152
G1 X64.427 Y75.205 E12.40978
G1 F2400 E8.40978
G0 F9000 X78.456 Y81.276
;TYPE:WALL-INNER
G1 F2400 E12.40978
G1 F1800 X79.243 Y81.813 E12.45731
G1 X80.143 Y82.391 E12.51067
G1 X81.047 Y82.935 E12.56331
G1 X81.977 Y83.461 E12.61662
G1 X82.924 Y83.961 E12.67004
G1 X83.884 Y84.432 E12.72339
G1 X84.507 Y84.718 E12.75759
G1 X84.507 Y91.731 E13.10747
G1 X82.566 Y95.893 E13.33659
G1 X82.377 Y96.264 E13.35736
G1 X82.202 Y96.532 E13.37333
G1 X82.011 Y96.774 E13.38871
G1 X81.561 Y97.208 E13.41990
G1 X81.313 Y97.386 E13.43513
G1 X80.753 Y97.683 E13.46675
G1 X80.145 Y97.873 E13.49853
G1 X79.840 Y97.924 E13.51396
G1 X79.520 Y97.946 E13.52996
G1 X79.206 Y97.940 E13.54563
G1 X78.901 Y97.905 E13.56095
G1 X78.289 Y97.746 E13.59249
G1 X77.995 Y97.625 E13.60836
G1 X77.729 Y97.484 E13.62338
G1 X77.457 Y97.307 E13.63957
G1 X77.223 Y97.123 E13.65442
G1 X76.775 Y96.654 E13.68677
G1 X76.602 Y96.415 E13.70149
G1 X76.303 Y95.851 E13.73334
G1 X76.200 Y95.566 E13.74846
G1 X76.066 Y94.932 E13.78079
G1 X76.044 Y94.633 E13.79575
G1 X76.051 Y94.310 E13.81187
G1 X76.086 Y94.005 E13.82718
G1 X76.153 Y93.693 E13.84310
G1 X76.242 Y93.399 E13.85843
G1 X78.456 Y88.617 E14.12133
G1 X78.456 Y81.276 E14.48758
G0 F9000 X79.436 Y91.946
G1 F1800 X79.037 Y91.981 E14.50756
G1 X78.703 Y92.057 E14.52465
G1 X78.385 Y92.175 E14.54157
G1 X78.085 Y92.332 E14.55846
G1 X77.806 Y92.529 E14.57550
G1 X77.558 Y92.759 E14.59238
G1 X77.345 Y93.014 E14.60895
G1 X77.185 Y93.253 E14.62330
G1 X77.017 Y93.615 E14.64321
G1 X76.918 Y93.933 E14.65983
G1 X76.863 Y94.208 E14.67382
G1 X76.840 Y94.554 E14.69112
G1 X76.875 Y94.952 E14.71105
G1 X76.949 Y95.286 E14.72812
G1 X77.073 Y95.618 E14.74580
G1 X77.370 Y96.125 E14.77512
G1 X77.662 Y96.443 E14.79666
G1 X78.131 Y96.797 E14.82597
G1 X78.509 Y96.973 E14.84677
G1 X78.826 Y97.072 E14.86334
G1 X79.103 Y97.127 E14.87743
G1 X79.448 Y97.150 E14.89468
G1 X79.846 Y97.115 E14.91462
G1 X80.180 Y97.041 E14.93168
G1 X80.500 Y96.922 E14.94872
G1 X80.812 Y96.757 E14.96632
G1 X81.285 Y96.389 E14.99622
G1 X81.690 Y95.861 E15.02942
G1 X81.867 Y95.482 E15.05029
G1 X81.966 Y95.163 E15.06695
G1 X82.021 Y94.887 E15.08099
G1 X82.044 Y94.542 E15.09825
G1 X82.009 Y94.144 E15.11818
G1 X81.936 Y93.819 E15.13480
G1 X81.843 Y93.546 E15.14919
G1 X81.659 Y93.192 E15.16909
G1 X81.451 Y92.898 E15.18706
G1 X80.986 Y92.457 E15.21903
G1 X80.681 Y92.264 E15.23704
G1 X80.373 Y92.124 E15.25392
G1 X80.059 Y92.025 E15.27034
G1 X79.783 Y91.969 E15.28439
G1 X79.436 Y91.946 E15.30174
G0 F9000 X79.440 Y92.347
;TYPE:WALL-OUTER
G1 F1800 X79.099 Y92.377 E15.31882
G1 X78.818 Y92.441 E15.33320
G1 X78.548 Y92.541 E15.34756
G1 X78.294 Y92.674 E15.36187
G1 X78.059 Y92.840 E15.37622
G1 X77.849 Y93.035 E15.39052
G1 X77.666 Y93.254 E15.40476
G1 X77.535 Y93.450 E15.41652
G1 X77.391 Y93.760 E15.43357
G1 X77.260 Y94.261 E15.45941
G1 X77.241 Y94.550 E15.47386
G1 X77.271 Y94.891 E15.49093
G1 X77.334 Y95.172 E15.50530
G1 X77.436 Y95.446 E15.51989
G1 X77.693 Y95.886 E15.54531
G1 X77.932 Y96.146 E15.56293
G1 X78.338 Y96.452 E15.58829
G1 X78.654 Y96.599 E15.60568
G1 X78.925 Y96.684 E15.61985
G1 X79.155 Y96.730 E15.63155
G1 X79.444 Y96.749 E15.64600
G1 X79.785 Y96.719 E15.66308
G1 X80.066 Y96.656 E15.67745
G1 X80.336 Y96.556 E15.69181
G1 X80.594 Y96.420 E15.70636
G1 X80.999 Y96.105 E15.73196
G1 X81.346 Y95.652 E15.76043
G1 X81.493 Y95.337 E15.77777
G1 X81.624 Y94.835 E15.80366
G1 X81.643 Y94.546 E15.81810
G1 X81.613 Y94.205 E15.83518
G1 X81.474 Y93.704 E15.86112
G1 X81.316 Y93.401 E15.87817
G1 X81.147 Y93.161 E15.89281
G1 X80.739 Y92.774 E15.92087
G1 X80.490 Y92.617 E15.93556
G1 X80.230 Y92.498 E15.94982
G1 X79.959 Y92.413 E15.96399
G1 X79.730 Y92.366 E15.97565
G1 X79.440 Y92.347 E15.99015
G0 F9000 X79.458 Y92.048
G0 X78.086 Y92.333
G0 X76.149 Y93.361
G0 X75.863 Y93.269
G1 F1800 X78.056 Y88.528 E16.25076
G1 X78.056 Y80.496 E16.65148
G1 X78.590 Y80.883 E16.68438
G1 X79.464 Y81.480 E16.73719
G1 X80.354 Y82.051 E16.78994
G1 X81.248 Y82.590 E16.84202
G1 X82.169 Y83.110 E16.89479
G1 X83.105 Y83.604 E16.94759
G1 X84.055 Y84.071 E17.00040
G1 X84.907 Y84.461 E17.04715
G1 X84.907 Y91.821 E17.41434
G1 X82.890 Y96.146 E17.65243
G1 X82.528 Y96.765 E17.68821
G1 X82.312 Y97.038 E17.70557
G1 X81.814 Y97.518 E17.74008
G1 X81.527 Y97.724 E17.75771
G1 X80.907 Y98.053 E17.79272
G1 X80.232 Y98.265 E17.82802
G1 X79.528 Y98.347 E17.86338
G1 X79.185 Y98.339 E17.88050
G1 X78.835 Y98.299 E17.89807
G1 X78.154 Y98.124 E17.93315
G1 X77.833 Y97.991 E17.95049
G1 X77.223 Y97.632 E17.98580
G1 X76.953 Y97.420 E18.00293
G1 X76.467 Y96.912 E18.03800
G1 X76.264 Y96.631 E18.05530
G1 X75.933 Y96.007 E18.09054
G1 X75.816 Y95.681 E18.10782
G1 X75.669 Y94.986 E18.14326
G1 X75.643 Y94.647 E18.16022
G1 X75.652 Y94.289 E18.17809
G1 X75.692 Y93.939 E18.19566
G1 X75.767 Y93.586 E18.21367
G1 X75.863 Y93.269 E18.23019
G0 F9000 X76.330 Y93.584
;TYPE:SKIN
G1 F1800 X76.821 Y93.792 E18.26038
G1 X76.583 Y92.988 E18.28778
G1 X77.179 Y93.018 E18.31525
G1 X76.942 Y92.215 E18.34647
G1 X77.567 Y92.558 E18.38204
G0 F9000 X77.879 Y92.304
G1 F1800 X77.211 Y91.636 E18.42917
G0 F9000 X77.390 Y91.250
G1 F1800 X78.235 Y92.094 E18.48876
G0 F9000 X78.637 Y91.930
G1 F1800 X77.569 Y90.863 E18.56407
G0 F9000 X77.748 Y90.476
G1 F1800 X79.104 Y91.832 E18.65975
G0 F9000 X79.656 Y91.818
G1 F1800 X77.928 Y90.090 E18.78167
G0 F9000 X78.107 Y89.703
G1 F1800 X80.382 Y91.979 E18.94222
G0 F9000 X82.011 Y93.608
G1 F1800 X83.010 Y94.607 E19.01270
G0 F9000 X82.831 Y94.993
G1 F1800 X82.165 Y94.328 E19.05966
G0 F9000 X82.161 Y94.889
G1 F1800 X82.560 Y95.571 E19.09405
G1 X81.974 Y95.550 E19.12345
G1 X82.171 Y96.313 E19.15077
G1 X81.555 Y96.263 E19.17768
G1 X81.651 Y96.924 E19.20317
G1 X80.965 Y96.804 E19.22975
G1 X80.990 Y97.395 E19.25616
G1 X80.195 Y97.166 E19.28361
G1 X80.393 Y97.647 E19.30956
G0 F9000 X83.191 Y94.221
G1 F1800 X78.285 Y89.316 E19.65567
G0 F9000 X78.465 Y88.930
G1 F1800 X83.370 Y93.835 E20.00174
G0 F9000 X83.551 Y93.450
G1 F1800 X78.596 Y88.495 E20.35135
G0 F9000 X78.596 Y87.930
G1 F1800 X83.730 Y93.064 E20.71358
G0 F9000 X83.910 Y92.679
G1 F1800 X78.596 Y87.364 E21.08854
G0 F9000 X78.596 Y86.798
G1 F1800 X84.090 Y92.292 E21.47617
G0 F9000 X84.270 Y91.907
G1 F1800 X78.596 Y86.233 E21.87651
G0 F9000 X78.596 Y85.667
G1 F1800 X84.367 Y91.438 E22.28368
G0 F9000 X84.367 Y90.872
G1 F1800 X78.596 Y85.101 E22.69086
G0 F9000 X78.596 Y84.536
G1 F1800 X84.367 Y90.306 E23.09800
G0 F9000 X84.367 Y89.741
G1 F1800 X78.596 Y83.970 E23.50517
G0 F9000 X78.596 Y83.404
G1 F1800 X84.367 Y89.175 E23.91235
G0 F9000 X84.367 Y88.609
G1 F1800 X78.596 Y82.838 E24.31952
G0 F9000 X78.596 Y82.273
G1 F1800 X84.367 Y88.043 E24.72666
G0 F9000 X84.367 Y87.478
G1 F1800 X78.596 Y81.707 E25.13384
G0 F9000 X79.777 Y82.322
G1 F1800 X84.367 Y86.912 E25.45769
G0 F9000 X84.367 Y86.346
G1 F1800 X81.204 Y83.184 E25.68082
G0 F9000 X82.459 Y83.873
G1 F1800 X84.367 Y85.781 E25.81544
G0 F9000 X84.367 Y85.215
G1 F1800 X83.598 Y84.446 E25.86969
G0 F9000 X76.222 Y94.041
G1 F1800 X76.701 Y94.520 E25.90349
G0 F9000 X76.185 Y94.569
G1 F1800 X76.779 Y95.164 E25.94544
G0 F9000 X76.270 Y95.221
G1 F1800 X77.254 Y96.205 E26.01486
G0 F9000 X77.684 Y96.634
G1 F1800 X78.775 Y97.726 E26.09187
G0 F9000 X78.829 Y97.214
G1 F1800 X79.418 Y97.803 E26.13343
G0 F9000 X79.470 Y97.289
G1 F1800 X79.944 Y97.763 E26.16687
G0 F9000 X77.897 Y97.413
G1 F1800 X76.604 Y96.120 E26.25810
G1 F2400 E22.25810
G0 F9000 X97.160 Y112.732
;TYPE:WALL-INNER
G1 F2400 E26.25810
G1 F1800 X97.446 Y112.460 E26.27779
G1 X97.957 Y112.082 E26.30950
G1 X98.323 Y111.885 E26.33024
G1 X98.565 Y111.777 E26.34346
G1 X98.946 Y111.652 E26.36347
G1 X99.582 Y111.526 E26.39581
G1 X99.908 Y111.505 E26.41211
G1 X100.332 Y111.520 E26.43328
G1 X100.941 Y111.619 E26.46406
G1 X101.327 Y111.739 E26.48423
G1 X101.905 Y112.001 E26.51589
G1 X102.238 Y112.213 E26.53558
G1 X102.735 Y112.625 E26.56779
G1 X102.953 Y112.858 E26.58371
G1 X103.367 Y113.438 E26.61926
G1 X103.548 Y113.792 E26.63910
G1 X103.673 Y114.103 E26.65582
G1 X103.839 Y114.726 E26.68799
G1 X103.899 Y115.395 E26.72150
G1 X103.897 Y115.455 E26.72449
G1 X103.837 Y116.090 E26.75631
G1 X103.657 Y116.756 E26.79073
G1 X103.529 Y117.060 E26.80719
G1 X103.168 Y117.676 E26.84281
G1 X102.970 Y117.927 E26.85876
G1 X102.467 Y118.419 E26.89386
G1 X101.891 Y118.812 E26.92865
G1 X101.520 Y118.990 E26.94918
G1 X101.280 Y119.085 E26.96206
G1 X100.587 Y119.258 E26.99769
G1 X100.264 Y119.293 E27.01390
G1 X99.923 Y119.301 E27.03092
G1 X99.229 Y119.224 E27.06575
G1 X98.574 Y119.030 E27.09984
G1 X97.942 Y118.713 E27.13511
G1 X97.411 Y118.318 E27.16813
G1 X96.925 Y117.799 E27.20360
G1 X96.699 Y117.472 E27.22343
G1 X96.404 Y116.908 E27.25519
G1 X96.196 Y116.260 E27.28914
G1 X96.129 Y115.851 E27.30982
G1 X96.104 Y115.577 E27.32354
G1 X96.134 Y114.889 E27.35790
G1 X96.213 Y114.486 E27.37839
G1 X96.408 Y113.888 E27.40977
G1 X96.590 Y113.516 E27.43043
G1 X96.761 Y113.238 E27.44671
G1 X97.160 Y112.732 E27.47886
G0 F9000 X98.142 Y113.733
G1 F1800 X97.862 Y114.103 E27.50201
G1 X97.703 Y114.413 E27.51939
G1 X97.590 Y114.733 E27.53633
G1 X97.521 Y115.065 E27.55324
G1 X97.498 Y115.413 E27.57064
G1 X97.545 Y115.876 E27.59386
G1 X97.695 Y116.379 E27.62005
G1 X97.856 Y116.693 E27.63765
G1 X98.056 Y116.978 E27.65502
G1 X98.382 Y117.309 E27.67820
G1 X98.790 Y117.593 E27.70300
G1 X99.135 Y117.750 E27.72191
G1 X99.462 Y117.845 E27.73890
G1 X99.793 Y117.895 E27.75560
G1 X100.089 Y117.903 E27.77037
G1 X100.429 Y117.867 E27.78743
G1 X101.030 Y117.683 E27.81879
G1 X101.398 Y117.476 E27.83985
G1 X101.669 Y117.265 E27.85699
G1 X101.907 Y117.021 E27.87399
G1 X102.107 Y116.749 E27.89084
G1 X102.275 Y116.440 E27.90839
G1 X102.448 Y115.923 E27.93558
G1 X102.495 Y115.582 E27.95276
G1 X102.499 Y115.330 E27.96533
G1 X102.468 Y114.994 E27.98217
G1 X102.363 Y114.582 E28.00338
G1 X102.223 Y114.255 E28.02112
G1 X101.916 Y113.792 E28.04884
G1 X101.621 Y113.497 E28.06965
G1 X101.338 Y113.290 E28.08715
G1 X101.044 Y113.130 E28.10385
G1 X100.736 Y113.013 E28.12028
G1 X100.415 Y112.936 E28.13675
G1 X100.084 Y112.903 E28.15335
G1 X99.744 Y112.915 E28.17032
G1 X99.456 Y112.961 E28.18487
G1 X99.093 Y113.072 E28.20381
G1 X98.789 Y113.215 E28.22057
G1 X98.506 Y113.396 E28.23733
G1 X98.142 Y113.733 E28.26208
G0 F9000 X98.439 Y114.002
;TYPE:WALL-OUTER
G1 F1800 X98.202 Y114.316 E28.28170
G1 X98.071 Y114.572 E28.29605
G1 X97.976 Y114.840 E28.31024
G1 X97.918 Y115.119 E28.32445
G1 X97.899 Y115.406 E28.33880
G1 X97.939 Y115.798 E28.35846
G1 X98.068 Y116.229 E28.38091
G1 X98.199 Y116.486 E28.39530
G1 X98.365 Y116.721 E28.40965
G1 X98.641 Y117.002 E28.42930
G1 X98.989 Y117.244 E28.45045
G1 X99.275 Y117.374 E28.46612
G1 X99.548 Y117.454 E28.48032
G1 X99.828 Y117.496 E28.49444
G1 X100.073 Y117.502 E28.50667
G1 X100.348 Y117.473 E28.52047
G1 X100.872 Y117.313 E28.54780
G1 X101.176 Y117.142 E28.56520
G1 X101.402 Y116.966 E28.57949
G1 X101.601 Y116.762 E28.59371
G1 X101.769 Y116.534 E28.60784
G1 X101.907 Y116.280 E28.62226
G1 X102.057 Y115.832 E28.64583
G1 X102.096 Y115.551 E28.65999
G1 X102.099 Y115.345 E28.67026
G1 X102.073 Y115.063 E28.68439
G1 X101.983 Y114.711 E28.70252
G1 X101.870 Y114.446 E28.71689
G1 X101.605 Y114.047 E28.74079
G1 X101.360 Y113.802 E28.75807
G1 X101.123 Y113.629 E28.77271
G1 X100.877 Y113.495 E28.78669
G1 X100.616 Y113.396 E28.80062
G1 X100.351 Y113.331 E28.81423
G1 X100.071 Y113.304 E28.82826
G1 X99.783 Y113.314 E28.84264
G1 X99.547 Y113.352 E28.85456
G1 X99.237 Y113.446 E28.87073
G1 X98.983 Y113.566 E28.88474
G1 X98.751 Y113.714 E28.89847
