;Generated with Cura_SteamEngine 15.01
; Default start code
G28 ; Home extruder
G1 Z15 F100
M107 ; Turn off fan
G90 ; Absolute positioning
M82 ; Extruder in absolute mode
M190 S95
; Activate all used extruder
M104 T0 S235
G92 E0 ; Reset extruder position
; Wait for all used extruders to reach temperature
M109 T0 S235
;Layer count: 72
;LAYER:0
M107
G0 F9000 X85.444 Y84.076 Z0.300
;TYPE:SKIRT
G1 F1800 X86.247 Y83.548 E0.04795
G1 X87.246 Y83.206 E0.10063
G1 X89.888 Y83.200 E0.23244
G1 X90.473 Y83.200 E0.26162
G1 X93.186 Y83.201 E0.39697
G1 X93.539 Y83.200 E0.41459
G1 X95.908 Y83.201 E0.53278
G1 X96.261 Y83.200 E0.55039
G1 X98.630 Y83.201 E0.66858
G1 X98.984 Y83.200 E0.68624
G1 X101.353 Y83.201 E0.80443
G1 X101.706 Y83.200 E0.82204
G1 X104.075 Y83.201 E0.94023
G1 X104.428 Y83.200 E0.95784
G1 X106.797 Y83.201 E1.07603
G1 X107.150 Y83.200 E1.09364
G1 X109.517 Y83.201 E1.21173
G1 X110.102 Y83.199 E1.24092
G1 X112.312 Y83.201 E1.35118
G1 X112.945 Y83.265 E1.38292
G1 X113.913 Y83.616 E1.43429
G1 X114.942 Y84.420 E1.49944
G1 X115.637 Y85.615 E1.56841
G1 X115.846 Y86.621 E1.61967
G1 X115.849 Y88.127 E1.69480
G1 X115.849 Y88.800 E1.72838
G1 X115.848 Y90.601 E1.81823
G1 X115.849 Y90.945 E1.83539
G1 X115.848 Y92.402 E1.90808
G1 X115.849 Y92.746 E1.92524
G1 X115.848 Y94.201 E1.99783
G1 X115.849 Y94.545 E2.01500
G1 X115.848 Y96.002 E2.08769
G1 X115.849 Y96.346 E2.10485
G1 X115.848 Y97.801 E2.17744
G1 X115.849 Y98.145 E2.19460
G1 X115.848 Y99.601 E2.26724
G1 X115.849 Y99.945 E2.28440
G1 X115.848 Y101.402 E2.35709
G1 X115.849 Y101.746 E2.37426
G1 X115.848 Y103.201 E2.44685
G1 X115.849 Y103.545 E2.46401
G1 X115.848 Y105.002 E2.53670
G1 X115.849 Y105.346 E2.55386
G1 X115.848 Y106.801 E2.62645
G1 X115.849 Y107.145 E2.64361
G1 X115.848 Y108.601 E2.71625
G1 X115.849 Y108.945 E2.73342
G1 X115.848 Y110.402 E2.80611
G1 X115.849 Y110.746 E2.82327
G1 X115.848 Y112.201 E2.89586
G1 X115.850 Y112.865 E2.92899
G1 X115.842 Y117.200 E3.14526
G1 X107.050 Y117.200 E3.58390
G1 X107.050 Y92.200 E4.83115
G1 X106.250 Y92.200 E4.87106
G1 X106.250 Y95.200 E5.02073
G1 X93.550 Y95.200 E5.65434
G1 X93.550 Y92.200 E5.80401
G1 X92.950 Y92.200 E5.83394
G1 X92.950 Y117.200 E7.08120
G1 X84.154 Y117.200 E7.52003
G1 X84.150 Y112.869 E7.73611
G1 X84.150 Y112.198 E7.76958
G1 X84.151 Y110.398 E7.85939
G1 X84.150 Y110.054 E7.87655
G1 X84.151 Y108.597 E7.94924
G1 X84.150 Y108.253 E7.96640
G1 X84.151 Y106.797 E8.03904
G1 X84.150 Y106.453 E8.05620
G1 X84.151 Y104.998 E8.12879
G1 X84.150 Y104.654 E8.14596
G1 X84.151 Y103.197 E8.21865
G1 X84.150 Y102.853 E8.23581
G1 X84.151 Y101.398 E8.30840
G1 X84.150 Y101.054 E8.32556
G1 X84.151 Y99.597 E8.39825
G1 X84.150 Y99.253 E8.41541
G1 X84.151 Y97.797 E8.48805
G1 X84.150 Y97.453 E8.50522
G1 X84.151 Y95.998 E8.57781
G1 X84.150 Y95.654 E8.59497
G1 X84.151 Y94.197 E8.66766
G1 X84.150 Y93.853 E8.68482
G1 X84.151 Y92.398 E8.75741
G1 X84.150 Y92.054 E8.77457
G1 X84.151 Y90.597 E8.84726
G1 X84.150 Y90.253 E8.86443
G1 X84.151 Y88.797 E8.93707
G1 X84.149 Y88.133 E8.97019
G1 X84.151 Y86.878 E9.03280
G1 X84.190 Y86.365 E9.05847
G1 X84.392 Y85.592 E9.09833
G1 X84.819 Y84.788 E9.14375
G1 X85.444 Y84.076 E9.19102
G1 F2400 E5.19102
G0 F9000 X87.949 Y88.132
;TYPE:WALL-INNER
G1 F2400 E9.19102
G1 F1800 X87.951 Y87.013 E9.24684
G1 X89.893 Y87.000 E9.34373
G1 X93.195 Y87.001 E9.50847
G1 X93.545 Y87.000 E9.52593
G1 X95.917 Y87.001 E9.64427
G1 X96.267 Y87.000 E9.66173
G1 X98.639 Y87.001 E9.78007
G1 X98.990 Y87.000 E9.79758
G1 X101.362 Y87.001 E9.91592
G1 X101.712 Y87.000 E9.93339
G1 X104.084 Y87.001 E10.05172
G1 X104.434 Y87.000 E10.06919
G1 X106.806 Y87.001 E10.18753
G1 X107.156 Y87.000 E10.20499
G1 X109.528 Y87.001 E10.32333
G1 X110.107 Y86.999 E10.35221
G1 X112.045 Y87.001 E10.44890
G1 X112.049 Y88.130 E10.50523
G1 X112.048 Y90.600 E10.62846
G1 X112.049 Y90.948 E10.64582
G1 X112.048 Y92.401 E10.71831
G1 X112.049 Y92.749 E10.73567
G1 X112.048 Y94.200 E10.80806
G1 X112.049 Y94.548 E10.82542
G1 X112.048 Y96.001 E10.89791
G1 X112.049 Y96.349 E10.91528
G1 X112.048 Y97.800 E10.98767
G1 X112.049 Y98.148 E11.00503
G1 X112.048 Y99.600 E11.07747
G1 X112.049 Y99.948 E11.09483
G1 X112.048 Y101.401 E11.16732
G1 X112.049 Y101.749 E11.18468
G1 X112.048 Y103.200 E11.25707
G1 X112.049 Y103.548 E11.27444
G1 X112.048 Y105.001 E11.34693
G1 X112.049 Y105.349 E11.36429
G1 X112.048 Y106.800 E11.43668
G1 X112.049 Y107.148 E11.45404
G1 X112.048 Y108.600 E11.52648
G1 X112.049 Y108.948 E11.54384
G1 X112.048 Y110.401 E11.61633
G1 X112.049 Y110.749 E11.63370
G1 X112.048 Y112.200 E11.70609
G1 X112.050 Y112.866 E11.73931
G1 X112.049 Y113.400 E11.76595
G1 X110.850 Y113.400 E11.82577
G1 X110.850 Y88.400 E13.07303
G1 X89.150 Y88.400 E14.15564
G1 X89.150 Y113.400 E15.40290
G1 X87.951 Y113.400 E15.46272
G1 X87.951 Y110.399 E15.61244
G1 X87.950 Y110.051 E15.62980
G1 X87.951 Y108.598 E15.70229
G1 X87.950 Y108.250 E15.71965
G1 X87.951 Y106.798 E15.79209
G1 X87.950 Y106.450 E15.80946
G1 X87.951 Y104.999 E15.88185
G1 X87.950 Y104.651 E15.89921
G1 X87.951 Y103.198 E15.97170
G1 X87.950 Y102.850 E15.98906
G1 X87.951 Y101.399 E16.06145
G1 X87.950 Y101.051 E16.07881
G1 X87.951 Y99.598 E16.15130
G1 X87.950 Y99.250 E16.16867
G1 X87.951 Y97.798 E16.24111
G1 X87.950 Y97.450 E16.25847
G1 X87.951 Y95.999 E16.33086
G1 X87.950 Y95.651 E16.34822
G1 X87.951 Y94.198 E16.42071
G1 X87.950 Y93.850 E16.43807
G1 X87.951 Y92.399 E16.51046
G1 X87.950 Y92.051 E16.52783
G1 X87.951 Y90.598 E16.60032
G1 X87.950 Y90.250 E16.61768
G1 X87.951 Y88.798 E16.69012
G1 X87.949 Y88.132 E16.72335
G0 F9000 X87.551 Y87.000
;TYPE:WALL-OUTER
G1 F1800 X87.557 Y86.926 E16.72705
G1 X87.579 Y86.839 E16.73153
G1 X87.637 Y86.730 E16.73769
G1 X87.695 Y86.665 E16.74203
G1 X87.754 Y86.626 E16.74556
G1 X87.815 Y86.605 E16.74878
G1 X112.139 Y86.601 E17.96231
G1 X112.184 Y86.606 E17.96457
G1 X112.245 Y86.628 E17.96780
G1 X112.332 Y86.696 E17.97331
G1 X112.421 Y86.848 E17.98210
G1 X112.447 Y86.975 E17.98857
G1 X112.448 Y113.800 E19.32687
G1 X110.450 Y113.800 E19.42655
G1 X110.450 Y88.800 E20.67381
G1 X89.550 Y88.800 E21.71651
G1 X89.550 Y113.800 E22.96377
G1 X87.551 Y113.800 E23.06350
G1 X87.551 Y87.000 E24.40056
G0 F9000 X88.089 Y87.241
;TYPE:SKIN
G1 F1800 X89.108 Y88.259 E24.47242
G0 F9000 X89.009 Y88.727
G1 F1800 X88.089 Y87.807 E24.53733
G0 F9000 X88.089 Y88.372
G1 F1800 X89.009 Y89.292 E24.60224
G0 F9000 X89.009 Y89.858
G1 F1800 X88.089 Y88.938 E24.66715
G0 F9000 X88.089 Y89.504
G1 F1800 X89.009 Y90.424 E24.73206
G0 F9000 X89.009 Y90.989
G1 F1800 X88.089 Y90.069 E24.79697
G0 F9000 X88.089 Y90.635
G1 F1800 X89.009 Y91.555 E24.86188
G0 F9000 X89.009 Y92.121
G1 F1800 X88.089 Y91.201 E24.92679
G0 F9000 X88.089 Y91.766
G1 F1800 X89.009 Y92.686 E24.99170
G0 F9000 X89.009 Y93.252
G1 F1800 X88.089 Y92.332 E25.05661
G0 F9000 X88.089 Y92.898
G1 F1800 X89.009 Y93.818 E25.12153
G0 F9000 X89.009 Y94.383
G1 F1800 X88.089 Y93.463 E25.18644
G0 F9000 X88.089 Y94.029
G1 F1800 X89.009 Y94.949 E25.25135
G0 F9000 X89.009 Y95.515
G1 F1800 X88.089 Y94.595 E25.31626
G0 F9000 X88.089 Y95.161
G1 F1800 X89.009 Y96.080 E25.38113
G0 F9000 X89.009 Y96.646
G1 F1800 X88.089 Y95.726 E25.44605
G0 F9000 X88.089 Y96.292
G1 F1800 X89.009 Y97.212 E25.51096
G0 F9000 X89.009 Y97.778
G1 F1800 X88.089 Y96.858 E25.57587
G0 F9000 X88.089 Y97.423
G1 F1800 X89.009 Y98.343 E25.64078
G0 F9000 X89.009 Y98.909
G1 F1800 X88.089 Y97.989 E25.70569
G0 F9000 X88.089 Y98.555
G1 F1800 X89.009 Y99.475 E25.77060
G0 F9000 X89.009 Y100.040
G1 F1800 X88.089 Y99.120 E25.83551
G0 F9000 X88.089 Y99.686
G1 F1800 X89.009 Y100.606 E25.90042
G0 F9000 X89.009 Y101.172
G1 F1800 X88.089 Y100.252 E25.96533
G0 F9000 X88.089 Y100.817
G1 F1800 X89.009 Y101.737 E26.03024
G0 F9000 X89.009 Y102.303
G1 F1800 X88.089 Y101.383 E26.09516
G0 F9000 X88.089 Y101.949
G1 F1800 X89.009 Y102.869 E26.16007
G0 F9000 X89.009 Y103.434
G1 F1800 X88.089 Y102.514 E26.22498
G0 F9000 X88.089 Y103.080
G1 F1800 X89.009 Y104.000 E26.28989
G0 F9000 X89.009 Y104.566
G1 F1800 X88.089 Y103.646 E26.35480
G0 F9000 X88.089 Y104.211
G1 F1800 X89.009 Y105.131 E26.41971
G0 F9000 X89.009 Y105.697
G1 F1800 X88.089 Y104.777 E26.48462
G0 F9000 X88.089 Y105.343
G1 F1800 X89.009 Y106.263 E26.54953
G0 F9000 X89.009 Y106.828
G1 F1800 X88.089 Y105.909 E26.61441
G0 F9000 X88.089 Y106.474
G1 F1800 X89.009 Y107.394 E26.67932
G0 F9000 X89.009 Y107.960
G1 F1800 X88.089 Y107.040 E26.74423
G0 F9000 X88.089 Y107.606
G1 F1800 X89.009 Y108.526 E26.80914
G0 F9000 X89.009 Y109.091
G1 F1800 X88.089 Y108.171 E26.87405
G0 F9000 X88.089 Y108.737
G1 F1800 X89.009 Y109.657 E26.93896
G0 F9000 X89.009 Y110.223
G1 F1800 X88.089 Y109.303 E27.00387
G0 F9000 X88.089 Y109.868
G1 F1800 X89.009 Y110.788 E27.06878
G0 F9000 X89.009 Y111.354
G1 F1800 X88.089 Y110.434 E27.13370
G0 F9000 X88.089 Y111.000
G1 F1800 X89.009 Y111.920 E27.19861
G0 F9000 X89.009 Y112.485
G1 F1800 X88.089 Y111.565 E27.26352
G0 F9000 X88.089 Y112.131
G1 F1800 X89.009 Y113.051 E27.32843
G0 F9000 X88.652 Y113.259
G1 F1800 X88.089 Y112.697 E27.36812
G0 F9000 X89.209 Y88.459
G0 X110.791 Y88.459
G0 X110.989 Y112.969
G1 F1800 X111.279 Y113.259 E27.38858
G0 F9000 X111.845 Y113.259
G1 F1800 X110.989 Y112.403 E27.44897
G0 F9000 X110.989 Y111.838
G1 F1800 X111.908 Y112.757 E27.51381
G0 F9000 X111.908 Y112.191
G1 F1800 X110.989 Y111.272 E27.57865
G0 F9000 X110.989 Y110.706
G1 F1800 X111.908 Y111.625 E27.64349
G0 F9000 X111.908 Y111.060
G1 F1800 X110.989 Y110.141 E27.70833
G0 F9000 X110.989 Y109.575
G1 F1800 X111.908 Y110.494 E27.77317
G0 F9000 X111.908 Y109.928
G1 F1800 X110.989 Y109.009 E27.83801
G0 F9000 X110.989 Y108.444
G1 F1800 X111.908 Y109.362 E27.90282
G0 F9000 X111.908 Y108.796
G1 F1800 X110.989 Y107.878 E27.96763
G0 F9000 X110.989 Y107.312
G1 F1800 X111.908 Y108.231 E28.03247
G0 F9000 X111.908 Y107.665
G1 F1800 X110.989 Y106.746 E28.09731
G0 F9000 X110.989 Y106.181
G1 F1800 X111.908 Y107.099 E28.16211
G0 F9000 X111.908 Y106.534
G1 F1800 X110.989 Y105.615 E28.22695
G0 F9000 X110.989 Y105.049
G1 F1800 X111.908 Y105.968 E28.29179
G0 F9000 X111.907 Y105.402
G1 F1800 X110.989 Y104.484 E28.35656
G0 F9000 X110.989 Y103.918
G1 F1800 X111.907 Y104.836 E28.42133
G0 F9000 X111.907 Y104.270
G1 F1800 X110.989 Y103.352 E28.48610
G0 F9000 X110.989 Y102.787
G1 F1800 X111.907 Y103.704 E28.55084
G0 F9000 X111.907 Y103.139
G1 F1800 X110.989 Y102.221 E28.61561
G0 F9000 X110.989 Y101.655
G1 F1800 X111.907 Y102.573 E28.68038
G0 F9000 X111.906 Y102.007
G1 F1800 X110.989 Y101.090 E28.74508
G0 F9000 X110.989 Y100.524
G1 F1800 X111.906 Y101.441 E28.80977
G0 F9000 X111.906 Y100.875
G1 F1800 X110.989 Y99.958 E28.87447
G0 F9000 X110.989 Y99.393
G1 F1800 X111.906 Y100.310 E28.93917
G0 F9000 X111.906 Y99.744
G1 F1800 X110.989 Y98.827 E29.00387
G0 F9000 X110.989 Y98.261
G1 F1800 X111.906 Y99.178 E29.06857
G0 F9000 X111.906 Y98.613
G1 F1800 X110.989 Y97.695 E29.13331
G0 F9000 X110.989 Y97.130
G1 F1800 X111.906 Y98.046 E29.19797
G0 F9000 X111.906 Y97.481
G1 F1800 X110.989 Y96.564 E29.26267
G0 F9000 X110.989 Y95.998
G1 F1800 X111.906 Y96.915 E29.32737
G0 F9000 X111.906 Y96.349
G1 F1800 X110.989 Y95.433 E29.39203
G0 F9000 X110.989 Y94.867
G1 F1800 X111.906 Y95.783 E29.45670
G0 F9000 X111.906 Y95.218
G1 F1800 X110.989 Y94.301 E29.52140
G0 F9000 X110.989 Y93.736
G1 F1800 X111.906 Y94.652 E29.58606
G0 F9000 X111.905 Y94.086
G1 F1800 X110.989 Y93.170 E29.65069
G0 F9000 X110.989 Y92.604
G1 F1800 X111.905 Y93.520 E29.71532
G0 F9000 X111.905 Y92.954
G1 F1800 X110.989 Y92.039 E29.77991
G0 F9000 X110.989 Y91.473
G1 F1800 X111.905 Y92.389 E29.84454
G0 F9000 X111.905 Y91.823
G1 F1800 X110.989 Y90.907 E29.90917
G0 F9000 X110.989 Y90.342
G1 F1800 X111.905 Y91.257 E29.97376
G0 F9000 X111.904 Y90.691
G1 F1800 X110.989 Y89.776 E30.03832
G0 F9000 X110.989 Y89.210
G1 F1800 X111.904 Y90.125 E30.10288
G0 F9000 X111.904 Y89.560
G1 F1800 X110.989 Y88.645 E30.16744
G0 F9000 X110.604 Y88.259
G1 F1800 X109.486 Y87.142 E30.24628
G0 F9000 X108.922 Y87.143
G1 F1800 X110.038 Y88.259 E30.32502
G0 F9000 X109.472 Y88.259
G1 F1800 X108.356 Y87.143 E30.40376
G0 F9000 X107.790 Y87.143
G1 F1800 X108.907 Y88.259 E30.48254
G0 F9000 X108.341 Y88.259
G1 F1800 X107.225 Y87.143 E30.56128
G0 F9000 X106.659 Y87.143
G1 F1800 X107.775 Y88.259 E30.64002
G0 F9000 X107.210 Y88.259
G1 F1800 X106.094 Y87.143 E30.71876
G0 F9000 X105.529 Y87.144
G1 F1800 X106.644 Y88.259 E30.79743
G0 F9000 X106.078 Y88.259
G1 F1800 X104.963 Y87.144 E30.87610
G0 F9000 X104.398 Y87.145
G1 F1800 X105.513 Y88.259 E30.95473
G0 F9000 X104.947 Y88.259
G1 F1800 X103.832 Y87.145 E31.03336
G0 F9000 X103.267 Y87.145
G1 F1800 X104.381 Y88.259 E31.11196
G0 F9000 X103.816 Y88.259
G1 F1800 X102.702 Y87.145 E31.19056
G0 F9000 X102.136 Y87.145
G1 F1800 X103.250 Y88.259 E31.26916
G0 F9000 X102.684 Y88.259
G1 F1800 X101.570 Y87.145 E31.34776
G0 F9000 X101.005 Y87.146
G1 F1800 X102.118 Y88.259 E31.42629
G0 F9000 X101.553 Y88.259
G1 F1800 X100.440 Y87.146 E31.50481
G0 F9000 X99.875 Y87.147
G1 F1800 X100.987 Y88.259 E31.58327
G0 F9000 X100.421 Y88.259
G1 F1800 X99.309 Y87.147 E31.66173
G0 F9000 X98.743 Y87.147
G1 F1800 X99.856 Y88.259 E31.74022
G0 F9000 X99.290 Y88.259
G1 F1800 X98.178 Y87.148 E31.81864
G0 F9000 X97.613 Y87.148
G1 F1800 X98.724 Y88.259 E31.89703
G0 F9000 X98.159 Y88.259
G1 F1800 X97.047 Y87.148 E31.97545
G0 F9000 X96.482 Y87.148
G1 F1800 X97.593 Y88.259 E32.05384
G0 F9000 X97.027 Y88.259
G1 F1800 X95.916 Y87.148 E32.13223
G0 F9000 X95.351 Y87.149
G1 F1800 X96.462 Y88.259 E32.21058
G0 F9000 X95.896 Y88.259
G1 F1800 X94.786 Y87.149 E32.28890
G0 F9000 X94.220 Y87.149
G1 F1800 X95.330 Y88.259 E32.36721
G0 F9000 X94.765 Y88.259
G1 F1800 X93.655 Y87.150 E32.44549
G0 F9000 X93.089 Y87.150
G1 F1800 X94.199 Y88.259 E32.52378
G0 F9000 X93.633 Y88.259
G1 F1800 X92.524 Y87.150 E32.60202
G0 F9000 X91.959 Y87.150
G1 F1800 X93.067 Y88.259 E32.68023
G0 F9000 X92.502 Y88.259
G1 F1800 X91.393 Y87.150 E32.75848
G0 F9000 X90.828 Y87.151
G1 F1800 X91.936 Y88.259 E32.83665
G0 F9000 X91.370 Y88.259
G1 F1800 X90.262 Y87.151 E32.91483
G0 F9000 X89.697 Y87.151
G1 F1800 X90.805 Y88.259 E32.99300
G0 F9000 X90.239 Y88.259
G1 F1800 X89.132 Y87.152 E33.07111
G0 F9000 X88.566 Y87.152
G1 F1800 X89.673 Y88.259 E33.14921
G0 F9000 X110.052 Y87.142
G1 F1800 X111.904 Y88.994 E33.27988
G0 F9000 X111.904 Y88.428
G1 F1800 X110.617 Y87.141 E33.37069
G0 F9000 X111.183 Y87.141
G1 F1800 X111.904 Y87.862 E33.42156
G0 F9000 X111.904 Y87.297
G1 F1800 X111.749 Y87.141 E33.43253
;LAYER:1
M106 S63
G0 F9000 X112.139 Y87.542 Z0.500
;TYPE:WALL-INNER
G1 F2220 X112.137 Y88.799 E33.47434
G1 X112.138 Y89.970 E33.51328
G1 X112.137 Y90.599 E33.53421
G1 X112.138 Y91.770 E33.57315
G1 X112.137 Y92.400 E33.59411
G1 X112.138 Y93.570 E33.63302
G1 X112.137 Y94.199 E33.65394
G1 X112.138 Y95.370 E33.69289
G1 X112.137 Y96.000 E33.71384
G1 X112.138 Y97.170 E33.75276
G1 X112.137 Y97.799 E33.77368
G1 X112.138 Y98.970 E33.81263
G1 X112.137 Y99.599 E33.83355
G1 X112.138 Y100.770 E33.87249
G1 X112.137 Y101.400 E33.89345
G1 X112.138 Y102.570 E33.93236
G1 X112.137 Y103.199 E33.95328
G1 X112.138 Y104.370 E33.99223
G1 X112.137 Y105.000 E34.01319
G1 X112.138 Y106.170 E34.05210
G1 X112.137 Y106.799 E34.07302
G1 X112.138 Y107.970 E34.11197
G1 X112.137 Y108.599 E34.13289
G1 X112.138 Y109.770 E34.17184
G1 X112.137 Y110.400 E34.19279
G1 X112.138 Y111.570 E34.23170
G1 X112.137 Y112.199 E34.25262
G1 X112.138 Y113.400 E34.29257
G1 X110.850 Y113.400 E34.33541
G1 X110.850 Y88.400 E35.16691
G1 X89.150 Y88.400 E35.88866
G1 X89.150 Y113.400 E36.72016
G1 X87.860 Y113.400 E36.76307
G1 X87.862 Y112.199 E36.80301
G1 X87.861 Y111.029 E36.84193
G1 X87.862 Y110.400 E36.86285
G1 X87.861 Y109.229 E36.90179
G1 X87.862 Y108.599 E36.92275
G1 X87.861 Y107.428 E36.96170
G1 X87.862 Y106.799 E36.98262
G1 X87.861 Y105.629 E37.02153
G1 X87.862 Y105.000 E37.04245
G1 X87.861 Y103.829 E37.08140
G1 X87.862 Y103.199 E37.10235
G1 X87.861 Y102.029 E37.14127
G1 X87.862 Y101.400 E37.16219
G1 X87.861 Y100.229 E37.20114
G1 X87.862 Y99.599 E37.22209
G1 X87.861 Y98.428 E37.26104
G1 X87.862 Y97.799 E37.28196
G1 X87.861 Y96.629 E37.32087
G1 X87.862 Y96.000 E37.34179
G1 X87.861 Y94.829 E37.38074
G1 X87.862 Y94.199 E37.40169
