;Generated with Cura_SteamEngine 15.01
; Default start code
G28 ; Home extruder
G1 Z15 F100
M107 ; Turn off fan
G90 ; Absolute positioning
M82 ; Extruder in absolute mode
M190 S80
; Activate all used extruder
M104 T0 S220
G92 E0 ; Reset extruder position
; Wait for all used extruders to reach temperature
M109 T0 S220
;Layer count: 40
;LAYER:0
M107
G0 F9000 X99.500 Y58.400 Z0.300
;TYPE:SKIRT
G1 F1800 X108.542 Y58.400 E0.45111
G1 X108.541 Y58.900 E0.47605
G1 X110.140 Y58.901 E0.55583
G1 X110.497 Y58.900 E0.57364
G1 X111.963 Y58.901 E0.64678
G1 X112.320 Y58.900 E0.66459
G1 X113.787 Y58.901 E0.73778
G1 X114.144 Y58.900 E0.75559
G1 X115.610 Y58.901 E0.82873
G1 X115.967 Y58.900 E0.84654
G1 X117.434 Y58.901 E0.91973
G1 X117.791 Y58.900 E0.93754
G1 X119.257 Y58.901 E1.01068
G1 X119.614 Y58.900 E1.02849
G1 X121.081 Y58.901 E1.10168
G1 X121.438 Y58.900 E1.11949
G1 X122.904 Y58.901 E1.19263
G1 X123.261 Y58.900 E1.21044
G1 X124.728 Y58.901 E1.28363
G1 X125.085 Y58.900 E1.30144
G1 X126.551 Y58.901 E1.37458
G1 X126.908 Y58.900 E1.39239
G1 X128.375 Y58.901 E1.46558
G1 X128.732 Y58.900 E1.48339
G1 X130.198 Y58.901 E1.55653
G1 X130.555 Y58.900 E1.57434
G1 X132.022 Y58.901 E1.64753
G1 X132.379 Y58.900 E1.66534
G1 X133.845 Y58.901 E1.73848
G1 X134.202 Y58.900 E1.75629
G1 X135.669 Y58.901 E1.82948
G1 X136.351 Y58.899 E1.86350
G1 X137.603 Y58.901 E1.92596
G1 X138.423 Y58.953 E1.96696
G1 X139.250 Y59.117 E2.00902
G1 X140.178 Y59.533 E2.05975
G1 X140.835 Y60.026 E2.10073
G1 X141.553 Y60.951 E2.15915
G1 X141.860 Y62.064 E2.21676
G1 X141.866 Y65.612 E2.39377
G1 X141.863 Y66.909 E2.45847
G1 X141.864 Y70.937 E2.65943
G1 X141.863 Y71.809 E2.70294
G1 X141.867 Y73.121 E2.76839
G1 X141.867 Y74.029 E2.81369
G1 X141.400 Y75.324 E2.88237
G1 X141.170 Y75.963 E2.91626
G1 X140.993 Y76.454 E2.94229
G1 X133.348 Y97.662 E4.06701
G1 X133.124 Y98.223 E4.09715
G1 X132.780 Y98.753 E4.12867
G1 X132.408 Y99.170 E4.15655
G1 X131.527 Y99.901 E4.21366
G1 X132.022 Y99.901 E4.23836
G1 X132.379 Y99.900 E4.25617
G1 X133.845 Y99.901 E4.32931
G1 X134.202 Y99.900 E4.34712
G1 X135.669 Y99.901 E4.42031
G1 X136.351 Y99.899 E4.45434
G1 X137.603 Y99.901 E4.51680
G1 X138.423 Y99.953 E4.55779
G1 X139.250 Y100.117 E4.59985
G1 X140.178 Y100.533 E4.65059
G1 X140.835 Y101.026 E4.69157
G1 X141.553 Y101.951 E4.74999
G1 X141.860 Y103.064 E4.80759
G1 X141.866 Y106.612 E4.98460
G1 X141.863 Y107.909 E5.04931
G1 X141.864 Y111.937 E5.25027
G1 X141.863 Y112.809 E5.29377
G1 X141.867 Y114.121 E5.35923
G1 X141.867 Y115.029 E5.40453
G1 X141.400 Y116.324 E5.47321
G1 X141.170 Y116.963 E5.50709
G1 X140.993 Y117.454 E5.53313
G1 X133.348 Y138.662 E6.65785
G1 X133.124 Y139.223 E6.68798
G1 X132.780 Y139.753 E6.71951
G1 X132.408 Y140.170 E6.74739
G1 X131.288 Y141.099 E6.81998
G1 X129.389 Y141.099 E6.91472
G1 X127.936 Y141.098 E6.98722
G1 X127.608 Y141.099 E7.00358
G1 X126.150 Y141.098 E7.07632
G1 X125.822 Y141.099 E7.09268
G1 X124.365 Y141.098 E7.16537
G1 X124.037 Y141.099 E7.18174
G1 X122.579 Y141.098 E7.25448
G1 X122.251 Y141.099 E7.27084
G1 X120.793 Y141.098 E7.34358
G1 X120.465 Y141.099 E7.35995
G1 X119.008 Y141.098 E7.43264
G1 X118.680 Y141.099 E7.44900
G1 X117.222 Y141.098 E7.52174
G1 X116.894 Y141.099 E7.53810
G1 X115.436 Y141.098 E7.61084
G1 X115.108 Y141.099 E7.62721
G1 X113.649 Y141.098 E7.70000
G1 X113.300 Y141.099 E7.71741
G1 X111.864 Y141.098 E7.78905
G1 X111.515 Y141.099 E7.80646
G1 X110.078 Y141.098 E7.87816
G1 X109.729 Y141.099 E7.89557
G1 X108.541 Y141.098 E7.95484
G1 X108.541 Y141.600 E7.97988
G1 X102.929 Y141.600 E8.25987
G1 X99.500 Y139.974 E8.44920
G1 X99.500 Y133.315 E8.78142
G1 X99.300 Y133.115 E8.79553
G1 X99.300 Y107.085 E10.09417
G1 X99.500 Y106.885 E10.10828
G1 X99.500 Y100.826 E10.41057
G1 X101.453 Y99.900 E10.51840
G1 X99.500 Y98.974 E10.62623
G1 X99.500 Y92.315 E10.95845
G1 X99.300 Y92.115 E10.97256
G1 X99.300 Y66.085 E12.27120
G1 X99.500 Y65.885 E12.28531
G1 X99.500 Y58.400 E12.65874
G0 F9000 X96.835 Y60.026
G1 F1800 X97.553 Y60.951 E12.71716
G1 X97.860 Y62.064 E12.77476
G1 X97.866 Y65.612 E12.95177
G1 X97.863 Y66.909 E13.01648
G1 X97.864 Y70.937 E13.21744
G1 X97.863 Y71.809 E13.26094
G1 X97.867 Y73.121 E13.32640
G1 X97.867 Y74.029 E13.37170
G1 X97.400 Y75.324 E13.44038
G1 X97.170 Y75.963 E13.47426
G1 X96.993 Y76.454 E13.50030
G1 X89.348 Y97.662 E14.62502
G1 X89.124 Y98.223 E14.65516
G1 X88.780 Y98.753 E14.68668
G1 X88.408 Y99.170 E14.71456
G1 X87.527 Y99.901 E14.77167
G1 X88.022 Y99.901 E14.79637
G1 X88.379 Y99.900 E14.81418
G1 X89.845 Y99.901 E14.88732
G1 X90.202 Y99.900 E14.90513
G1 X91.669 Y99.901 E14.97832
G1 X92.351 Y99.899 E15.01234
G1 X93.603 Y99.901 E15.07481
G1 X94.423 Y99.953 E15.11580
G1 X95.250 Y100.117 E15.15786
G1 X96.178 Y100.533 E15.20860
G1 X96.835 Y101.026 E15.24958
G1 X97.553 Y101.951 E15.30800
G1 X97.860 Y103.064 E15.36560
G1 X97.866 Y106.612 E15.54261
G1 X97.863 Y107.909 E15.60732
G1 X97.864 Y111.937 E15.80828
G1 X97.863 Y112.809 E15.85178
G1 X97.867 Y114.121 E15.91724
G1 X97.867 Y115.029 E15.96254
G1 X97.400 Y116.324 E16.03122
G1 X97.170 Y116.963 E16.06510
G1 X96.993 Y117.454 E16.09114
G1 X89.348 Y138.662 E17.21585
G1 X89.124 Y139.223 E17.24599
G1 X88.780 Y139.753 E17.27752
G1 X88.408 Y140.170 E17.30539
G1 X87.288 Y141.099 E17.37799
G1 X85.389 Y141.099 E17.47273
G1 X83.936 Y141.098 E17.54522
G1 X83.608 Y141.099 E17.56159
G1 X82.150 Y141.098 E17.63433
G1 X81.822 Y141.099 E17.65069
G1 X80.365 Y141.098 E17.72338
G1 X80.037 Y141.099 E17.73975
G1 X78.579 Y141.098 E17.81249
G1 X78.251 Y141.099 E17.82885
G1 X76.793 Y141.098 E17.90159
G1 X76.465 Y141.099 E17.91795
G1 X75.008 Y141.098 E17.99064
G1 X74.680 Y141.099 E18.00701
G1 X73.222 Y141.098 E18.07975
G1 X72.894 Y141.099 E18.09611
G1 X71.436 Y141.098 E18.16885
G1 X71.108 Y141.099 E18.18522
G1 X69.649 Y141.098 E18.25801
G1 X69.300 Y141.099 E18.27542
G1 X67.864 Y141.098 E18.34706
G1 X67.515 Y141.099 E18.36447
G1 X66.078 Y141.098 E18.43616
G1 X65.729 Y141.099 E18.45358
G1 X64.541 Y141.098 E18.51285
G1 X64.541 Y141.600 E18.53789
G1 X58.929 Y141.600 E18.81787
G1 X55.500 Y139.974 E19.00721
G1 X55.500 Y133.315 E19.33943
G1 X55.300 Y133.115 E19.35354
G1 X55.300 Y107.085 E20.65218
G1 X55.500 Y106.885 E20.66629
G1 X55.500 Y100.826 E20.96857
G1 X57.453 Y99.900 E21.07641
G1 X55.500 Y98.974 E21.18424
G1 X55.500 Y92.315 E21.51646
G1 X55.300 Y92.115 E21.53057
G1 X55.300 Y66.085 E22.82921
G1 X55.500 Y65.885 E22.84332
G1 X55.500 Y58.400 E23.21675
G1 X64.542 Y58.400 E23.66786
G1 X64.541 Y58.900 E23.69280
G1 X66.140 Y58.901 E23.77258
G1 X66.497 Y58.900 E23.79039
G1 X67.963 Y58.901 E23.86353
G1 X68.320 Y58.900 E23.88134
G1 X69.787 Y58.901 E23.95453
G1 X70.144 Y58.900 E23.97234
G1 X71.610 Y58.901 E24.04548
G1 X71.967 Y58.900 E24.06329
G1 X73.434 Y58.901 E24.13648
G1 X73.791 Y58.900 E24.15429
G1 X75.257 Y58.901 E24.22743
G1 X75.614 Y58.900 E24.24524
G1 X77.081 Y58.901 E24.31843
G1 X77.438 Y58.900 E24.33624
G1 X78.904 Y58.901 E24.40938
G1 X79.261 Y58.900 E24.42719
G1 X80.728 Y58.901 E24.50038
G1 X81.085 Y58.900 E24.51819
G1 X82.551 Y58.901 E24.59133
G1 X82.908 Y58.900 E24.60914
G1 X84.375 Y58.901 E24.68233
G1 X84.732 Y58.900 E24.70014
G1 X86.198 Y58.901 E24.77328
G1 X86.555 Y58.900 E24.79109
G1 X88.022 Y58.901 E24.86428
G1 X88.379 Y58.900 E24.88209
G1 X89.845 Y58.901 E24.95523
G1 X90.202 Y58.900 E24.97304
G1 X91.669 Y58.901 E25.04623
G1 X92.351 Y58.899 E25.08025
G1 X93.603 Y58.901 E25.14271
G1 X94.423 Y58.953 E25.18371
G1 X95.250 Y59.117 E25.22577
G1 X96.178 Y59.533 E25.27651
G1 X96.835 Y60.026 E25.31749
G1 F2400 E21.31749
G0 F9000 X93.929 Y62.729
;TYPE:WALL-INNER
G1 F2400 E25.31749
G1 F1800 X94.061 Y62.756 E25.32421
G1 X94.066 Y65.610 E25.46660
G1 X94.063 Y66.901 E25.53100
G1 X94.063 Y71.806 E25.77571
G1 X94.067 Y73.126 E25.84157
G1 X94.067 Y73.366 E25.85354
G1 X85.800 Y96.299 E27.06975
G1 X83.927 Y96.298 E27.16319
G1 X83.602 Y96.299 E27.17940
G1 X82.141 Y96.298 E27.25229
G1 X81.816 Y96.299 E27.26851
G1 X80.356 Y96.298 E27.34135
G1 X80.031 Y96.299 E27.35756
G1 X78.570 Y96.298 E27.43045
G1 X78.245 Y96.299 E27.44667
G1 X76.784 Y96.298 E27.51956
G1 X76.459 Y96.299 E27.53577
G1 X74.999 Y96.298 E27.60861
G1 X74.674 Y96.299 E27.62482
G1 X73.213 Y96.298 E27.69771
G1 X72.888 Y96.299 E27.71393
G1 X71.427 Y96.298 E27.78682
G1 X71.102 Y96.299 E27.80303
G1 X69.641 Y96.298 E27.87592
G1 X69.294 Y96.299 E27.89323
G1 X67.856 Y96.298 E27.96498
G1 X67.509 Y96.299 E27.98229
G1 X66.070 Y96.298 E28.05408
G1 X65.723 Y96.299 E28.07139
G1 X64.284 Y96.298 E28.14318
G1 X63.621 Y96.300 E28.17626
G1 X62.523 Y96.298 E28.23104
G1 X62.070 Y96.270 E28.25368
G1 X61.938 Y96.243 E28.26041
G1 X61.933 Y92.437 E28.45029
G1 X61.936 Y90.750 E28.53445
G1 X61.938 Y62.754 E29.93118
G1 X62.278 Y62.708 E29.94830
G1 X63.648 Y62.700 E30.01665
G1 X66.148 Y62.701 E30.14137
G1 X66.502 Y62.700 E30.15903
G1 X67.971 Y62.701 E30.23232
G1 X68.325 Y62.700 E30.24998
G1 X69.795 Y62.701 E30.32332
G1 X70.149 Y62.700 E30.34098
G1 X71.618 Y62.701 E30.41427
G1 X71.972 Y62.700 E30.43193
G1 X73.442 Y62.701 E30.50527
G1 X73.796 Y62.700 E30.52293
G1 X75.265 Y62.701 E30.59622
G1 X75.619 Y62.700 E30.61388
G1 X76.971 Y62.701 E30.68134
G1 X76.144 Y62.802 E30.72290
G1 X75.168 Y63.007 E30.77266
G1 X74.215 Y63.299 E30.82238
G1 X73.291 Y63.672 E30.87210
G1 X72.403 Y64.125 E30.92183
G1 X71.563 Y64.650 E30.97125
G1 X71.138 Y64.958 E30.99744
G1 X70.385 Y65.583 E31.04626
G1 X69.677 Y66.283 E31.09593
G1 X69.035 Y67.038 E31.14537
G1 X68.723 Y67.459 E31.17152
G1 X68.197 Y68.277 E31.22004
G1 X67.944 Y68.736 E31.24618
G1 X67.530 Y69.615 E31.29466
G1 X67.340 Y70.103 E31.32078
G1 X67.043 Y71.035 E31.36959
G1 X66.826 Y72.009 E31.41937
G1 X66.695 Y72.990 E31.46875
G1 X66.660 Y73.506 E31.49455
G1 X66.650 Y74.012 E31.51980
G1 X66.692 Y74.989 E31.56859
G1 X66.823 Y75.978 E31.61836
G1 X67.039 Y76.951 E31.66808
G1 X67.341 Y77.902 E31.71786
G1 X67.724 Y78.821 E31.76754
G1 X68.187 Y79.705 E31.81732
G1 X68.725 Y80.544 E31.86705
G1 X69.336 Y81.333 E31.91683
G1 X70.013 Y82.065 E31.96658
G1 X70.752 Y82.734 E32.01631
G1 X71.546 Y83.337 E32.06605
G1 X72.390 Y83.867 E32.11577
G1 X73.278 Y84.321 E32.16553
G1 X74.202 Y84.695 E32.21526
G1 X75.155 Y84.987 E32.26499
G1 X76.131 Y85.194 E32.31476
G1 X77.121 Y85.316 E32.36453
G1 X78.118 Y85.350 E32.41430
G1 X79.114 Y85.296 E32.46406
G1 X80.100 Y85.155 E32.51375
G1 X81.072 Y84.927 E32.56356
G1 X82.019 Y84.616 E32.61329
G1 X82.934 Y84.222 E32.66299
G1 X83.812 Y83.749 E32.71275
G1 X84.640 Y83.205 E32.76218
G1 X85.058 Y82.888 E32.78835
G1 X85.797 Y82.247 E32.83715
G1 X86.491 Y81.532 E32.88687
G1 X87.120 Y80.756 E32.93670
G1 X87.672 Y79.935 E32.98606
G1 X87.936 Y79.483 E33.01217
G1 X88.373 Y78.608 E33.06097
G1 X88.737 Y77.678 E33.11080
G1 X89.018 Y76.722 E33.16051
G1 X89.215 Y75.744 E33.21028
G1 X89.324 Y74.753 E33.26002
G1 X89.348 Y73.757 E33.30972
G1 X89.283 Y72.768 E33.35917
G1 X89.215 Y72.250 E33.38524
G1 X89.022 Y71.289 E33.43414
G1 X88.741 Y70.333 E33.48385
G1 X88.382 Y69.410 E33.53326
G1 X88.158 Y68.936 E33.55942
G1 X87.684 Y68.081 E33.60819
G1 X87.128 Y67.253 E33.65795
G1 X86.500 Y66.478 E33.70771
G1 X85.812 Y65.766 E33.75711
G1 X85.423 Y65.414 E33.78328
G1 X84.662 Y64.811 E33.83172
G1 X84.231 Y64.512 E33.85789
G1 X83.391 Y64.010 E33.90671
G1 X82.493 Y63.576 E33.95647
G1 X81.560 Y63.222 E34.00626
G1 X80.600 Y62.951 E34.05603
G1 X79.621 Y62.766 E34.10573
G1 X78.966 Y62.701 E34.13857
G1 X79.266 Y62.700 E34.15354
G1 X80.736 Y62.701 E34.22688
G1 X81.090 Y62.700 E34.24454
G1 X82.559 Y62.701 E34.31783
G1 X82.913 Y62.700 E34.33549
G1 X84.383 Y62.701 E34.40883
G1 X84.737 Y62.700 E34.42649
G1 X86.206 Y62.701 E34.49978
G1 X86.560 Y62.700 E34.51744
G1 X88.030 Y62.701 E34.59078
G1 X88.384 Y62.700 E34.60844
G1 X89.853 Y62.701 E34.68173
G1 X90.207 Y62.700 E34.69939
G1 X91.677 Y62.701 E34.77273
G1 X92.354 Y62.699 E34.80650
G1 X93.477 Y62.701 E34.86253
G1 X93.929 Y62.729 E34.88512
G0 F9000 X93.487 Y62.301
;TYPE:WALL-OUTER
G1 F1800 X93.987 Y62.332 E34.91012
G1 X94.211 Y62.377 E34.92151
G1 X94.433 Y62.476 E34.93364
G1 X94.455 Y62.505 E34.93546
G1 X94.467 Y73.435 E35.48076
G1 X86.170 Y96.452 E36.70141
G1 X86.091 Y96.651 E36.71209
G1 X86.056 Y96.699 E36.71506
G1 X62.513 Y96.698 E37.88962
G1 X62.012 Y96.667 E37.91466
G1 X61.785 Y96.621 E37.92622
G1 X61.619 Y96.554 E37.93515
G1 X61.564 Y96.520 E37.93838
G1 X61.545 Y96.495 E37.93994
G1 X61.538 Y96.471 E37.94119
G1 X61.538 Y62.528 E39.63461
G1 X61.544 Y62.505 E39.63580
G1 X61.563 Y62.480 E39.63736
G1 X61.644 Y62.432 E39.64206
G1 X61.806 Y62.372 E39.65068
G1 X62.257 Y62.308 E39.67341
G1 X63.646 Y62.300 E39.74271
G1 X93.487 Y62.301 E41.23148
G0 F9000 X93.481 Y62.600
G0 X87.038 Y67.302
G0 X86.806 Y67.491
G1 F1800 X86.200 Y66.743 E41.27951
G1 X85.533 Y66.053 E41.32739
G1 X85.164 Y65.719 E41.35222
G1 X84.423 Y65.132 E41.39938
G1 X84.014 Y64.849 E41.42419
G1 X83.201 Y64.363 E41.47145
G1 X82.334 Y63.944 E41.51949
G1 X81.435 Y63.602 E41.56748
G1 X80.509 Y63.341 E41.61547
G1 X79.564 Y63.162 E41.66346
G1 X78.609 Y63.067 E41.71134
G1 X78.113 Y63.050 E41.73610
G1 X77.165 Y63.080 E41.78342
G1 X76.209 Y63.197 E41.83147
G1 X75.268 Y63.395 E41.87944
G1 X74.348 Y63.676 E41.92744
G1 X73.457 Y64.036 E41.97538
G1 X72.600 Y64.474 E42.02340
G1 X71.786 Y64.982 E42.07127
G1 X70.654 Y65.880 E42.14335
G1 X69.970 Y66.555 E42.19130
G1 X69.348 Y67.287 E42.23922
G1 X68.541 Y68.482 E42.31116
G1 X68.301 Y68.918 E42.33599
G1 X67.898 Y69.773 E42.38315
G1 X67.717 Y70.236 E42.40795
G1 X67.430 Y71.140 E42.45527
G1 X67.220 Y72.079 E42.50327
G1 X67.093 Y73.030 E42.55114
G1 X67.060 Y73.523 E42.57579
G1 X67.050 Y74.007 E42.59994
G1 X67.091 Y74.954 E42.64723
G1 X67.217 Y75.908 E42.69524
G1 X67.426 Y76.847 E42.74324
G1 X67.717 Y77.764 E42.79123
G1 X68.087 Y78.651 E42.83918
G1 X68.533 Y79.504 E42.88720
G1 X69.052 Y80.313 E42.93516
G1 X69.641 Y81.074 E42.98317
G1 X70.294 Y81.780 E43.03115
G1 X71.007 Y82.426 E43.07915
G1 X71.774 Y83.008 E43.12718
G1 X72.588 Y83.519 E43.17513
G1 X73.445 Y83.957 E43.22315
G1 X74.336 Y84.318 E43.27111
G1 X75.256 Y84.600 E43.31912
G1 X76.197 Y84.799 E43.36710
G1 X77.152 Y84.917 E43.41511
G1 X78.114 Y84.949 E43.46313
G1 X79.075 Y84.897 E43.51114
G1 X80.026 Y84.762 E43.55907
G1 X80.963 Y84.542 E43.60708
G1 X81.877 Y84.241 E43.65509
G1 X82.760 Y83.861 E43.70305
G1 X83.607 Y83.405 E43.75104
G1 X84.409 Y82.878 E43.79892
G1 X84.806 Y82.577 E43.82378
G1 X85.522 Y81.956 E43.87106
G1 X86.192 Y81.266 E43.91904
G1 X86.798 Y80.518 E43.96707
G1 X87.333 Y79.722 E44.01492
G1 X87.584 Y79.293 E44.03972
G1 X88.007 Y78.445 E44.08700
G1 X88.358 Y77.549 E44.13501
G1 X88.629 Y76.626 E44.18300
G1 X88.820 Y75.683 E44.23100
G1 X88.925 Y74.726 E44.27903
G1 X88.948 Y73.765 E44.32699
G1 X88.885 Y72.807 E44.37489
G1 X88.820 Y72.315 E44.39965
G1 X88.633 Y71.385 E44.44697
G1 X88.362 Y70.462 E44.49497
G1 X88.014 Y69.568 E44.54283
G1 X87.802 Y69.118 E44.56764
G1 X87.343 Y68.290 E44.61488
G1 X86.806 Y67.491 E44.66291
G0 F9000 X87.186 Y67.105
;TYPE:SKIN
G1 F1800 X93.793 Y73.711 E45.12903
G0 F9000 X93.643 Y74.127
G1 F1800 X88.149 Y68.633 E45.51666
G0 F9000 X88.639 Y69.688
G1 F1800 X93.493 Y74.543 E45.85917
G0 F9000 X93.343 Y74.958
G1 F1800 X88.954 Y70.569 E46.16884
G0 F9000 X89.177 Y71.358
G1 F1800 X93.193 Y75.374 E46.45219
G0 F9000 X93.043 Y75.790
G1 F1800 X89.318 Y72.065 E46.71501
G0 F9000 X89.418 Y72.730
G1 F1800 X92.894 Y76.206 E46.96026
G0 F9000 X92.744 Y76.622
G1 F1800 X89.460 Y73.338 E47.19196
G0 F9000 X89.483 Y73.927
G1 F1800 X92.594 Y77.037 E47.41143
G0 F9000 X92.444 Y77.453
G1 F1800 X89.470 Y74.479 E47.62126
G0 F9000 X89.435 Y75.010
G1 F1800 X92.294 Y77.869 E47.82298
G0 F9000 X92.144 Y78.285
G1 F1800 X89.379 Y75.520 E48.01806
G0 F9000 X89.303 Y76.009
G1 F1800 X91.994 Y78.700 E48.20793
G0 F9000 X91.844 Y79.116
G1 F1800 X89.207 Y76.479 E48.39398
G0 F9000 X89.098 Y76.936
G1 F1800 X91.694 Y79.532 E48.57714
G0 F9000 X91.545 Y79.949
G1 F1800 X88.970 Y77.373 E48.75886
G0 F9000 X88.835 Y77.805
G1 F1800 X91.395 Y80.364 E48.93944
G0 F9000 X91.245 Y80.780
G1 F1800 X88.676 Y78.211 E49.12070
G0 F9000 X88.517 Y78.618
G1 F1800 X91.095 Y81.196 E49.30259
G0 F9000 X90.945 Y81.612
G1 F1800 X88.332 Y78.998 E49.48699
G0 F9000 X88.144 Y79.376
G1 F1800 X90.796 Y82.027 E49.67407
