;Generated with Cura_SteamEngine 15.01
; Default start code
G28 ; Home extruder
G1 Z15 F100
M107 ; Turn off fan
G90 ; Absolute positioning
M82 ; Extruder in absolute mode
M190 S85
; Activate all used extruder
M104 T0 S240
G92 E0 ; Reset extruder position
; Wait for all used extruders to reach temperature
M109 T0 S240
;Layer count: 40
;LAYER:0
M107
G0 F9000 X57.732 Y58.800 Z0.300
;TYPE:SKIRT
G1 F1800 X98.269 Y58.800 E2.02240
G1 X98.276 Y66.417 E2.40241
G1 X98.275 Y72.000 E2.68095
G1 X98.276 Y72.303 E2.69607
G1 X98.275 Y77.001 E2.93045
G1 X98.276 Y77.303 E2.94552
G1 X98.275 Y82.001 E3.17990
G1 X98.276 Y82.303 E3.19497
G1 X98.275 Y87.001 E3.42935
G1 X98.276 Y87.303 E3.44442
G1 X98.275 Y92.001 E3.67880
G1 X98.277 Y92.578 E3.70759
G1 X98.268 Y99.800 E4.06790
G1 X98.269 Y99.800 E4.06795
G1 X98.276 Y107.417 E4.44796
G1 X98.275 Y113.000 E4.72650
G1 X98.276 Y113.303 E4.74162
G1 X98.275 Y118.001 E4.97600
G1 X98.276 Y118.303 E4.99107
G1 X98.275 Y123.001 E5.22545
G1 X98.276 Y123.303 E5.24052
G1 X98.275 Y128.001 E5.47490
G1 X98.276 Y128.303 E5.48997
G1 X98.275 Y133.001 E5.72435
G1 X98.277 Y133.578 E5.75314
G1 X98.267 Y141.200 E6.13340
G1 X57.730 Y141.200 E8.15580
G1 X57.723 Y133.583 E8.53582
G1 X57.724 Y128.000 E8.81435
G1 X57.723 Y127.697 E8.82947
G1 X57.724 Y122.999 E9.06385
G1 X57.723 Y122.697 E9.07892
G1 X57.724 Y117.999 E9.31331
G1 X57.723 Y117.697 E9.32837
G1 X57.724 Y112.999 E9.56276
G1 X57.723 Y112.697 E9.57782
G1 X57.724 Y107.999 E9.81221
G1 X57.722 Y107.422 E9.84099
G1 X57.731 Y100.200 E10.20130
G1 X57.730 Y100.200 E10.20135
G1 X57.723 Y92.583 E10.58137
G1 X57.724 Y87.000 E10.85990
G1 X57.723 Y86.697 E10.87502
G1 X57.724 Y81.999 E11.10940
G1 X57.723 Y81.697 E11.12447
G1 X57.724 Y76.999 E11.35885
G1 X57.723 Y76.697 E11.37392
G1 X57.724 Y71.999 E11.60831
G1 X57.723 Y71.697 E11.62337
G1 X57.724 Y66.999 E11.85776
G1 X57.722 Y66.422 E11.88654
G1 X57.732 Y58.800 E12.26681
G0 F9000 X101.732 Y58.800
G1 F1800 X142.269 Y58.800 E14.28921
G1 X142.276 Y66.417 E14.66922
G1 X142.275 Y72.000 E14.94776
G1 X142.276 Y72.303 E14.96287
G1 X142.275 Y77.001 E15.19726
G1 X142.276 Y77.303 E15.21233
G1 X142.275 Y82.001 E15.44671
G1 X142.276 Y82.303 E15.46178
G1 X142.275 Y87.001 E15.69616
G1 X142.276 Y87.303 E15.71123
G1 X142.275 Y92.001 E15.94561
G1 X142.277 Y92.578 E15.97440
G1 X142.268 Y99.800 E16.33471
G1 X142.269 Y99.800 E16.33476
G1 X142.276 Y107.417 E16.71477
G1 X142.275 Y113.000 E16.99331
G1 X142.276 Y113.303 E17.00842
G1 X142.275 Y118.001 E17.24281
G1 X142.276 Y118.303 E17.25787
G1 X142.275 Y123.001 E17.49226
G1 X142.276 Y123.303 E17.50733
G1 X142.275 Y128.001 E17.74171
G1 X142.276 Y128.303 E17.75678
G1 X142.275 Y133.001 E17.99116
G1 X142.277 Y133.578 E18.01995
G1 X142.267 Y141.200 E18.40021
G1 X101.730 Y141.200 E20.42261
G1 X101.723 Y133.583 E20.80262
G1 X101.724 Y128.000 E21.08116
G1 X101.723 Y127.697 E21.09628
G1 X101.724 Y122.999 E21.33066
G1 X101.723 Y122.697 E21.34573
G1 X101.724 Y117.999 E21.58011
G1 X101.723 Y117.697 E21.59518
G1 X101.724 Y112.999 E21.82956
G1 X101.723 Y112.697 E21.84463
G1 X101.724 Y107.999 E22.07902
G1 X101.722 Y107.422 E22.10780
G1 X101.731 Y100.200 E22.46811
G1 X101.730 Y100.200 E22.46816
G1 X101.723 Y92.583 E22.84817
G1 X101.724 Y87.000 E23.12671
G1 X101.723 Y86.697 E23.14183
G1 X101.724 Y81.999 E23.37621
G1 X101.723 Y81.697 E23.39128
G1 X101.724 Y76.999 E23.62566
G1 X101.723 Y76.697 E23.64073
G1 X101.724 Y71.999 E23.87511
G1 X101.723 Y71.697 E23.89018
G1 X101.724 Y66.999 E24.12456
G1 X101.722 Y66.422 E24.15335
G1 X101.732 Y58.800 E24.53361
G1 F2400 E20.53361
G0 F9000 X94.472 Y62.600
;TYPE:WALL-INNER
G1 F2400 E24.53361
G1 F1800 X94.475 Y72.001 E25.00263
G1 X94.476 Y72.308 E25.01795
G1 X94.475 Y77.001 E25.25208
G1 X94.476 Y77.308 E25.26740
G1 X94.475 Y82.001 E25.50153
G1 X94.476 Y82.308 E25.51685
G1 X94.475 Y87.001 E25.75099
G1 X94.476 Y87.308 E25.76630
G1 X94.475 Y92.001 E26.00044
G1 X94.477 Y92.580 E26.02932
G1 X94.472 Y96.400 E26.21990
G1 X61.527 Y96.400 E27.86354
G1 X61.524 Y86.999 E28.33255
G1 X61.523 Y86.692 E28.34787
G1 X61.524 Y81.999 E28.58201
G1 X61.523 Y81.692 E28.59732
G1 X61.524 Y76.999 E28.83146
G1 X61.523 Y76.692 E28.84677
G1 X61.524 Y71.999 E29.08091
G1 X61.523 Y71.692 E29.09622
G1 X61.524 Y66.999 E29.33036
G1 X61.522 Y66.420 E29.35925
G1 X61.527 Y62.600 E29.54983
G1 X94.472 Y62.600 E31.19346
G0 F9000 X87.457 Y67.631
G1 F1800 X86.864 Y66.832 E31.24310
G1 X86.525 Y66.431 E31.26930
G1 X85.846 Y65.730 E31.31799
G1 X85.456 Y65.376 E31.34426
G1 X84.685 Y64.765 E31.39334
G1 X83.850 Y64.216 E31.44320
G1 X82.969 Y63.738 E31.49321
G1 X82.048 Y63.343 E31.54320
G1 X81.103 Y63.030 E31.59287
G1 X80.595 Y62.899 E31.61904
G1 X79.629 Y62.716 E31.66809
G1 X78.638 Y62.618 E31.71777
G1 X78.114 Y62.600 E31.74393
G1 X77.130 Y62.631 E31.79305
G1 X76.136 Y62.753 E31.84301
G1 X75.156 Y62.958 E31.89296
G1 X74.199 Y63.252 E31.94291
G1 X73.270 Y63.625 E31.99285
G1 X72.378 Y64.082 E32.04286
G1 X71.528 Y64.612 E32.09283
G1 X70.735 Y65.214 E32.14250
G1 X70.337 Y65.559 E32.16878
G1 X69.640 Y66.249 E32.21771
G1 X68.990 Y67.013 E32.26776
G1 X68.413 Y67.831 E32.31770
G1 X67.908 Y68.694 E32.36758
G1 X67.482 Y69.601 E32.41758
G1 X67.136 Y70.542 E32.46759
G1 X66.875 Y71.509 E32.51757
G1 X66.699 Y72.495 E32.56753
G1 X66.612 Y73.485 E32.61712
G1 X66.599 Y74.011 E32.64337
G1 X66.642 Y74.994 E32.69246
G1 X66.774 Y75.987 E32.74243
G1 X66.991 Y76.964 E32.79236
G1 X67.294 Y77.918 E32.84230
G1 X67.678 Y78.843 E32.89227
G1 X68.144 Y79.730 E32.94226
G1 X68.684 Y80.573 E32.99220
G1 X69.298 Y81.365 E33.04220
G1 X69.977 Y82.100 E33.09212
G1 X70.719 Y82.773 E33.14210
G1 X71.517 Y83.378 E33.19206
G1 X72.365 Y83.911 E33.24203
G1 X73.258 Y84.367 E33.29205
G1 X74.186 Y84.742 E33.34199
G1 X75.143 Y85.036 E33.39193
G1 X76.117 Y85.242 E33.44160
G1 X76.637 Y85.318 E33.46782
G1 X77.611 Y85.393 E33.51656
G1 X78.136 Y85.399 E33.54275
G1 X79.118 Y85.346 E33.59182
G1 X80.110 Y85.204 E33.64181
G1 X81.085 Y84.975 E33.69178
G1 X82.036 Y84.663 E33.74171
G1 X82.950 Y84.269 E33.79137
G1 X83.419 Y84.030 E33.81763
G1 X84.258 Y83.529 E33.86638
G1 X84.689 Y83.230 E33.89255
G1 X85.460 Y82.620 E33.94160
G1 X86.187 Y81.932 E33.99154
G1 X86.852 Y81.183 E34.04151
G1 X87.445 Y80.383 E34.09119
G1 X87.726 Y79.945 E34.11715
G1 X87.977 Y79.512 E34.14212
G1 X88.213 Y79.063 E34.16743
G1 X88.611 Y78.165 E34.21643
G1 X88.936 Y77.217 E34.26643
G1 X89.176 Y76.245 E34.31638
G1 X89.330 Y75.255 E34.36637
G1 X89.396 Y74.264 E34.41592
G1 X89.398 Y73.749 E34.44161
G1 X89.332 Y72.763 E34.49091
G1 X89.264 Y72.242 E34.51712
G1 X89.071 Y71.277 E34.56622
G1 X88.788 Y70.317 E34.61615
G1 X88.427 Y69.390 E34.66579
G1 X88.205 Y68.920 E34.69172
G1 X87.970 Y68.471 E34.71700
G1 X87.457 Y67.631 E34.76611
G0 F9000 X87.125 Y67.855
;TYPE:WALL-OUTER
G1 F1800 X86.551 Y67.081 E34.81418
G1 X86.228 Y66.700 E34.83910
G1 X85.568 Y66.017 E34.88649
G1 X85.197 Y65.681 E34.91146
G1 X84.450 Y65.090 E34.95898
G1 X83.645 Y64.559 E35.00709
G1 X82.794 Y64.099 E35.05535
G1 X81.906 Y63.717 E35.10358
G1 X80.990 Y63.414 E35.15172
G1 X79.572 Y63.112 E35.22405
G1 X78.611 Y63.017 E35.27223
G1 X78.113 Y63.000 E35.29709
G1 X77.161 Y63.030 E35.34460
G1 X76.201 Y63.148 E35.39286
G1 X75.256 Y63.346 E35.44103
G1 X74.332 Y63.629 E35.48924
G1 X73.436 Y63.990 E35.53744
G1 X72.575 Y64.430 E35.58567
G1 X71.755 Y64.942 E35.63390
G1 X70.987 Y65.525 E35.68201
G1 X70.609 Y65.852 E35.70695
G1 X69.933 Y66.521 E35.75439
G1 X69.307 Y67.258 E35.80264
G1 X68.750 Y68.048 E35.85086
G1 X68.263 Y68.881 E35.89900
G1 X67.851 Y69.756 E35.94725
G1 X67.517 Y70.663 E35.99547
G1 X67.266 Y71.596 E36.04368
G1 X67.096 Y72.548 E36.09192
G1 X67.011 Y73.508 E36.14000
G1 X66.999 Y74.007 E36.16491
G1 X67.041 Y74.959 E36.21245
G1 X67.168 Y75.917 E36.26066
G1 X67.378 Y76.860 E36.30886
G1 X67.670 Y77.781 E36.35706
G1 X68.041 Y78.673 E36.40526
G1 X68.490 Y79.529 E36.45349
G1 X69.011 Y80.342 E36.50166
G1 X69.603 Y81.106 E36.54988
G1 X70.259 Y81.815 E36.59807
G1 X70.975 Y82.465 E36.64632
G1 X71.745 Y83.049 E36.69453
G1 X72.563 Y83.563 E36.74273
G1 X73.424 Y84.003 E36.79097
G1 X74.320 Y84.365 E36.83918
G1 X75.244 Y84.649 E36.88741
G1 X76.187 Y84.848 E36.93549
G1 X76.681 Y84.920 E36.96040
G1 X77.629 Y84.993 E37.00783
G1 X78.127 Y84.999 E37.03268
G1 X79.079 Y84.947 E37.08025
G1 X80.036 Y84.811 E37.12847
G1 X80.976 Y84.590 E37.17665
G1 X81.894 Y84.288 E37.22486
G1 X82.780 Y83.907 E37.27298
G1 X83.225 Y83.680 E37.29790
G1 X84.041 Y83.192 E37.34533
G1 X84.451 Y82.909 E37.37019
G1 X85.198 Y82.317 E37.41774
G1 X85.900 Y81.653 E37.46595
G1 X86.541 Y80.930 E37.51415
G1 X87.116 Y80.156 E37.56226
G1 X87.627 Y79.319 E37.61118
G1 X87.852 Y78.889 E37.63540
G1 X88.238 Y78.019 E37.68288
G1 X88.552 Y77.104 E37.73114
G1 X88.783 Y76.166 E37.77934
G1 X88.932 Y75.211 E37.82756
G1 X88.996 Y74.250 E37.87561
G1 X88.998 Y73.762 E37.89996
G1 X88.934 Y72.802 E37.94796
G1 X88.869 Y72.307 E37.97287
G1 X88.682 Y71.373 E38.02039
G1 X88.409 Y70.446 E38.06860
G1 X88.059 Y69.548 E38.11668
G1 X87.622 Y68.668 E38.16570
G1 X87.125 Y67.855 E38.21324
G0 F9000 X87.382 Y67.700
G0 X94.572 Y62.410
G0 X94.872 Y62.200
G1 F1800 X94.871 Y96.800 E39.93944
G1 X61.127 Y96.800 E41.62294
G1 X61.128 Y62.200 E43.34914
G1 X94.872 Y62.200 E45.03263
G0 F9000 X94.331 Y62.936
;TYPE:SKIN
G1 F1800 X94.135 Y62.740 E45.04646
G0 F9000 X93.570 Y62.740
G1 F1800 X94.331 Y63.501 E45.10016
G0 F9000 X94.331 Y64.067
G1 F1800 X93.004 Y62.740 E45.19378
G0 F9000 X92.438 Y62.740
G1 F1800 X94.331 Y64.633 E45.32734
G0 F9000 X94.331 Y65.198
G1 F1800 X91.872 Y62.740 E45.50081
G0 F9000 X91.307 Y62.740
G1 F1800 X94.331 Y65.764 E45.71416
G0 F9000 X94.331 Y66.330
G1 F1800 X90.741 Y62.740 E45.96746
G0 F9000 X90.175 Y62.740
G1 F1800 X94.331 Y66.895 E46.26065
G0 F9000 X94.331 Y67.461
G1 F1800 X89.610 Y62.740 E46.59374
G0 F9000 X89.044 Y62.740
G1 F1800 X94.331 Y68.027 E46.96677
G0 F9000 X94.331 Y68.592
G1 F1800 X88.478 Y62.740 E47.37970
G0 F9000 X87.913 Y62.740
G1 F1800 X94.331 Y69.158 E47.83252
G0 F9000 X94.331 Y69.724
G1 F1800 X87.347 Y62.740 E48.32528
G0 F9000 X86.781 Y62.740
G1 F1800 X94.331 Y70.289 E48.85794
G0 F9000 X94.331 Y70.855
G1 F1800 X86.216 Y62.740 E49.43049
G0 F9000 X85.650 Y62.740
G1 F1800 X94.331 Y71.421 E50.04299
G0 F9000 X94.331 Y71.987
G1 F1800 X85.084 Y62.740 E50.69541
G0 F9000 X84.519 Y62.740
G1 F1800 X94.331 Y72.552 E51.38770
G0 F9000 X94.331 Y73.118
G1 F1800 X83.953 Y62.740 E52.11992
G0 F9000 X83.387 Y62.740
G1 F1800 X94.331 Y73.684 E52.89208
G0 F9000 X94.331 Y74.249
G1 F1800 X87.394 Y67.312 E53.38153
G0 F9000 X88.280 Y68.764
G1 F1800 X94.331 Y74.815 E53.80846
G0 F9000 X94.331 Y75.381
G1 F1800 X88.726 Y69.775 E54.20396
G0 F9000 X89.028 Y70.644
G1 F1800 X94.331 Y75.946 E54.57808
G0 F9000 X94.331 Y76.512
G1 F1800 X89.241 Y71.422 E54.93720
G0 F9000 X89.382 Y72.129
G1 F1800 X94.331 Y77.078 E55.28638
G0 F9000 X94.331 Y77.643
G1 F1800 X89.472 Y72.784 E55.62921
G0 F9000 X89.513 Y73.391
G1 F1800 X94.331 Y78.209 E55.96915
G0 F9000 X94.331 Y78.775
G1 F1800 X89.535 Y73.979 E56.30753
G0 F9000 X89.517 Y74.526
G1 F1800 X94.331 Y79.340 E56.64718
G0 F9000 X94.331 Y79.906
G1 F1800 X89.482 Y75.057 E56.98931
G0 F9000 X89.422 Y75.563
G1 F1800 X94.331 Y80.472 E57.33566
G0 F9000 X94.331 Y81.037
G1 F1800 X89.346 Y76.052 E57.68738
G0 F9000 X89.250 Y76.522
G1 F1800 X94.331 Y81.603 E58.04587
G0 F9000 X94.331 Y82.169
G1 F1800 X89.138 Y76.976 E58.41227
G0 F9000 X89.014 Y77.417
G1 F1800 X94.331 Y82.735 E58.78745
G0 F9000 X94.331 Y83.300
G1 F1800 X88.869 Y77.839 E59.17278
G0 F9000 X88.722 Y78.256
G1 F1800 X94.331 Y83.866 E59.56856
G0 F9000 X94.331 Y84.432
G1 F1800 X88.548 Y78.648 E59.97662
G0 F9000 X88.374 Y79.041
G1 F1800 X94.331 Y84.997 E60.39688
G0 F9000 X94.331 Y85.563
G1 F1800 X88.183 Y79.415 E60.83066
G0 F9000 X87.982 Y79.780
G1 F1800 X94.331 Y86.129 E61.27862
G0 F9000 X94.331 Y86.694
G1 F1800 X87.770 Y80.133 E61.74153
G0 F9000 X87.549 Y80.477
G1 F1800 X94.331 Y87.260 E62.22007
G0 F9000 X94.331 Y87.826
G1 F1800 X87.307 Y80.802 E62.71565
G0 F9000 X87.066 Y81.127
G1 F1800 X94.331 Y88.391 E63.22820
G0 F9000 X94.331 Y88.957
G1 F1800 X86.811 Y81.437 E63.75878
G0 F9000 X86.545 Y81.737
G1 F1800 X94.331 Y89.523 E64.30812
G0 F9000 X94.331 Y90.088
G1 F1800 X86.279 Y82.037 E64.87620
G0 F9000 X85.989 Y82.312
G1 F1800 X94.331 Y90.654 E65.46477
G0 F9000 X94.331 Y91.220
G1 F1800 X85.697 Y82.586 E66.07395
G0 F9000 X85.395 Y82.849
G1 F1800 X94.331 Y91.785 E66.70443
G0 F9000 X94.331 Y92.351
G1 F1800 X85.079 Y83.099 E67.35721
G0 F9000 X84.763 Y83.348
G1 F1800 X94.331 Y92.917 E68.03232
G0 F9000 X94.331 Y93.483
G1 F1800 X84.429 Y83.580 E68.73099
G0 F9000 X84.079 Y83.797
G1 F1800 X94.331 Y94.048 E69.45429
G0 F9000 X94.331 Y94.614
G1 F1800 X83.725 Y84.008 E70.20260
G0 F9000 X83.365 Y84.214
G1 F1800 X94.331 Y95.180 E70.97631
G0 F9000 X94.331 Y95.745
G1 F1800 X82.989 Y84.403 E71.77655
G0 F9000 X82.594 Y84.574
G1 F1800 X94.279 Y96.259 E72.60099
G0 F9000 X93.713 Y96.259
G1 F1800 X82.199 Y84.744 E73.41340
G0 F9000 X81.781 Y84.893
G1 F1800 X93.147 Y96.259 E74.21534
G0 F9000 X92.582 Y96.259
G1 F1800 X81.356 Y85.033 E75.00739
G0 F9000 X80.916 Y85.158
G1 F1800 X92.016 Y96.259 E75.79059
G0 F9000 X91.450 Y96.259
G1 F1800 X80.458 Y85.266 E76.56617
G0 F9000 X79.989 Y85.363
G1 F1800 X90.885 Y96.259 E77.33494
G0 F9000 X90.319 Y96.259
G1 F1800 X79.493 Y85.433 E78.09878
G0 F9000 X78.987 Y85.492
G1 F1800 X89.753 Y96.259 E78.85841
G0 F9000 X89.188 Y96.259
G1 F1800 X78.450 Y85.521 E79.61604
G0 F9000 X77.899 Y85.535
G1 F1800 X88.622 Y96.259 E80.37264
G0 F9000 X88.056 Y96.259
G1 F1800 X77.307 Y85.509 E81.13107
G0 F9000 X76.694 Y85.462
G1 F1800 X87.491 Y96.259 E81.89286
G0 F9000 X86.925 Y96.259
G1 F1800 X76.033 Y85.366 E82.66138
G0 F9000 X75.315 Y85.214
G1 F1800 X86.359 Y96.259 E83.44063
G0 F9000 X85.793 Y96.259
G1 F1800 X74.527 Y84.992 E84.23554
G0 F9000 X73.640 Y84.671
G1 F1800 X85.228 Y96.259 E85.05314
G0 F9000 X84.662 Y96.259
G1 F1800 X72.582 Y84.178 E85.90548
G0 F9000 X70.996 Y83.158
G1 F1800 X84.096 Y96.259 E86.82980
G0 F9000 X83.531 Y96.259
G1 F1800 X61.667 Y74.395 E88.37242
G0 F9000 X61.667 Y74.961
G1 F1800 X82.965 Y96.259 E89.87511
G0 F9000 X82.399 Y96.259
G1 F1800 X61.667 Y75.526 E91.33790
G0 F9000 X61.667 Y76.092
G1 F1800 X81.834 Y96.259 E92.76079
G0 F9000 X81.268 Y96.259
G1 F1800 X61.667 Y76.658 E94.14374
G0 F9000 X61.667 Y77.223
G1 F1800 X80.702 Y96.259 E95.48680
G0 F9000 X80.137 Y96.259
G1 F1800 X61.667 Y77.789 E96.78996
G0 F9000 X61.667 Y78.355
G1 F1800 X79.571 Y96.259 E98.05318
G0 F9000 X79.005 Y96.259
G1 F1800 X61.667 Y78.920 E99.27651
G0 F9000 X61.667 Y79.486
G1 F1800 X78.440 Y96.259 E100.45993
G0 F9000 X77.874 Y96.259
G1 F1800 X61.667 Y80.052 E101.60343
G0 F9000 X61.667 Y80.617
G1 F1800 X77.308 Y96.259 E102.70702
G0 F9000 X76.743 Y96.259
G1 F1800 X61.667 Y81.183 E103.77071
G0 F9000 X61.667 Y81.749
G1 F1800 X76.177 Y96.259 E104.79447
G0 F9000 X75.611 Y96.259
G1 F1800 X61.667 Y82.315 E105.77830
G0 F9000 X61.667 Y82.880
G1 F1800 X75.045 Y96.259 E106.72222
G0 F9000 X74.480 Y96.259
G1 F1800 X61.667 Y83.446 E107.62625
G0 F9000 X61.667 Y84.012
G1 F1800 X73.914 Y96.259 E108.49034
G0 F9000 X73.348 Y96.259
G1 F1800 X61.667 Y84.577 E109.31453
G0 F9000 X61.667 Y85.143
G1 F1800 X72.783 Y96.259 E110.09883
G0 F9000 X72.217 Y96.259
G1 F1800 X61.667 Y85.709 E110.84319
G0 F9000 X61.667 Y86.274
G1 F1800 X71.651 Y96.259 E111.54765
G0 F9000 X71.086 Y96.259
G1 F1800 X61.667 Y86.840 E112.21221
G0 F9000 X61.667 Y87.406
G1 F1800 X70.520 Y96.259 E112.83683
G0 F9000 X69.954 Y96.259
G1 F1800 X61.667 Y87.971 E113.42156
G0 F9000 X61.667 Y88.537
G1 F1800 X69.389 Y96.259 E113.96639
G0 F9000 X68.823 Y96.259
G1 F1800 X61.667 Y89.103 E114.47129
G0 F9000 X61.667 Y89.668
G1 F1800 X68.257 Y96.259 E114.93628
G0 F9000 X67.692 Y96.259
G1 F1800 X61.667 Y90.234 E115.36138
G0 F9000 X61.667 Y90.800
G1 F1800 X67.126 Y96.259 E115.74654
G0 F9000 X66.560 Y96.259
G1 F1800 X61.667 Y91.365 E116.09180
G0 F9000 X61.667 Y91.931
G1 F1800 X65.994 Y96.259 E116.39713
G0 F9000 X65.429 Y96.259
G1 F1800 X61.667 Y92.497 E116.66256
G0 F9000 X61.667 Y93.063
G1 F1800 X64.863 Y96.259 E116.88805
G0 F9000 X64.297 Y96.259
G1 F1800 X61.667 Y93.628 E117.07365
G0 F9000 X61.667 Y94.194
G1 F1800 X63.732 Y96.259 E117.21935
