;Generated with Cura_SteamEngine 15.01
; Default start code
G28 ; Home extruder
G1 Z15 F100
M107 ; Turn off fan
G90 ; Absolute positioning
M82 ; Extruder in absolute mode
M190 S80
; Activate all used extruder
M104 T0 S220
G92 E0 ; Reset extruder position
; Wait for all used extruders to reach temperature
M109 T0 S220
;Layer count: 40
;LAYER:0
M107
G0 F9000 X58.140 Y62.801 Z0.300
;TYPE:SKIRT
G1 F1800 X97.858 Y62.801 E1.98154
G1 X97.866 Y71.239 E2.40251
G1 X97.865 Y71.754 E2.42821
G1 X97.866 Y77.261 E2.70295
G1 X97.865 Y77.508 E2.71527
G1 X97.866 Y83.005 E2.98952
G1 X97.865 Y83.433 E3.01087
G1 X97.867 Y85.167 E3.09738
G1 X97.868 Y87.970 E3.23723
G1 X97.057 Y89.389 E3.31877
G1 X96.598 Y90.123 E3.36196
G1 X96.122 Y90.825 E3.40427
G1 X95.696 Y91.406 E3.44021
G1 X95.253 Y91.970 E3.47600
G1 X94.793 Y92.520 E3.51177
G1 X94.315 Y93.055 E3.54756
G1 X93.820 Y93.575 E3.58338
G1 X93.307 Y94.079 E3.61926
G1 X92.778 Y94.567 E3.65516
G1 X92.236 Y95.034 E3.69086
G1 X91.680 Y95.484 E3.72654
G1 X91.107 Y95.919 E3.76243
G1 X90.517 Y96.335 E3.79845
G1 X89.919 Y96.729 E3.83418
G1 X89.309 Y97.104 E3.86990
G1 X88.684 Y97.461 E3.90581
G1 X88.049 Y97.795 E3.94161
G1 X87.405 Y98.110 E3.97737
G1 X86.751 Y98.403 E4.01313
G1 X86.085 Y98.676 E4.04904
G1 X85.411 Y98.927 E4.08492
G1 X84.730 Y99.156 E4.12076
G1 X84.044 Y99.361 E4.15648
G1 X83.349 Y99.547 E4.19238
G1 X82.649 Y99.707 E4.22820
G1 X82.178 Y99.801 E4.25216
G1 X97.858 Y99.801 E5.03444
G1 X97.866 Y108.239 E5.45541
G1 X97.865 Y108.754 E5.48111
G1 X97.866 Y114.261 E5.75585
G1 X97.865 Y114.508 E5.76818
G1 X97.866 Y120.005 E6.04242
G1 X97.865 Y120.433 E6.06378
G1 X97.867 Y122.167 E6.15029
G1 X97.868 Y124.970 E6.29013
G1 X97.057 Y126.389 E6.37167
G1 X96.598 Y127.123 E6.41486
G1 X96.122 Y127.825 E6.45717
G1 X95.696 Y128.406 E6.49312
G1 X95.253 Y128.970 E6.52890
G1 X94.793 Y129.520 E6.56467
G1 X94.315 Y130.055 E6.60046
G1 X93.820 Y130.575 E6.63628
G1 X93.307 Y131.079 E6.67216
G1 X92.778 Y131.567 E6.70806
G1 X92.236 Y132.034 E6.74376
G1 X91.680 Y132.484 E6.77944
G1 X91.107 Y132.919 E6.81534
G1 X90.517 Y133.335 E6.85135
G1 X89.919 Y133.729 E6.88708
G1 X89.309 Y134.104 E6.92280
G1 X88.684 Y134.461 E6.95871
G1 X88.049 Y134.795 E6.99451
G1 X87.405 Y135.110 E7.03028
G1 X86.751 Y135.403 E7.06603
G1 X86.085 Y135.676 E7.10194
G1 X85.411 Y135.927 E7.13782
G1 X84.730 Y136.156 E7.17366
G1 X84.044 Y136.361 E7.20939
G1 X83.349 Y136.547 E7.24528
G1 X82.649 Y136.707 E7.28110
G1 X81.948 Y136.847 E7.31677
G1 X81.237 Y136.963 E7.35271
G1 X80.527 Y137.057 E7.38844
G1 X79.810 Y137.127 E7.42438
G1 X79.093 Y137.174 E7.46023
G1 X78.378 Y137.197 E7.49592
G1 X77.661 Y137.198 E7.53169
G1 X76.943 Y137.176 E7.56753
G1 X76.226 Y137.130 E7.60337
G1 X75.510 Y137.061 E7.63926
G1 X74.799 Y136.969 E7.67503
G1 X74.089 Y136.854 E7.71091
G1 X73.387 Y136.716 E7.74660
G1 X72.686 Y136.557 E7.78246
G1 X71.990 Y136.372 E7.81839
G1 X71.304 Y136.168 E7.85410
G1 X70.622 Y135.940 E7.88998
G1 X69.948 Y135.690 E7.92584
G1 X69.283 Y135.418 E7.96169
G1 X68.629 Y135.127 E7.99740
G1 X67.983 Y134.813 E8.03323
G1 X67.347 Y134.479 E8.06907
G1 X66.723 Y134.124 E8.10489
G1 X66.112 Y133.750 E8.14063
G1 X65.511 Y133.355 E8.17651
G1 X64.922 Y132.941 E8.21243
G1 X64.349 Y132.508 E8.24826
G1 X63.791 Y132.058 E8.28402
G1 X63.248 Y131.591 E8.31975
G1 X62.719 Y131.105 E8.35559
G1 X62.205 Y130.602 E8.39147
G1 X61.708 Y130.082 E8.42736
G1 X61.231 Y129.548 E8.46308
G1 X60.769 Y128.999 E8.49888
G1 X60.323 Y128.432 E8.53487
G1 X59.950 Y127.922 E8.56639
G1 X59.890 Y127.842 E8.57138
G1 X59.408 Y127.132 E8.61419
G1 X58.943 Y126.390 E8.65788
G1 X58.132 Y124.971 E8.73942
G1 X58.131 Y122.169 E8.87921
G1 X58.134 Y120.420 E8.96647
G1 X58.133 Y114.729 E9.25040
G1 X58.134 Y114.482 E9.26272
G1 X58.133 Y108.986 E9.53692
G1 X58.134 Y108.234 E9.57444
G1 X58.140 Y99.801 E9.99516
G1 X73.819 Y99.801 E10.77739
G1 X73.387 Y99.716 E10.79935
G1 X72.686 Y99.557 E10.83521
G1 X71.990 Y99.372 E10.87114
G1 X71.304 Y99.168 E10.90685
G1 X70.622 Y98.940 E10.94273
G1 X69.948 Y98.690 E10.97859
G1 X69.283 Y98.418 E11.01444
G1 X68.629 Y98.127 E11.05015
G1 X67.983 Y97.813 E11.08598
G1 X67.347 Y97.479 E11.12182
G1 X66.723 Y97.124 E11.15764
G1 X66.112 Y96.750 E11.19338
G1 X65.511 Y96.355 E11.22926
G1 X64.922 Y95.941 E11.26518
G1 X64.349 Y95.508 E11.30101
G1 X63.791 Y95.058 E11.33677
G1 X63.248 Y94.591 E11.37250
G1 X62.719 Y94.105 E11.40834
G1 X62.205 Y93.602 E11.44422
G1 X61.708 Y93.082 E11.48011
G1 X61.231 Y92.548 E11.51583
G1 X60.769 Y91.999 E11.55163
G1 X60.323 Y91.432 E11.58762
G1 X59.950 Y90.922 E11.61914
G1 X59.890 Y90.842 E11.62413
G1 X59.408 Y90.132 E11.66694
G1 X58.943 Y89.390 E11.71063
G1 X58.132 Y87.971 E11.79217
G1 X58.131 Y85.169 E11.93196
G1 X58.134 Y83.420 E12.01922
G1 X58.133 Y77.729 E12.30315
G1 X58.134 Y77.482 E12.31547
G1 X58.133 Y71.986 E12.58967
G1 X58.134 Y71.234 E12.62719
G1 X58.140 Y62.801 E13.04791
G0 F9000 X102.140 Y62.801
G1 F1800 X141.858 Y62.801 E15.02945
G1 X141.866 Y71.239 E15.45042
G1 X141.865 Y71.754 E15.47612
G1 X141.866 Y77.261 E15.75086
G1 X141.865 Y77.508 E15.76318
G1 X141.866 Y83.005 E16.03743
G1 X141.865 Y83.433 E16.05878
G1 X141.867 Y85.167 E16.14529
G1 X141.868 Y87.970 E16.28514
G1 X141.057 Y89.389 E16.36668
G1 X140.598 Y90.123 E16.40987
G1 X140.122 Y90.825 E16.45218
G1 X139.696 Y91.406 E16.48812
G1 X139.253 Y91.970 E16.52390
G1 X138.793 Y92.520 E16.55968
G1 X138.315 Y93.055 E16.59547
G1 X137.820 Y93.575 E16.63129
G1 X137.307 Y94.079 E16.66717
G1 X136.778 Y94.567 E16.70307
G1 X136.236 Y95.034 E16.73877
G1 X135.680 Y95.484 E16.77445
G1 X135.107 Y95.919 E16.81034
G1 X134.517 Y96.335 E16.84636
G1 X133.919 Y96.729 E16.88209
G1 X133.309 Y97.104 E16.91781
G1 X132.684 Y97.461 E16.95372
G1 X132.049 Y97.795 E16.98952
G1 X131.405 Y98.110 E17.02528
G1 X130.751 Y98.403 E17.06104
G1 X130.085 Y98.676 E17.09695
G1 X129.411 Y98.927 E17.13283
G1 X128.730 Y99.156 E17.16867
G1 X128.044 Y99.361 E17.20439
G1 X127.349 Y99.547 E17.24029
G1 X126.649 Y99.707 E17.27611
G1 X126.178 Y99.801 E17.30007
G1 X141.858 Y99.801 E18.08235
G1 X141.866 Y108.239 E18.50332
G1 X141.865 Y108.754 E18.52902
G1 X141.866 Y114.261 E18.80376
G1 X141.865 Y114.508 E18.81609
G1 X141.866 Y120.005 E19.09033
G1 X141.865 Y120.433 E19.11169
G1 X141.867 Y122.167 E19.19819
G1 X141.868 Y124.970 E19.33804
G1 X141.057 Y126.389 E19.41958
G1 X140.598 Y127.123 E19.46277
G1 X140.122 Y127.825 E19.50508
G1 X139.696 Y128.406 E19.54103
G1 X139.253 Y128.970 E19.57681
G1 X138.793 Y129.520 E19.61258
G1 X138.315 Y130.055 E19.64837
G1 X137.820 Y130.575 E19.68419
G1 X137.307 Y131.079 E19.72007
G1 X136.778 Y131.567 E19.75597
G1 X136.236 Y132.034 E19.79167
G1 X135.680 Y132.484 E19.82735
G1 X135.107 Y132.919 E19.86324
G1 X134.517 Y133.335 E19.89926
G1 X133.919 Y133.729 E19.93499
G1 X133.309 Y134.104 E19.97071
G1 X132.684 Y134.461 E20.00662
G1 X132.049 Y134.795 E20.04242
G1 X131.405 Y135.110 E20.07818
G1 X130.751 Y135.403 E20.11394
G1 X130.085 Y135.676 E20.14985
G1 X129.411 Y135.927 E20.18573
G1 X128.730 Y136.156 E20.22157
G1 X128.044 Y136.361 E20.25729
G1 X127.349 Y136.547 E20.29319
G1 X126.649 Y136.707 E20.32901
G1 X125.948 Y136.847 E20.36468
G1 X125.237 Y136.963 E20.40062
G1 X124.527 Y137.057 E20.43635
G1 X123.810 Y137.127 E20.47229
G1 X123.093 Y137.174 E20.50814
G1 X122.378 Y137.197 E20.54383
G1 X121.661 Y137.198 E20.57960
G1 X120.943 Y137.176 E20.61544
G1 X120.226 Y137.130 E20.65128
G1 X119.510 Y137.061 E20.68717
G1 X118.799 Y136.969 E20.72294
G1 X118.089 Y136.854 E20.75882
G1 X117.387 Y136.716 E20.79451
G1 X116.686 Y136.557 E20.83037
G1 X115.990 Y136.372 E20.86630
G1 X115.304 Y136.168 E20.90201
G1 X114.622 Y135.940 E20.93789
G1 X113.948 Y135.690 E20.97375
G1 X113.283 Y135.418 E21.00960
G1 X112.629 Y135.127 E21.04531
G1 X111.983 Y134.813 E21.08114
G1 X111.347 Y134.479 E21.11698
G1 X110.723 Y134.124 E21.15280
G1 X110.112 Y133.750 E21.18854
G1 X109.511 Y133.355 E21.22442
G1 X108.922 Y132.941 E21.26034
G1 X108.349 Y132.508 E21.29617
G1 X107.791 Y132.058 E21.33193
G1 X107.248 Y131.591 E21.36766
G1 X106.719 Y131.105 E21.40350
G1 X106.205 Y130.602 E21.43938
G1 X105.708 Y130.082 E21.47527
G1 X105.231 Y129.548 E21.51099
G1 X104.769 Y128.999 E21.54679
G1 X104.323 Y128.432 E21.58278
G1 X103.950 Y127.922 E21.61430
G1 X103.890 Y127.842 E21.61929
G1 X103.408 Y127.132 E21.66210
G1 X102.943 Y126.390 E21.70579
G1 X102.132 Y124.971 E21.78733
G1 X102.131 Y122.169 E21.92712
G1 X102.134 Y120.420 E22.01438
G1 X102.133 Y114.729 E22.29831
G1 X102.134 Y114.482 E22.31063
G1 X102.133 Y108.986 E22.58483
G1 X102.134 Y108.234 E22.62234
G1 X102.140 Y99.801 E23.04307
G1 X117.819 Y99.801 E23.82530
G1 X117.387 Y99.716 E23.84726
G1 X116.686 Y99.557 E23.88312
G1 X115.990 Y99.372 E23.91905
G1 X115.304 Y99.168 E23.95476
G1 X114.622 Y98.940 E23.99064
G1 X113.948 Y98.690 E24.02650
G1 X113.283 Y98.418 E24.06235
G1 X112.629 Y98.127 E24.09806
G1 X111.983 Y97.813 E24.13389
G1 X111.347 Y97.479 E24.16973
G1 X110.723 Y97.124 E24.20555
G1 X110.112 Y96.750 E24.24129
G1 X109.511 Y96.355 E24.27717
G1 X108.922 Y95.941 E24.31309
G1 X108.349 Y95.508 E24.34892
G1 X107.791 Y95.058 E24.38468
G1 X107.248 Y94.591 E24.42041
G1 X106.719 Y94.105 E24.45625
G1 X106.205 Y93.602 E24.49213
G1 X105.708 Y93.082 E24.52802
G1 X105.231 Y92.548 E24.56374
G1 X104.769 Y91.999 E24.59954
G1 X104.323 Y91.432 E24.63553
G1 X103.950 Y90.922 E24.66705
G1 X103.890 Y90.842 E24.67204
G1 X103.408 Y90.132 E24.71485
G1 X102.943 Y89.390 E24.75854
G1 X102.132 Y87.971 E24.84008
G1 X102.131 Y85.169 E24.97987
G1 X102.134 Y83.420 E25.06713
G1 X102.133 Y77.729 E25.35106
G1 X102.134 Y77.482 E25.36338
G1 X102.133 Y71.986 E25.63758
G1 X102.134 Y71.234 E25.67509
G1 X102.140 Y62.801 E26.09582
G1 F2400 E22.09582
G0 F9000 X94.062 Y66.601
;TYPE:WALL-INNER
G1 F2400 E26.09582
G1 F1800 X94.066 Y71.236 E26.32706
G1 X94.065 Y71.747 E26.35255
G1 X94.066 Y77.253 E26.62725
G1 X94.065 Y77.494 E26.63927
G1 X94.066 Y83.001 E26.91402
G1 X94.065 Y83.425 E26.93517
G1 X94.068 Y86.960 E27.11153
G1 X93.794 Y87.439 E27.13906
G1 X93.419 Y88.039 E27.17436
G1 X93.011 Y88.640 E27.21060
G1 X92.662 Y89.117 E27.24009
G1 X92.307 Y89.570 E27.26881
G1 X91.924 Y90.027 E27.29855
G1 X91.515 Y90.485 E27.32919
G1 X91.118 Y90.902 E27.35791
G1 X90.680 Y91.333 E27.38857
G1 X90.257 Y91.723 E27.41727
G1 X89.806 Y92.112 E27.44699
G1 X89.343 Y92.487 E27.47671
G1 X88.854 Y92.858 E27.50734
G1 X88.384 Y93.190 E27.53604
G1 X87.875 Y93.525 E27.56645
G1 X87.380 Y93.829 E27.59543
G1 X86.864 Y94.124 E27.62508
G1 X86.321 Y94.410 E27.65570
G1 X85.803 Y94.663 E27.68446
G1 X85.243 Y94.914 E27.71508
G1 X84.691 Y95.141 E27.74485
G1 X84.152 Y95.341 E27.77354
G1 X83.578 Y95.534 E27.80375
G1 X83.017 Y95.702 E27.83296
G1 X82.428 Y95.860 E27.86339
G1 X81.845 Y95.993 E27.89322
G1 X81.280 Y96.106 E27.92197
G1 X80.690 Y96.202 E27.95179
G1 X80.088 Y96.281 E27.98208
G1 X79.511 Y96.338 E28.01101
G1 X78.910 Y96.377 E28.04106
G1 X78.303 Y96.397 E28.07135
G1 X77.726 Y96.398 E28.10014
G1 X77.119 Y96.379 E28.13044
G1 X76.519 Y96.341 E28.16043
G1 X75.941 Y96.285 E28.18941
G1 X75.337 Y96.207 E28.21979
G1 X74.770 Y96.115 E28.24845
G1 X74.167 Y95.996 E28.27911
G1 X73.599 Y95.867 E28.30817
G1 X73.011 Y95.711 E28.33852
G1 X72.457 Y95.546 E28.36736
G1 X71.885 Y95.355 E28.39745
G1 X71.318 Y95.145 E28.42761
G1 X70.784 Y94.927 E28.45639
G1 X70.243 Y94.685 E28.48596
G1 X69.688 Y94.416 E28.51673
G1 X69.162 Y94.140 E28.54636
G1 X68.662 Y93.855 E28.57507
G1 X68.138 Y93.535 E28.60571
G1 X67.653 Y93.216 E28.63467
G1 X67.169 Y92.875 E28.66420
G1 X66.680 Y92.506 E28.69477
G1 X66.230 Y92.144 E28.72358
G1 X65.778 Y91.755 E28.75333
G1 X65.339 Y91.352 E28.78306
G1 X64.902 Y90.924 E28.81358
G1 X64.492 Y90.495 E28.84319
G1 X64.095 Y90.051 E28.87290
G1 X63.724 Y89.609 E28.90169
G1 X63.345 Y89.127 E28.93228
G1 X62.992 Y88.645 E28.96209
G1 X62.592 Y88.058 E28.99753
G1 X62.207 Y87.443 E29.03373
G1 X61.932 Y86.961 E29.06141
G1 X61.931 Y85.172 E29.15066
G1 X61.934 Y83.425 E29.23782
G1 X61.933 Y77.737 E29.52160
G1 X61.938 Y66.601 E30.07718
G1 X94.062 Y66.601 E31.67985
G0 F9000 X87.248 Y71.862
G1 F1800 X86.693 Y71.098 E31.72696
G1 X86.062 Y70.372 E31.77495
G1 X85.373 Y69.702 E31.82290
G1 X84.626 Y69.095 E31.87092
G1 X83.831 Y68.556 E31.91884
G1 X82.992 Y68.086 E31.96681
G1 X82.114 Y67.691 E32.01485
G1 X81.206 Y67.374 E32.06283
G1 X80.274 Y67.136 E32.11082
G1 X79.326 Y66.980 E32.15875
G1 X78.374 Y66.907 E32.20638
G1 X77.869 Y66.901 E32.23158
G1 X76.925 Y66.952 E32.27875
G1 X75.974 Y67.086 E32.32666
G1 X75.035 Y67.302 E32.37473
G1 X74.121 Y67.600 E32.42269
G1 X73.236 Y67.975 E32.47065
G1 X72.385 Y68.425 E32.51867
G1 X71.578 Y68.946 E32.56660
G1 X70.818 Y69.536 E32.61460
G1 X70.113 Y70.189 E32.66254
G1 X69.466 Y70.901 E32.71054
G1 X68.884 Y71.666 E32.75849
G1 X68.369 Y72.480 E32.80655
G1 X67.928 Y73.333 E32.85446
G1 X67.561 Y74.222 E32.90244
G1 X67.276 Y75.134 E32.95011
G1 X67.156 Y75.626 E32.97537
G1 X66.994 Y76.556 E33.02247
G1 X66.911 Y77.507 E33.07010
G1 X66.900 Y78.012 E33.09530
G1 X66.940 Y78.956 E33.14244
G1 X67.064 Y79.909 E33.19038
G1 X67.270 Y80.848 E33.23834
G1 X67.557 Y81.766 E33.28633
G1 X67.922 Y82.656 E33.33432
G1 X68.360 Y83.506 E33.38202
G1 X68.621 Y83.938 E33.40721
G1 X69.159 Y84.713 E33.45427
G1 X69.773 Y85.453 E33.50225
G1 X70.448 Y86.137 E33.55019
G1 X71.181 Y86.760 E33.59818
G1 X71.965 Y87.317 E33.64616
G1 X72.794 Y87.805 E33.69416
G1 X73.662 Y88.219 E33.74213
G1 X74.563 Y88.556 E33.79013
G1 X75.489 Y88.813 E33.83807
G1 X76.435 Y88.991 E33.88610
G1 X77.386 Y89.083 E33.93376
G1 X77.890 Y89.100 E33.95892
G1 X78.834 Y89.071 E34.00604
G1 X79.789 Y88.956 E34.05403
G1 X80.731 Y88.761 E34.10202
G1 X81.652 Y88.483 E34.15002
G1 X82.545 Y88.128 E34.19796
G1 X83.400 Y87.699 E34.24569
G1 X83.835 Y87.443 E34.27087
G1 X84.611 Y86.918 E34.31761
G1 X85.010 Y86.608 E34.34282
G1 X85.716 Y85.981 E34.38993
G1 X86.377 Y85.284 E34.43785
G1 X86.976 Y84.530 E34.48589
G1 X87.508 Y83.729 E34.53387
G1 X87.964 Y82.890 E34.58151
G1 X88.177 Y82.431 E34.60675
G1 X88.517 Y81.551 E34.65382
G1 X88.785 Y80.628 E34.70177
G1 X88.972 Y79.684 E34.74978
G1 X89.075 Y78.729 E34.79770
G1 X89.098 Y77.767 E34.84571
G1 X89.036 Y76.807 E34.89371
G1 X88.892 Y75.856 E34.94169
G1 X88.665 Y74.921 E34.98969
G1 X88.357 Y74.010 E35.03767
G1 X87.974 Y73.129 E35.08560
G1 X87.518 Y72.288 E35.13333
G1 X87.248 Y71.862 E35.15849
G0 F9000 X86.917 Y72.087
;TYPE:WALL-OUTER
G1 F1800 X86.380 Y71.347 E35.20410
G1 X85.771 Y70.647 E35.25039
G1 X85.107 Y70.001 E35.29661
G1 X84.387 Y69.416 E35.34290
G1 X83.620 Y68.897 E35.38910
G1 X82.812 Y68.443 E35.43534
G1 X81.966 Y68.063 E35.48161
G1 X81.091 Y67.757 E35.52785
G1 X80.192 Y67.528 E35.57414
G1 X79.278 Y67.377 E35.62035
G1 X78.356 Y67.307 E35.66649
G1 X77.877 Y67.301 E35.69039
G1 X76.964 Y67.351 E35.73600
G1 X76.047 Y67.480 E35.78220
G1 X75.142 Y67.688 E35.82853
G1 X74.261 Y67.975 E35.87476
G1 X73.408 Y68.336 E35.92097
G1 X72.588 Y68.770 E35.96725
G1 X71.809 Y69.273 E36.01352
G1 X71.077 Y69.841 E36.05974
G1 X70.398 Y70.471 E36.10595
G1 X69.774 Y71.157 E36.15222
G1 X69.213 Y71.895 E36.19847
G1 X68.716 Y72.679 E36.24478
G1 X68.291 Y73.502 E36.29099
G1 X67.938 Y74.359 E36.33723
G1 X67.661 Y75.241 E36.38335
G1 X67.548 Y75.708 E36.40732
G1 X67.391 Y76.608 E36.45290
G1 X67.310 Y77.529 E36.49903
G1 X67.300 Y78.008 E36.52293
G1 X67.339 Y78.921 E36.56852
G1 X67.459 Y79.840 E36.61476
G1 X67.657 Y80.745 E36.66098
G1 X67.934 Y81.630 E36.70724
G1 X68.285 Y82.488 E36.75349
G1 X68.709 Y83.311 E36.79968
G1 X68.957 Y83.721 E36.82359
G1 X69.478 Y84.471 E36.86915
G1 X70.070 Y85.184 E36.91538
G1 X70.721 Y85.844 E36.96163
G1 X71.427 Y86.444 E37.00786
G1 X72.183 Y86.981 E37.05412
G1 X72.982 Y87.452 E37.10039
G1 X73.819 Y87.850 E37.14663
G1 X74.687 Y88.175 E37.19287
G1 X75.580 Y88.423 E37.23911
G1 X76.492 Y88.594 E37.28540
G1 X77.412 Y88.684 E37.33152
G1 X77.891 Y88.700 E37.35543
G1 X78.804 Y88.672 E37.40100
G1 X79.724 Y88.561 E37.44724
G1 X80.632 Y88.373 E37.49350
G1 X81.520 Y88.105 E37.53977
G1 X82.381 Y87.763 E37.58599
G1 X83.209 Y87.348 E37.63220
G1 X83.621 Y87.105 E37.65606
G1 X84.376 Y86.594 E37.70155
G1 X85.437 Y85.693 E37.77099
G1 X86.075 Y85.021 E37.81722
G1 X86.652 Y84.295 E37.86349
G1 X87.165 Y83.522 E37.90977
