;Generated with Cura_SteamEngine 15.01
; Default start code
G28 ; Home extruder
G1 Z15 F100
M107 ; Turn off fan
G90 ; Absolute positioning
M82 ; Extruder in absolute mode
M190 S80
; Activate all used extruder
M104 T0 S220
G92 E0 ; Reset extruder position
; Wait for all used extruders to reach temperature
M109 T0 S220
;Layer count: 45
;LAYER:0
M107
G0 F9000 X73.376 Y72.510 Z0.300
;TYPE:SKIRT
G1 F1800 X74.348 Y71.600 E0.06643
G1 X75.353 Y70.723 E0.13297
G1 X76.388 Y69.883 E0.19948
G1 X77.449 Y69.081 E0.26583
G1 X78.539 Y68.313 E0.33235
G1 X79.657 Y67.586 E0.39889
G1 X80.796 Y66.897 E0.46530
G1 X81.960 Y66.250 E0.53174
G1 X83.145 Y65.642 E0.59819
G1 X84.429 Y65.040 E0.66894
G1 X85.658 Y64.517 E0.73557
G1 X86.902 Y64.041 E0.80203
G1 X88.160 Y63.607 E0.86842
G1 X89.436 Y63.216 E0.93500
G1 X90.723 Y62.871 E1.00148
G1 X92.020 Y62.571 E1.06789
G1 X93.327 Y62.316 E1.13433
G1 X94.643 Y62.106 E1.20081
G1 X95.966 Y61.942 E1.26732
G1 X97.292 Y61.826 E1.33373
G1 X98.623 Y61.754 E1.40023
G1 X99.956 Y61.730 E1.46675
G1 X101.287 Y61.751 E1.53316
G1 X102.617 Y61.819 E1.59960
G1 X103.944 Y61.934 E1.66605
G1 X105.266 Y62.094 E1.73249
G1 X106.585 Y62.300 E1.79909
G1 X107.892 Y62.554 E1.86552
G1 X109.189 Y62.850 E1.93189
G1 X110.477 Y63.193 E1.99839
G1 X111.752 Y63.579 E2.06485
G1 X113.014 Y64.012 E2.13141
G1 X114.257 Y64.486 E2.19778
G1 X115.484 Y65.003 E2.26421
G1 X116.694 Y65.565 E2.33077
G1 X117.958 Y66.205 E2.40145
G1 X119.127 Y66.853 E2.46814
G1 X120.269 Y67.538 E2.53457
G1 X121.387 Y68.263 E2.60105
G1 X122.478 Y69.027 E2.66750
G1 X123.543 Y69.828 E2.73398
G1 X124.579 Y70.667 E2.80049
G1 X125.586 Y71.541 E2.86702
G1 X126.559 Y72.447 E2.93335
G1 X127.503 Y73.388 E2.99985
G1 X128.412 Y74.362 E3.06631
G1 X129.288 Y75.367 E3.13283
G1 X130.127 Y76.403 E3.19934
G1 X130.930 Y77.465 E3.26576
G1 X131.695 Y78.555 E3.33220
G1 X132.421 Y79.671 E3.39862
G1 X133.110 Y80.811 E3.46507
G1 X133.758 Y81.977 E3.53163
G1 X134.364 Y83.162 E3.59803
G1 X134.930 Y84.368 E3.66449
G1 X135.452 Y85.595 E3.73102
G1 X135.932 Y86.838 E3.79749
G1 X136.368 Y88.095 E3.86387
G1 X136.760 Y89.367 E3.93028
G1 X137.109 Y90.655 E3.99685
G1 X137.411 Y91.953 E4.06334
G1 X137.684 Y93.343 E4.13401
G1 X137.894 Y94.663 E4.20070
G1 X138.056 Y95.986 E4.26719
G1 X138.173 Y97.310 E4.33350
G1 X138.244 Y98.642 E4.40005
G1 X138.266 Y99.975 E4.46657
G1 X138.245 Y101.306 E4.53298
G1 X138.176 Y102.638 E4.59952
G1 X138.060 Y103.964 E4.66593
G1 X137.900 Y105.286 E4.73236
G1 X137.693 Y106.602 E4.79883
G1 X137.440 Y107.911 E4.86534
G1 X137.141 Y109.211 E4.93189
G1 X136.798 Y110.497 E4.99829
G1 X136.410 Y111.772 E5.06478
G1 X135.978 Y113.033 E5.13128
G1 X135.502 Y114.277 E5.19774
G1 X134.984 Y115.503 E5.26414
G1 X134.423 Y116.712 E5.33063
G1 X133.819 Y117.901 E5.39717
G1 X133.177 Y119.066 E5.46353
G1 X132.492 Y120.210 E5.53005
G1 X131.769 Y121.328 E5.59648
G1 X131.008 Y122.421 E5.66292
G1 X130.208 Y123.487 E5.72942
G1 X129.319 Y124.591 E5.80013
G1 X128.442 Y125.599 E5.86679
G1 X127.534 Y126.574 E5.93326
G1 X126.591 Y127.516 E5.99976
G1 X125.617 Y128.425 E6.06623
G1 X124.613 Y129.299 E6.13264
G1 X123.579 Y130.137 E6.19904
G1 X122.514 Y130.941 E6.26561
G1 X121.423 Y131.705 E6.33206
G1 X120.307 Y132.431 E6.39848
G1 X119.166 Y133.119 E6.46496
G1 X118.000 Y133.767 E6.53151
G1 X116.814 Y134.372 E6.59793
G1 X115.607 Y134.937 E6.66442
G1 X114.383 Y135.458 E6.73079
G1 X113.140 Y135.938 E6.79726
G1 X111.880 Y136.373 E6.86377
G1 X110.605 Y136.765 E6.93032
G1 X109.319 Y137.111 E6.99676
G1 X108.022 Y137.413 E7.06319
G1 X106.715 Y137.670 E7.12965
G1 X105.399 Y137.881 E7.19614
G1 X104.078 Y138.045 E7.26255
G1 X102.750 Y138.165 E7.32908
G1 X101.419 Y138.236 E7.39558
G1 X100.089 Y138.264 E7.46195
G1 X98.671 Y138.241 E7.53270
G1 X97.336 Y138.172 E7.59939
G1 X96.009 Y138.055 E7.66585
G1 X94.689 Y137.894 E7.73220
G1 X93.372 Y137.686 E7.79872
G1 X92.064 Y137.433 E7.86518
G1 X90.765 Y137.134 E7.93168
G1 X89.478 Y136.790 E7.99815
G1 X88.203 Y136.402 E8.06464
G1 X86.942 Y135.968 E8.13117
G1 X85.698 Y135.491 E8.19764
G1 X84.473 Y134.972 E8.26401
G1 X83.265 Y134.411 E8.33046
G1 X82.076 Y133.807 E8.39700
G1 X80.910 Y133.163 E8.46345
G1 X79.768 Y132.478 E8.52989
G1 X78.649 Y131.754 E8.59638
G1 X77.557 Y130.992 E8.66282
G1 X76.491 Y130.191 E8.72934
G1 X75.456 Y129.356 E8.79569
G1 X74.448 Y128.483 E8.86221
G1 X73.473 Y127.577 E8.92862
G1 X72.527 Y126.637 E8.99515
G1 X71.616 Y125.662 E9.06172
G1 X70.741 Y124.660 E9.12809
G1 X69.900 Y123.627 E9.19455
G1 X69.045 Y122.496 E9.26528
G1 X68.278 Y121.402 E9.33194
G1 X67.553 Y120.284 E9.39842
G1 X66.866 Y119.144 E9.46482
G1 X66.220 Y117.979 E9.53128
G1 X65.614 Y116.791 E9.59782
G1 X65.051 Y115.584 E9.66426
G1 X64.530 Y114.360 E9.73063
G1 X64.050 Y113.115 E9.79720
G1 X63.616 Y111.855 E9.86369
G1 X63.226 Y110.583 E9.93006
G1 X62.879 Y109.298 E9.99647
G1 X62.577 Y107.997 E10.06310
G1 X62.322 Y106.691 E10.12949
G1 X62.111 Y105.376 E10.19593
G1 X61.947 Y104.052 E10.26249
G1 X61.830 Y102.726 E10.32890
G1 X61.758 Y101.396 E10.39535
G1 X61.733 Y100.063 E10.46187
G1 X61.753 Y98.732 E10.52828
G1 X61.821 Y97.400 E10.59482
G1 X61.934 Y96.074 E10.66121
G1 X62.094 Y94.751 E10.72770
G1 X62.300 Y93.435 E10.79416
G1 X62.551 Y92.127 E10.86060
G1 X62.867 Y90.743 E10.93143
G1 X63.214 Y89.453 E10.99807
G1 X63.602 Y88.180 E11.06447
G1 X64.035 Y86.920 E11.13094
G1 X64.512 Y85.676 E11.19741
G1 X65.033 Y84.448 E11.26396
G1 X65.596 Y83.241 E11.33040
G1 X66.199 Y82.055 E11.39678
G1 X66.844 Y80.888 E11.46331
G1 X67.530 Y79.745 E11.52981
G1 X68.254 Y78.627 E11.59626
G1 X69.017 Y77.536 E11.66268
G1 X69.818 Y76.472 E11.72913
G1 X70.655 Y75.435 E11.79561
G1 X71.528 Y74.428 E11.86210
G1 X72.435 Y73.452 E11.92858
G1 X73.376 Y72.510 E11.99500
G1 F2400 E7.99500
G0 F9000 X76.028 Y75.233
;TYPE:WALL-INNER
G1 F2400 E11.99500
G1 F1800 X76.904 Y74.412 E12.05490
G1 X77.792 Y73.638 E12.11367
G1 X78.724 Y72.881 E12.17357
G1 X79.682 Y72.157 E12.23348
G1 X80.680 Y71.454 E12.29439
G1 X81.667 Y70.811 E12.35316
G1 X82.712 Y70.180 E12.41406
G1 X83.743 Y69.606 E12.47293
G1 X84.829 Y69.049 E12.53382
G1 X85.978 Y68.510 E12.59714
G1 X87.084 Y68.040 E12.65709
G1 X88.200 Y67.612 E12.71672
G1 X89.327 Y67.224 E12.77619
G1 X90.485 Y66.869 E12.83662
G1 X91.643 Y66.559 E12.89642
G1 X92.822 Y66.286 E12.95680
G1 X93.982 Y66.060 E13.01576
G1 X95.185 Y65.868 E13.07654
G1 X96.356 Y65.723 E13.13541
G1 X97.572 Y65.616 E13.19631
G1 X98.753 Y65.552 E13.25531
G1 X99.960 Y65.530 E13.31554
G1 X101.169 Y65.550 E13.37587
G1 X102.346 Y65.610 E13.43466
G1 X103.550 Y65.714 E13.49496
G1 X104.746 Y65.859 E13.55506
G1 X105.940 Y66.046 E13.61536
G1 X107.101 Y66.271 E13.67436
G1 X108.278 Y66.540 E13.73459
G1 X109.447 Y66.851 E13.79494
G1 X110.575 Y67.193 E13.85375
G1 X111.711 Y67.582 E13.91365
G1 X112.851 Y68.017 E13.97453
G1 X113.956 Y68.483 E14.03436
G1 X115.026 Y68.979 E14.09320
G1 X116.168 Y69.558 E14.15708
G1 X117.237 Y70.150 E14.21804
G1 X118.265 Y70.767 E14.27786
G1 X119.254 Y71.409 E14.33668
G1 X120.237 Y72.097 E14.39654
G1 X121.213 Y72.831 E14.45747
G1 X122.129 Y73.572 E14.51625
G1 X123.051 Y74.373 E14.57718
G1 X123.914 Y75.177 E14.63603
G1 X124.764 Y76.024 E14.69589
G1 X125.597 Y76.916 E14.75678
G1 X126.372 Y77.804 E14.81559
G1 X127.128 Y78.737 E14.87550
G1 X127.864 Y79.711 E14.93640
G1 X128.553 Y80.693 E14.99625
G1 X129.196 Y81.681 E15.05506
G1 X129.827 Y82.726 E15.11596
G1 X130.400 Y83.756 E15.17477
G1 X130.947 Y84.825 E15.23468
G1 X131.460 Y85.919 E15.29496
G1 X131.927 Y87.015 E15.35440
G1 X132.367 Y88.154 E15.41531
G1 X132.759 Y89.287 E15.47513
G1 X133.107 Y90.414 E15.53397
G1 X133.426 Y91.593 E15.59491
G1 X133.693 Y92.741 E15.65371
G1 X133.940 Y93.997 E15.71757
G1 X134.129 Y95.182 E15.77744
G1 X134.275 Y96.373 E15.83730
G1 X134.382 Y97.589 E15.89820
G1 X134.445 Y98.765 E15.95696
G1 X134.466 Y99.966 E16.01689
G1 X134.446 Y101.185 E16.07771
G1 X134.385 Y102.364 E16.13661
G1 X134.281 Y103.560 E16.19650
G1 X134.137 Y104.751 E16.25636
G1 X133.947 Y105.956 E16.31722
G1 X133.724 Y107.114 E16.37605
G1 X133.455 Y108.284 E16.43595
G1 X133.140 Y109.464 E16.49688
G1 X132.797 Y110.592 E16.55570
G1 X132.401 Y111.747 E16.61661
G1 X131.981 Y112.848 E16.67540
G1 X131.505 Y113.972 E16.73630
G1 X131.009 Y115.042 E16.79514
G1 X130.456 Y116.131 E16.85607
G1 X129.887 Y117.163 E16.91487
G1 X129.271 Y118.193 E16.97474
G1 X128.608 Y119.218 E17.03565
G1 X127.934 Y120.186 E17.09449
G1 X127.201 Y121.163 E17.15543
G1 X126.412 Y122.142 E17.21816
G1 X125.610 Y123.064 E17.27913
G1 X124.792 Y123.942 E17.33899
G1 X123.959 Y124.775 E17.39777
G1 X123.081 Y125.594 E17.45767
G1 X122.160 Y126.395 E17.51857
G1 X121.231 Y127.149 E17.57826
G1 X120.272 Y127.873 E17.63821
G1 X119.305 Y128.550 E17.69710
G1 X118.298 Y129.205 E17.75703
G1 X117.262 Y129.829 E17.81737
G1 X116.204 Y130.417 E17.87776
G1 X115.154 Y130.953 E17.93657
G1 X114.048 Y131.470 E17.99748
G1 X112.963 Y131.932 E18.05631
G1 X111.826 Y132.371 E18.11712
G1 X110.690 Y132.764 E18.17709
G1 X109.563 Y133.111 E18.23592
G1 X108.393 Y133.425 E18.29636
G1 X107.235 Y133.695 E18.35568
G1 X106.038 Y133.930 E18.41654
G1 X104.864 Y134.118 E18.47586
G1 X103.682 Y134.266 E18.53529
G1 X102.467 Y134.375 E18.59615
G1 X101.287 Y134.438 E18.65510
G1 X100.080 Y134.463 E18.71533
G1 X98.791 Y134.442 E18.77965
G1 X97.612 Y134.381 E18.83855
G1 X96.409 Y134.275 E18.89880
G1 X95.209 Y134.129 E18.95911
G1 X94.018 Y133.941 E19.01927
G1 X92.864 Y133.717 E19.07791
G1 X91.681 Y133.445 E19.13847
G1 X90.513 Y133.133 E19.19879
G1 X89.365 Y132.783 E19.25866
G1 X88.247 Y132.399 E19.31764
G1 X87.110 Y131.963 E19.37839
G1 X86.024 Y131.503 E19.43723
G1 X84.932 Y130.996 E19.49730
G1 X83.848 Y130.445 E19.55797
G1 X82.814 Y129.873 E19.61692
G1 X81.781 Y129.255 E19.67698
G1 X80.761 Y128.594 E19.73761
G1 X79.795 Y127.920 E19.79638
G1 X78.819 Y127.186 E19.85731
G1 X77.899 Y126.445 E19.91624
G1 X76.978 Y125.647 E19.97704
G1 X76.113 Y124.844 E20.03592
G1 X75.262 Y123.998 E20.09579
G1 X74.443 Y123.122 E20.15562
G1 X73.640 Y122.202 E20.21654
G1 X72.897 Y121.289 E20.27527
G1 X72.111 Y120.250 E20.34027
G1 X71.422 Y119.268 E20.40011
G1 X70.781 Y118.278 E20.45896
G1 X70.151 Y117.232 E20.51987
G1 X69.570 Y116.184 E20.57966
G1 X69.034 Y115.133 E20.63852
G1 X68.518 Y114.027 E20.69940
G1 X68.055 Y112.940 E20.75835
G1 X67.617 Y111.802 E20.81919
G1 X67.233 Y110.688 E20.87797
G1 X66.875 Y109.521 E20.93887
G1 X66.562 Y108.363 E20.99872
G1 X66.296 Y107.214 E21.05756
G1 X66.062 Y106.016 E21.11846
G1 X65.872 Y104.831 E21.17833
G1 X65.728 Y103.661 E21.23714
G1 X65.620 Y102.445 E21.29805
G1 X65.556 Y101.264 E21.35705
G1 X65.533 Y100.067 E21.41678
G1 X65.552 Y98.847 E21.47766
G1 X65.612 Y97.669 E21.53650
G1 X65.714 Y96.474 E21.59634
G1 X65.857 Y95.283 E21.65619
G1 X66.046 Y94.077 E21.71709
G1 X66.268 Y92.919 E21.77591
G1 X66.558 Y91.649 E21.84090
G1 X66.864 Y90.510 E21.89974
G1 X67.220 Y89.343 E21.96062
G1 X67.603 Y88.229 E22.01939
G1 X68.040 Y87.089 E22.08030
G1 X68.501 Y86.003 E22.13916
G1 X69.017 Y84.897 E22.20004
G1 X69.561 Y83.827 E22.25993
G1 X70.132 Y82.795 E22.31877
G1 X70.760 Y81.748 E22.37968
G1 X71.401 Y80.759 E22.43848
G1 X72.088 Y79.776 E22.49831
G1 X72.822 Y78.800 E22.55924
G1 X73.576 Y77.866 E22.61913
G1 X74.362 Y76.960 E22.67897
G1 X75.165 Y76.097 E22.73778
G1 X76.028 Y75.233 E22.79870
G0 F9000 X85.220 Y84.520
G1 F1800 X84.538 Y85.202 E22.84682
G1 X83.887 Y85.914 E22.89495
G1 X83.269 Y86.655 E22.94309
G1 X82.739 Y87.349 E22.98666
G1 X82.135 Y88.214 E23.03929
G1 X81.670 Y88.956 E23.08298
G1 X81.192 Y89.793 E23.13107
G1 X80.750 Y90.649 E23.17913
G1 X80.310 Y91.610 E23.23186
G1 X79.986 Y92.423 E23.27552
G1 X79.665 Y93.331 E23.32357
G1 X79.385 Y94.255 E23.37174
G1 X79.147 Y95.190 E23.41987
G1 X78.952 Y96.135 E23.46801
G1 X78.799 Y97.087 E23.51612
G1 X78.689 Y98.045 E23.56423
G1 X78.623 Y99.010 E23.61248
G1 X78.601 Y99.973 E23.66054
G1 X78.620 Y100.938 E23.70869
G1 X78.684 Y101.900 E23.75679
G1 X78.792 Y102.860 E23.80499
G1 X78.942 Y103.813 E23.85312
G1 X79.136 Y104.758 E23.90125
G1 X79.349 Y105.606 E23.94487
G1 X79.623 Y106.529 E23.99291
G1 X79.938 Y107.442 E24.04109
G1 X80.293 Y108.338 E24.08917
G1 X80.691 Y109.219 E24.13740
G1 X81.126 Y110.080 E24.18553
G1 X81.599 Y110.920 E24.23363
G1 X82.109 Y111.739 E24.28176
G1 X82.651 Y112.524 E24.32935
G1 X83.241 Y113.303 E24.37811
G1 X83.857 Y114.045 E24.42622
G1 X84.506 Y114.758 E24.47432
G1 X85.188 Y115.442 E24.52251
G1 X85.900 Y116.094 E24.57067
G1 X86.639 Y116.713 E24.61877
G1 X87.407 Y117.298 E24.66693
G1 X88.199 Y117.849 E24.71507
G1 X89.016 Y118.362 E24.76320
G1 X89.854 Y118.838 E24.81128
G1 X90.714 Y119.277 E24.85945
G1 X91.510 Y119.638 E24.90306
G1 X92.403 Y120.001 E24.95115
G1 X93.311 Y120.323 E24.99921
G1 X94.235 Y120.604 E25.04740
G1 X95.170 Y120.843 E25.09555
G1 X96.115 Y121.040 E25.14370
G1 X97.068 Y121.194 E25.19187
G1 X98.026 Y121.305 E25.23998
G1 X98.988 Y121.372 E25.28809
G1 X99.944 Y121.396 E25.33580
G1 X100.048 Y121.397 E25.34099
G1 X100.909 Y121.377 E25.38396
G1 X101.882 Y121.313 E25.43261
G1 X102.840 Y121.207 E25.48069
G1 X103.793 Y121.057 E25.52882
G1 X104.738 Y120.864 E25.57694
G1 X105.674 Y120.630 E25.62508
G1 X106.599 Y120.353 E25.67325
G1 X107.510 Y120.035 E25.72139
G1 X108.406 Y119.676 E25.76955
G1 X109.284 Y119.277 E25.81766
G1 X110.063 Y118.880 E25.86128
G1 X110.903 Y118.408 E25.90935
G1 X111.722 Y117.898 E25.95749
G1 X112.517 Y117.352 E26.00560
G1 X113.274 Y116.779 E26.05297
G1 X114.030 Y116.154 E26.10191
G1 X114.745 Y115.506 E26.15005
G1 X115.428 Y114.825 E26.19817
G1 X116.081 Y114.115 E26.24629
G1 X116.701 Y113.375 E26.29446
G1 X117.288 Y112.608 E26.34264
G1 X117.839 Y111.817 E26.39074
G1 X118.354 Y111.000 E26.43892
G1 X118.831 Y110.161 E26.48707
G1 X119.270 Y109.302 E26.53520
G1 X119.670 Y108.424 E26.58333
G1 X120.030 Y107.530 E26.63141
G1 X120.350 Y106.618 E26.67963
G1 X120.628 Y105.695 E26.72772
G1 X120.863 Y104.758 E26.77592
G1 X121.038 Y103.903 E26.81946
G1 X121.192 Y102.952 E26.86752
G1 X121.305 Y101.993 E26.91570
G1 X121.372 Y101.031 E26.96381
G1 X121.398 Y100.080 E27.01127
G1 X121.400 Y99.975 E27.01651
G1 X121.380 Y99.101 E27.06013
G1 X121.318 Y98.139 E27.10822
G1 X121.212 Y97.180 E27.15636
G1 X121.064 Y96.226 E27.20452
G1 X120.872 Y95.281 E27.25263
G1 X120.639 Y94.345 E27.30075
G1 X120.363 Y93.419 E27.34896
G1 X120.045 Y92.508 E27.39710
G1 X119.688 Y91.612 E27.44522
G1 X119.290 Y90.733 E27.49336
G1 X118.853 Y89.873 E27.54149
G1 X118.378 Y89.034 E27.58959
G1 X117.865 Y88.216 E27.63776
G1 X117.314 Y87.422 E27.68598
G1 X116.730 Y86.655 E27.73407
G1 X116.171 Y85.984 E27.77764
G1 X115.523 Y85.270 E27.82575
G1 X114.843 Y84.585 E27.87390
G1 X114.134 Y83.931 E27.92202
G1 X113.396 Y83.310 E27.97014
G1 X112.629 Y82.723 E28.01833
G1 X111.838 Y82.171 E28.06645
G1 X111.022 Y81.655 E28.11462
G1 X110.184 Y81.177 E28.16275
G1 X109.325 Y80.738 E28.21088
G1 X108.448 Y80.337 E28.25899
G1 X107.553 Y79.976 E28.30714
G1 X106.643 Y79.655 E28.35528
G1 X105.719 Y79.377 E28.40342
G1 X104.783 Y79.139 E28.45160
G1 X103.839 Y78.945 E28.49968
G1 X102.885 Y78.792 E28.54788
G1 X101.927 Y78.684 E28.59598
G1 X100.964 Y78.618 E28.64414
G1 X100.000 Y78.597 E28.69225
G1 X99.126 Y78.616 E28.73586
G1 X98.164 Y78.677 E28.78395
G1 X97.206 Y78.782 E28.83203
G1 X96.252 Y78.929 E28.88019
G1 X95.306 Y79.119 E28.92833
G1 X94.369 Y79.352 E28.97650
G1 X93.444 Y79.627 E29.02464
G1 X92.532 Y79.943 E29.07280
G1 X91.636 Y80.301 E29.12093
G1 X90.757 Y80.698 E29.16905
G1 X89.896 Y81.133 E29.21718
G1 X89.056 Y81.607 E29.26530
G1 X88.238 Y82.120 E29.31347
G1 X87.444 Y82.668 E29.36160
G1 X86.675 Y83.251 E29.40975
G1 X85.935 Y83.869 E29.45785
G1 X85.220 Y84.520 E29.50609
G0 F9000 X85.497 Y84.809
;TYPE:WALL-OUTER
G1 F1800 X84.827 Y85.479 E29.55336
G1 X84.188 Y86.177 E29.60057
G1 X83.582 Y86.904 E29.64779
G1 X83.062 Y87.585 E29.69054
G1 X82.468 Y88.435 E29.74227
G1 X82.013 Y89.161 E29.78502
G1 X81.543 Y89.984 E29.83230
G1 X81.110 Y90.824 E29.87945
G1 X80.678 Y91.767 E29.93120
G1 X80.361 Y92.564 E29.97399
G1 X80.045 Y93.456 E30.02120
G1 X79.770 Y94.362 E30.06844
G1 X79.537 Y95.280 E30.11569
G1 X79.345 Y96.207 E30.16292
G1 X79.196 Y97.142 E30.21016
G1 X79.088 Y98.082 E30.25736
G1 X79.023 Y99.028 E30.30467
G1 X79.001 Y99.974 E30.35188
