;Generated with Cura_SteamEngine 15.01
; Default start code
G28 ; Home extruder
G1 Z15 F100
M107 ; Turn off fan
G90 ; Absolute positioning
M82 ; Extruder in absolute mode
M190 S80
; Activate all used extruder
M104 T0 S220
G92 E0 ; Reset extruder position
; Wait for all used extruders to reach temperature
M109 T0 S220
;Layer count: 180
;LAYER:0
M107
G0 F9000 X91.800 Y69.735 Z0.300
;TYPE:SKIRT
G1 F1800 X95.427 Y69.136 E0.18340
G1 X96.439 Y69.003 E0.23433
G1 X97.452 Y68.904 E0.28511
G1 X98.469 Y68.837 E0.33595
G1 X99.485 Y68.804 E0.38667
G1 X100.506 Y68.802 E0.43761
G1 X101.529 Y68.837 E0.48867
G1 X102.531 Y68.902 E0.53877
G1 X103.544 Y69.001 E0.58955
G1 X104.556 Y69.133 E0.64047
G1 X108.190 Y69.732 E0.82421
G1 X108.199 Y83.750 E1.52357
G1 X108.225 Y83.763 E1.52502
G1 X108.316 Y83.812 E1.53018
G1 X109.454 Y84.038 E1.58806
G1 X110.173 Y84.264 E1.62567
G1 X110.858 Y84.539 E1.66249
G1 X111.931 Y85.112 E1.72318
G1 X112.554 Y85.538 E1.76083
G1 X113.128 Y85.999 E1.79756
G1 X114.028 Y86.898 E1.86103
G1 X114.801 Y87.932 E1.92543
G1 X115.212 Y88.634 E1.96602
G1 X115.732 Y89.803 E2.02985
G1 X116.084 Y91.063 E2.09512
G1 X116.185 Y91.679 E2.12626
G1 X116.212 Y91.730 E2.12914
G1 X116.246 Y91.800 E2.13302
G1 X130.264 Y91.800 E2.83238
G1 X130.863 Y95.427 E3.01579
G1 X130.996 Y96.439 E3.06671
G1 X131.095 Y97.452 E3.11749
G1 X131.162 Y98.469 E3.16834
G1 X131.195 Y99.485 E3.21905
G1 X131.197 Y100.506 E3.26999
G1 X131.162 Y101.529 E3.32106
G1 X131.097 Y102.531 E3.37115
G1 X130.998 Y103.544 E3.42193
G1 X130.866 Y104.556 E3.47285
G1 X130.267 Y108.190 E3.65660
G1 X116.248 Y108.199 E4.35601
G1 X116.235 Y108.225 E4.35746
G1 X116.188 Y108.314 E4.36248
G1 X115.961 Y109.454 E4.42047
G1 X115.735 Y110.173 E4.45807
G1 X115.460 Y110.858 E4.49490
G1 X114.887 Y111.931 E4.55558
G1 X114.461 Y112.554 E4.59324
G1 X114.000 Y113.128 E4.62997
G1 X113.101 Y114.028 E4.69343
G1 X112.067 Y114.801 E4.75784
G1 X111.365 Y115.212 E4.79842
G1 X110.196 Y115.732 E4.86226
G1 X108.936 Y116.084 E4.92752
G1 X108.321 Y116.184 E4.95861
G1 X108.247 Y116.224 E4.96281
G1 X108.200 Y116.247 E4.96542
G1 X108.200 Y130.264 E5.66473
G1 X104.572 Y130.863 E5.84818
G1 X103.560 Y130.996 E5.89910
G1 X102.547 Y131.095 E5.94988
G1 X101.530 Y131.162 E6.00073
G1 X100.514 Y131.195 E6.05145
G1 X99.493 Y131.197 E6.10238
G1 X98.470 Y131.162 E6.15345
G1 X97.468 Y131.097 E6.20355
G1 X96.455 Y130.998 E6.25433
G1 X95.443 Y130.866 E6.30524
G1 X91.810 Y130.266 E6.48895
G1 X91.801 Y116.249 E7.18826
G1 X91.775 Y116.236 E7.18971
G1 X91.684 Y116.188 E7.19484
G1 X90.545 Y115.961 E7.25279
G1 X89.826 Y115.735 E7.29039
G1 X89.141 Y115.460 E7.32721
G1 X88.068 Y114.887 E7.38790
G1 X87.445 Y114.461 E7.42555
G1 X86.871 Y114.000 E7.46228
G1 X85.971 Y113.101 E7.52575
G1 X85.198 Y112.067 E7.59016
G1 X84.787 Y111.365 E7.63074
G1 X84.267 Y110.196 E7.69457
G1 X83.915 Y108.936 E7.75984
G1 X83.814 Y108.320 E7.79098
G1 X83.787 Y108.269 E7.79386
G1 X83.754 Y108.200 E7.79768
G1 X69.735 Y108.200 E8.49709
G1 X69.136 Y104.572 E8.68054
G1 X69.003 Y103.560 E8.73146
G1 X68.904 Y102.547 E8.78224
G1 X68.837 Y101.530 E8.83309
G1 X68.804 Y100.514 E8.88381
G1 X68.802 Y99.493 E8.93474
G1 X68.837 Y98.470 E8.98581
G1 X68.902 Y97.468 E9.03591
G1 X69.001 Y96.455 E9.08669
G1 X69.133 Y95.443 E9.13760
G1 X69.733 Y91.810 E9.32131
G1 X83.750 Y91.801 E10.02062
G1 X83.763 Y91.775 E10.02207
G1 X83.811 Y91.684 E10.02720
G1 X84.038 Y90.545 E10.08515
G1 X84.264 Y89.826 E10.12275
G1 X84.539 Y89.141 E10.15957
G1 X85.112 Y88.068 E10.22026
G1 X85.538 Y87.445 E10.25791
G1 X85.999 Y86.871 E10.29464
G1 X86.898 Y85.971 E10.35811
G1 X87.932 Y85.198 E10.42252
G1 X88.634 Y84.787 E10.46310
G1 X89.803 Y84.267 E10.52693
G1 X91.063 Y83.915 E10.59220
G1 X91.679 Y83.814 E10.62334
G1 X91.730 Y83.787 E10.62622
G1 X91.800 Y83.753 E10.63010
G1 X91.800 Y69.735 E11.32946
G1 F2400 E7.32946
G0 F9000 X95.600 Y72.959
;TYPE:WALL-INNER
G1 F2400 E11.32946
G1 F1800 X96.881 Y72.778 E11.39401
G1 X97.752 Y72.693 E11.43767
G1 X98.654 Y72.634 E11.48277
G1 X99.561 Y72.604 E11.52804
G1 X100.436 Y72.602 E11.57170
G1 X101.342 Y72.633 E11.61692
G1 X102.232 Y72.691 E11.66142
G1 X103.109 Y72.777 E11.70538
G1 X103.999 Y72.892 E11.75015
G1 X104.392 Y72.957 E11.77003
G1 X104.400 Y86.271 E12.43427
G1 X105.360 Y86.635 E12.48549
G1 X105.944 Y86.884 E12.51716
G1 X106.503 Y87.152 E12.54809
G1 X107.197 Y87.523 E12.58735
G1 X107.733 Y87.570 E12.61419
G1 X108.510 Y87.724 E12.65371
G1 X109.252 Y87.989 E12.69302
G1 X109.957 Y88.366 E12.73291
G1 X110.291 Y88.594 E12.75308
G1 X110.585 Y88.830 E12.77189
G1 X111.149 Y89.393 E12.81165
G1 X111.630 Y90.037 E12.85175
G1 X111.827 Y90.374 E12.87123
G1 X112.147 Y91.092 E12.91044
G1 X112.367 Y91.883 E12.95140
G1 X112.429 Y92.258 E12.97037
G1 X112.476 Y92.803 E12.99766
G1 X112.831 Y93.465 E13.03514
G1 X113.093 Y94.008 E13.06521
G1 X113.360 Y94.627 E13.09885
G1 X113.727 Y95.600 E13.15073
G1 X127.040 Y95.600 E13.81492
G1 X127.221 Y96.881 E13.87946
G1 X127.306 Y97.752 E13.92312
G1 X127.365 Y98.646 E13.96782
G1 X127.395 Y99.561 E14.01349
G1 X127.397 Y100.435 E14.05710
G1 X127.367 Y101.331 E14.10183
G1 X127.308 Y102.232 E14.14687
G1 X127.223 Y103.105 E14.19063
G1 X127.108 Y103.991 E14.23521
G1 X127.042 Y104.392 E14.25548
G1 X113.728 Y104.400 E14.91972
G1 X113.355 Y105.384 E14.97222
G1 X113.113 Y105.949 E15.00288
G1 X112.843 Y106.511 E15.03399
G1 X112.548 Y107.062 E15.06517
G1 X112.476 Y107.193 E15.07263
G1 X112.429 Y107.733 E15.09967
G1 X112.275 Y108.510 E15.13919
G1 X112.010 Y109.252 E15.17850
G1 X111.633 Y109.957 E15.21839
G1 X111.405 Y110.291 E15.23856
G1 X111.169 Y110.585 E15.25737
G1 X110.606 Y111.149 E15.29713
G1 X109.962 Y111.630 E15.33723
G1 X109.625 Y111.827 E15.35671
G1 X108.907 Y112.147 E15.39592
G1 X108.116 Y112.367 E15.43688
G1 X107.741 Y112.429 E15.45585
G1 X107.196 Y112.476 E15.48314
G1 X106.521 Y112.837 E15.52133
G1 X105.971 Y113.102 E15.55179
G1 X105.416 Y113.341 E15.58193
G1 X104.400 Y113.729 E15.63619
G1 X104.400 Y127.040 E16.30028
G1 X103.119 Y127.221 E16.36482
G1 X102.247 Y127.306 E16.40854
G1 X101.345 Y127.365 E16.45363
G1 X100.438 Y127.395 E16.49891
G1 X99.563 Y127.397 E16.54256
G1 X98.657 Y127.366 E16.58779
G1 X97.767 Y127.308 E16.63228
G1 X96.890 Y127.222 E16.67625
G1 X96.000 Y127.107 E16.72102
G1 X95.608 Y127.042 E16.74084
G1 X95.600 Y113.727 E17.40513
G1 X94.638 Y113.364 E17.45643
G1 X94.055 Y113.115 E17.48806
G1 X93.496 Y112.847 E17.51899
G1 X92.937 Y112.548 E17.55061
G1 X92.806 Y112.476 E17.55807
G1 X92.266 Y112.429 E17.58511
G1 X91.489 Y112.275 E17.62463
G1 X90.747 Y112.010 E17.66394
G1 X90.042 Y111.633 E17.70383
G1 X89.708 Y111.405 E17.72400
G1 X89.414 Y111.169 E17.74281
G1 X88.850 Y110.606 E17.78257
G1 X88.369 Y109.962 E17.82267
G1 X88.172 Y109.625 E17.84215
G1 X87.852 Y108.907 E17.88136
G1 X87.632 Y108.116 E17.92232
G1 X87.570 Y107.741 E17.94129
G1 X87.523 Y107.196 E17.96858
G1 X87.168 Y106.534 E18.00605
G1 X86.897 Y105.972 E18.03718
G1 X86.658 Y105.416 E18.06738
G1 X86.270 Y104.400 E18.12163
G1 X72.959 Y104.400 E18.78572
G1 X72.778 Y103.118 E18.85032
G1 X72.693 Y102.247 E18.89398
G1 X72.633 Y101.334 E18.93963
G1 X72.604 Y100.438 E18.98435
G1 X72.602 Y99.564 E19.02795
G1 X72.632 Y98.668 E19.07268
G1 X72.691 Y97.767 E19.11773
G1 X72.776 Y96.894 E19.16149
G1 X72.891 Y96.008 E19.20606
G1 X72.957 Y95.608 E19.22629
G1 X86.272 Y95.600 E19.89058
G1 X86.632 Y94.645 E19.94149
G1 X86.884 Y94.055 E19.97350
G1 X87.147 Y93.505 E20.00392
G1 X87.451 Y92.937 E20.03606
G1 X87.523 Y92.806 E20.04352
G1 X87.570 Y92.266 E20.07056
G1 X87.724 Y91.489 E20.11008
G1 X87.989 Y90.747 E20.14939
G1 X88.366 Y90.042 E20.18927
G1 X88.597 Y89.704 E20.20970
G1 X88.830 Y89.414 E20.22826
G1 X89.393 Y88.850 E20.26801
G1 X90.037 Y88.369 E20.30812
G1 X90.374 Y88.172 E20.32759
G1 X91.092 Y87.852 E20.36681
G1 X91.883 Y87.632 E20.40777
G1 X92.258 Y87.570 E20.42673
G1 X92.803 Y87.523 E20.45402
G1 X93.458 Y87.172 E20.49110
G1 X94.018 Y86.901 E20.52214
G1 X94.589 Y86.655 E20.55315
G1 X95.600 Y86.271 E20.60711
G1 X95.600 Y72.959 E21.27125
G0 F9000 X95.564 Y86.246
G0 X92.258 Y87.570
G0 X90.499 Y90.499
G1 F1800 X90.499 Y97.300 E21.61055
G1 X89.664 Y97.319 E21.65222
G1 X89.327 Y97.383 E21.66933
G1 X89.004 Y97.488 E21.68628
G1 X88.698 Y97.632 E21.70315
G1 X88.411 Y97.815 E21.72013
G1 X88.151 Y98.030 E21.73696
G1 X87.918 Y98.277 E21.75390
G1 X87.719 Y98.552 E21.77084
G1 X87.555 Y98.849 E21.78777
G1 X87.430 Y99.166 E21.80477
G1 X87.346 Y99.494 E21.82166
G1 X87.304 Y99.830 E21.83855
G1 X87.304 Y100.169 E21.85546
G1 X87.346 Y100.505 E21.87236
G1 X87.430 Y100.833 E21.88925
G1 X87.555 Y101.150 E21.90625
G1 X87.719 Y101.447 E21.92318
G1 X87.918 Y101.722 E21.94011
G1 X88.151 Y101.969 E21.95705
G1 X88.411 Y102.184 E21.97388
G1 X88.698 Y102.367 E21.99087
G1 X89.004 Y102.511 E22.00774
G1 X89.327 Y102.616 E22.02468
G1 X89.676 Y102.682 E22.04240
G1 X90.499 Y102.692 E22.08347
G1 X90.499 Y109.500 E22.42312
G1 X109.500 Y109.500 E23.37108
G1 X109.500 Y102.699 E23.71039
G1 X110.335 Y102.680 E23.75205
G1 X110.672 Y102.616 E23.76917
G1 X110.995 Y102.511 E23.78611
G1 X111.301 Y102.367 E23.80299
G1 X111.588 Y102.184 E23.81997
G1 X111.848 Y101.969 E23.83680
G1 X112.081 Y101.722 E23.85374
G1 X112.280 Y101.447 E23.87067
G1 X112.444 Y101.150 E23.88760
G1 X112.569 Y100.833 E23.90460
G1 X112.653 Y100.505 E23.92149
G1 X112.695 Y100.169 E23.93839
G1 X112.695 Y99.830 E23.95530
G1 X112.653 Y99.494 E23.97219
G1 X112.569 Y99.166 E23.98909
G1 X112.444 Y98.849 E24.00609
G1 X112.280 Y98.552 E24.02301
G1 X112.081 Y98.277 E24.03995
G1 X111.848 Y98.030 E24.05689
G1 X111.588 Y97.815 E24.07372
G1 X111.301 Y97.632 E24.09070
G1 X110.995 Y97.488 E24.10757
G1 X110.672 Y97.383 E24.12452
G1 X110.323 Y97.317 E24.14224
G1 X109.500 Y97.307 E24.18330
G1 X109.500 Y90.499 E24.52295
G1 X90.499 Y90.499 E25.47092
G0 F9000 X90.899 Y90.899
;TYPE:WALL-OUTER
G1 F1800 X90.899 Y97.700 E25.81022
G1 X90.032 Y97.700 E25.85348
G1 X89.712 Y97.717 E25.86946
G1 X89.427 Y97.771 E25.88393
G1 X89.152 Y97.861 E25.89837
G1 X88.891 Y97.983 E25.91274
G1 X88.647 Y98.139 E25.92719
G1 X88.425 Y98.323 E25.94158
G1 X88.227 Y98.533 E25.95598
G1 X88.057 Y98.767 E25.97041
G1 X87.918 Y99.020 E25.98481
G1 X87.811 Y99.289 E25.99925
G1 X87.740 Y99.569 E26.01366
G1 X87.704 Y99.855 E26.02804
G1 X87.704 Y100.144 E26.04246
G1 X87.740 Y100.430 E26.05684
G1 X87.811 Y100.710 E26.07126
G1 X87.918 Y100.979 E26.08570
G1 X88.057 Y101.232 E26.10010
G1 X88.227 Y101.466 E26.11453
G1 X88.425 Y101.676 E26.12893
G1 X88.647 Y101.860 E26.14332
G1 X88.891 Y102.016 E26.15776
G1 X89.152 Y102.138 E26.17214
G1 X89.427 Y102.228 E26.18657
G1 X89.716 Y102.283 E26.20125
G1 X90.899 Y102.297 E26.26027
G1 X90.899 Y109.100 E26.59968
G1 X109.100 Y109.100 E27.50773
G1 X109.100 Y102.299 E27.84703
G1 X109.968 Y102.299 E27.89034
G1 X110.287 Y102.282 E27.90627
G1 X110.572 Y102.228 E27.92075
G1 X110.847 Y102.138 E27.93518
G1 X111.108 Y102.016 E27.94956
G1 X111.352 Y101.860 E27.96400
G1 X111.574 Y101.676 E27.97839
G1 X111.772 Y101.466 E27.99279
G1 X111.942 Y101.232 E28.00722
G1 X112.081 Y100.979 E28.02162
G1 X112.188 Y100.710 E28.03606
G1 X112.259 Y100.430 E28.05048
G1 X112.295 Y100.144 E28.06486
G1 X112.295 Y99.855 E28.07928
G1 X112.259 Y99.569 E28.09366
G1 X112.188 Y99.289 E28.10807
G1 X112.081 Y99.020 E28.12251
G1 X111.942 Y98.767 E28.13691
G1 X111.772 Y98.533 E28.15134
G1 X111.574 Y98.323 E28.16574
G1 X111.352 Y98.139 E28.18013
G1 X111.108 Y97.983 E28.19458
G1 X110.847 Y97.861 E28.20895
G1 X110.572 Y97.771 E28.22339
G1 X110.283 Y97.716 E28.23806
G1 X109.100 Y97.702 E28.29709
G1 X109.100 Y90.899 E28.63649
G1 X90.899 Y90.899 E29.54454
G0 F9000 X90.899 Y90.599
G0 X88.753 Y89.349
G0 X88.534 Y89.144
G1 F1800 X89.130 Y88.547 E29.58663
G1 X89.812 Y88.038 E29.62908
G1 X90.191 Y87.816 E29.65100
G1 X90.955 Y87.476 E29.69272
G1 X91.803 Y87.239 E29.73665
G1 X92.211 Y87.173 E29.75727
G1 X92.686 Y87.132 E29.78105
G1 X93.269 Y86.819 E29.81406
G1 X93.849 Y86.539 E29.84620
G1 X94.448 Y86.281 E29.87873
G1 X95.200 Y85.995 E29.91887
G1 X95.200 Y72.619 E30.58621
G1 X95.927 Y72.499 E30.62297
G1 X96.822 Y72.382 E30.66800
G1 X97.726 Y72.294 E30.71331
G1 X98.639 Y72.234 E30.75896
G1 X99.548 Y72.204 E30.80433
G1 X100.448 Y72.202 E30.84924
G1 X101.357 Y72.233 E30.89461
G1 X102.258 Y72.292 E30.93966
G1 X103.163 Y72.380 E30.98502
G1 X104.059 Y72.496 E31.03010
G1 X104.792 Y72.617 E31.06716
G1 X104.800 Y85.995 E31.73459
G1 X105.518 Y86.267 E31.77290
G1 X106.111 Y86.520 E31.80506
G1 X106.683 Y86.794 E31.83671
G1 X107.313 Y87.132 E31.87238
G1 X107.782 Y87.172 E31.89586
G1 X108.607 Y87.336 E31.93782
G1 X109.029 Y87.469 E31.95990
G1 X109.426 Y87.628 E31.98123
G1 X110.162 Y88.021 E32.02286
G1 X110.528 Y88.271 E32.04497
G1 X110.855 Y88.534 E32.06591
G1 X111.452 Y89.130 E32.10800
G1 X111.961 Y89.812 E32.15045
G1 X112.183 Y90.191 E32.17237
G1 X112.523 Y90.955 E32.21409
G1 X112.761 Y91.807 E32.25822
G1 X112.826 Y92.205 E32.27834
G1 X112.867 Y92.686 E32.30242
G1 X113.180 Y93.269 E32.33544
G1 X113.460 Y93.849 E32.36757
G1 X113.724 Y94.460 E32.40077
G1 X114.004 Y95.200 E32.44025
G1 X127.380 Y95.200 E33.10758
G1 X127.499 Y95.922 E33.14409
G1 X127.617 Y96.822 E33.18937
G1 X127.705 Y97.726 E33.23468
G1 X127.765 Y98.633 E33.28003
G1 X127.795 Y99.541 E33.32536
G1 X127.797 Y100.448 E33.37061
G1 X127.766 Y101.357 E33.41599
G1 X127.707 Y102.258 E33.46103
G1 X127.620 Y103.156 E33.50604
G1 X127.503 Y104.056 E33.55132
G1 X127.382 Y104.792 E33.58854
G1 X114.004 Y104.800 E34.25597
G1 X113.727 Y105.531 E34.29497
G1 X113.470 Y106.130 E34.32749
G1 X113.201 Y106.690 E34.35848
G1 X112.899 Y107.255 E34.39044
G1 X112.867 Y107.312 E34.39370
G1 X112.827 Y107.782 E34.41724
G1 X112.663 Y108.607 E34.45920
G1 X112.530 Y109.029 E34.48128
G1 X112.371 Y109.426 E34.50261
G1 X111.978 Y110.162 E34.54424
G1 X111.728 Y110.528 E34.56635
G1 X111.465 Y110.855 E34.58729
G1 X110.869 Y111.452 E34.62937
G1 X110.187 Y111.961 E34.67183
G1 X109.808 Y112.183 E34.69374
G1 X109.044 Y112.523 E34.73546
G1 X108.196 Y112.760 E34.77939
G1 X107.788 Y112.826 E34.80001
G1 X107.313 Y112.867 E34.82380
G1 X106.705 Y113.194 E34.85824
G1 X106.150 Y113.460 E34.88894
G1 X105.550 Y113.718 E34.92153
G1 X104.800 Y114.004 E34.96157
G1 X104.800 Y127.380 E35.62891
G1 X104.072 Y127.500 E35.66572
G1 X103.177 Y127.617 E35.71075
G1 X102.273 Y127.705 E35.75606
G1 X101.360 Y127.765 E35.80171
G1 X100.451 Y127.795 E35.84708
G1 X99.551 Y127.797 E35.89199
G1 X98.642 Y127.766 E35.93736
G1 X97.741 Y127.707 E35.98241
G1 X96.836 Y127.619 E36.02777
G1 X95.940 Y127.503 E36.07285
G1 X95.208 Y127.382 E36.10986
G1 X95.200 Y114.004 E36.77729
G1 X94.481 Y113.732 E36.81565
G1 X93.888 Y113.479 E36.84781
G1 X93.313 Y113.203 E36.87963
G1 X92.742 Y112.898 E36.91193
G1 X92.687 Y112.867 E36.91508
G1 X92.217 Y112.827 E36.93861
G1 X91.392 Y112.663 E36.98058
G1 X90.970 Y112.530 E37.00265
G1 X90.573 Y112.371 E37.02399
G1 X89.837 Y111.978 E37.06561
G1 X89.471 Y111.728 E37.08773
G1 X89.144 Y111.465 E37.10866
G1 X88.547 Y110.869 E37.15075
G1 X88.038 Y110.187 E37.19320
G1 X87.816 Y109.808 E37.21512
G1 X87.476 Y109.044 E37.25684
G1 X87.238 Y108.192 E37.30097
G1 X87.173 Y107.788 E37.32139
G1 X87.132 Y107.313 E37.34517
G1 X86.819 Y106.730 E37.37819
G1 X86.539 Y106.150 E37.41032
G1 X86.281 Y105.551 E37.44286
G1 X85.995 Y104.800 E37.48295
G1 X72.619 Y104.800 E38.15028
G1 X72.499 Y104.070 E38.18719
G1 X72.381 Y103.170 E38.23247
G1 X72.294 Y102.273 E38.27744
G1 X72.234 Y101.360 E38.32308
G1 X72.204 Y100.458 E38.36811
G1 X72.202 Y99.551 E38.41336
G1 X72.233 Y98.642 E38.45874
G1 X72.292 Y97.741 E38.50378
G1 X72.379 Y96.843 E38.54879
G1 X72.496 Y95.943 E38.59407
G1 X72.617 Y95.208 E38.63124
G1 X85.995 Y95.200 E39.29867
G1 X86.264 Y94.488 E39.33664
G1 X86.520 Y93.888 E39.36919
G1 X86.794 Y93.316 E39.40083
G1 X87.100 Y92.744 E39.43319
G1 X87.132 Y92.687 E39.43645
G1 X87.172 Y92.217 E39.45999
G1 X87.336 Y91.392 E39.50195
G1 X87.469 Y90.970 E39.52403
G1 X87.628 Y90.573 E39.54536
G1 X88.021 Y89.837 E39.58699
G1 X88.271 Y89.471 E39.60910
G1 X88.534 Y89.144 E39.63004
G0 F9000 X88.810 Y89.659
;TYPE:SKIN
G1 F1800 X90.359 Y91.207 E39.73929
G0 F9000 X90.359 Y91.773
G1 F1800 X88.572 Y89.986 E39.86537
G0 F9000 X88.362 Y90.342
