;Generated with Cura_SteamEngine 15.01
; Default start code
G28 ; Home extruder
G1 Z15 F100
M107 ; Turn off fan
G90 ; Absolute positioning
M82 ; Extruder in absolute mode
M190 S80
; Activate all used extruder
M104 T0 S220
G92 E0 ; Reset extruder position
; Wait for all used extruders to reach temperature
M109 T0 S220
;Layer count: 8
;LAYER:0
M107
G0 F9000 X85.274 Y79.686 Z0.300
;TYPE:SKIRT
G1 F1800 X85.747 Y79.183 E0.03445
G1 X86.268 Y78.728 E0.06896
G1 X86.839 Y78.328 E0.10374
G1 X87.446 Y77.990 E0.13840
G1 X88.082 Y77.719 E0.17289
G1 X88.742 Y77.513 E0.20739
G1 X89.425 Y77.377 E0.24213
G1 X90.118 Y77.311 E0.27686
G1 X90.812 Y77.319 E0.31149
G1 X91.321 Y77.377 E0.33704
G1 X91.902 Y77.263 E0.36658
G1 X92.766 Y76.251 E0.43297
G1 X131.883 Y76.251 E2.38452
G1 X132.736 Y77.264 E2.45059
G1 X133.314 Y77.377 E2.47998
G1 X133.824 Y77.319 E2.50558
G1 X134.518 Y77.311 E2.54021
G1 X135.211 Y77.377 E2.57494
G1 X135.894 Y77.513 E2.60969
G1 X136.554 Y77.719 E2.64418
G1 X137.188 Y77.990 E2.67858
G1 X137.798 Y78.328 E2.71337
G1 X138.367 Y78.728 E2.74807
G1 X138.891 Y79.183 E2.78269
G1 X139.364 Y79.689 E2.81725
G1 X139.783 Y80.242 E2.85186
G1 X140.144 Y80.837 E2.88659
G1 X140.438 Y81.462 E2.92104
G1 X140.669 Y82.114 E2.95555
G1 X140.831 Y82.793 E2.99038
G1 X140.921 Y83.480 E3.02495
G1 X140.940 Y84.170 E3.05938
G1 X140.888 Y84.863 E3.09406
G1 X140.764 Y85.549 E3.12884
G1 X140.620 Y86.042 E3.15446
G1 X140.634 Y86.632 E3.18390
G1 X145.880 Y92.854 E3.58993
G1 X147.380 Y94.635 E3.70610
G1 X147.380 Y112.178 E4.58132
G1 X148.645 Y113.679 E4.67926
G1 X149.223 Y113.792 E4.70864
G1 X149.722 Y113.735 E4.73370
G1 X150.407 Y113.727 E4.76787
G1 X151.087 Y113.788 E4.80193
G1 X151.762 Y113.919 E4.83624
G1 X152.418 Y114.118 E4.87044
G1 X153.046 Y114.381 E4.90441
G1 X153.649 Y114.708 E4.93863
G1 X154.217 Y115.098 E4.97300
G1 X154.740 Y115.542 E5.00723
G1 X155.214 Y116.035 E5.04135
G1 X155.637 Y116.577 E5.07565
G1 X155.998 Y117.153 E5.10957
G1 X156.304 Y117.769 E5.14388
G1 X156.543 Y118.416 E5.17829
G1 X156.715 Y119.075 E5.21227
G1 X156.818 Y119.752 E5.24644
G1 X156.856 Y120.518 E5.28470
G1 X156.731 Y121.719 E5.34494
G1 X156.536 Y122.462 E5.38326
G1 X156.294 Y123.104 E5.41749
G1 X155.988 Y123.718 E5.45172
G1 X155.623 Y124.296 E5.48582
G1 X155.151 Y124.896 E5.52391
G1 X154.312 Y125.684 E5.58134
G1 X153.576 Y126.195 E5.62604
G1 X151.459 Y127.201 E5.74297
G1 X149.658 Y127.996 E5.84119
G1 X147.851 Y128.749 E5.93886
G1 X146.029 Y129.463 E6.03649
G1 X144.193 Y130.141 E6.13413
G1 X142.343 Y130.780 E6.23178
G1 X140.482 Y131.379 E6.32932
G1 X138.608 Y131.943 E6.42695
G1 X136.721 Y132.465 E6.52463
G1 X134.826 Y132.950 E6.62222
G1 X132.921 Y133.395 E6.71982
G1 X131.006 Y133.800 E6.81747
G1 X129.084 Y134.167 E6.91509
G1 X127.154 Y134.493 E7.01275
G1 X125.219 Y134.778 E7.11032
G1 X123.279 Y135.025 E7.20789
G1 X121.364 Y135.228 E7.30397
G1 X117.618 Y135.621 E7.49188
G1 X117.618 Y133.076 E7.61885
G1 X107.018 Y133.076 E8.14769
G1 X107.018 Y135.616 E8.27441
G1 X101.788 Y135.075 E8.53673
G1 X99.849 Y134.838 E8.63419
G1 X97.912 Y134.561 E8.73181
G1 X95.981 Y134.243 E8.82944
G1 X94.058 Y133.886 E8.92702
G1 X92.141 Y133.490 E9.02468
G1 X90.233 Y133.053 E9.12233
G1 X88.335 Y132.577 E9.21996
G1 X86.447 Y132.063 E9.31758
G1 X84.572 Y131.509 E9.41512
G1 X82.707 Y130.918 E9.51273
G1 X80.853 Y130.288 E9.61042
G1 X79.014 Y129.618 E9.70806
G1 X77.190 Y128.912 E9.80564
G1 X75.380 Y128.168 E9.90328
G1 X73.587 Y127.387 E10.00085
G1 X71.779 Y126.556 E10.10012
G1 X71.089 Y126.204 E10.13876
G1 X70.453 Y125.782 E10.17684
G1 X69.912 Y125.325 E10.21218
G1 X69.439 Y124.836 E10.24612
G1 X69.015 Y124.299 E10.28025
G1 X68.648 Y123.718 E10.31454
G1 X68.342 Y123.104 E10.34876
G1 X68.094 Y122.446 E10.38385
G1 X67.917 Y121.743 E10.42001
G1 X67.820 Y121.122 E10.45137
G1 X67.784 Y120.436 E10.48564
G1 X67.818 Y119.752 E10.51981
G1 X67.921 Y119.075 E10.55397
G1 X68.093 Y118.416 E10.58795
G1 X68.332 Y117.769 E10.62236
G1 X68.638 Y117.153 E10.65668
G1 X68.999 Y116.577 E10.69059
G1 X69.422 Y116.035 E10.72489
G1 X69.896 Y115.542 E10.75901
G1 X70.419 Y115.098 E10.79324
G1 X70.987 Y114.708 E10.82762
G1 X71.590 Y114.381 E10.86184
G1 X72.218 Y114.118 E10.89581
G1 X72.875 Y113.919 E10.93005
G1 X73.550 Y113.788 E10.96436
G1 X74.228 Y113.727 E10.99832
G1 X74.914 Y113.735 E11.03255
G1 X75.413 Y113.792 E11.05760
G1 X75.990 Y113.679 E11.08694
G1 X77.256 Y112.178 E11.18490
G1 X77.256 Y105.569 E11.51463
G1 X75.756 Y104.068 E11.62050
G1 X75.756 Y96.313 E12.00739
G1 X75.800 Y95.762 E12.03497
G1 X75.965 Y95.098 E12.06911
G1 X76.235 Y94.469 E12.10326
G1 X76.601 Y93.897 E12.13713
G1 X77.056 Y93.387 E12.17123
G1 X77.591 Y92.958 E12.20545
G1 X78.068 Y92.687 E12.23282
G1 X79.431 Y92.053 E12.30781
G1 X84.002 Y86.631 E12.66162
G1 X84.016 Y86.039 E12.69116
G1 X83.872 Y85.549 E12.71664
G1 X83.749 Y84.863 E12.75141
G1 X83.696 Y84.175 E12.78584
G1 X83.715 Y83.480 E12.82053
G1 X83.805 Y82.789 E12.85529
G1 X83.968 Y82.114 E12.88993
G1 X84.197 Y81.462 E12.92441
G1 X84.493 Y80.837 E12.95891
G1 X84.850 Y80.245 E12.99340
G1 X85.274 Y79.686 E13.02841
G1 F2400 E9.02841
G0 F9000 X88.389 Y81.920
;TYPE:WALL-INNER
G1 F2400 E13.02841
G1 F1800 X88.614 Y81.724 E13.04329
G1 X88.856 Y81.555 E13.05802
G1 X89.120 Y81.408 E13.07309
G1 X89.393 Y81.291 E13.08791
G1 X89.978 Y81.141 E13.11804
G1 X90.272 Y81.113 E13.13278
G1 X90.577 Y81.117 E13.14799
G1 X90.873 Y81.150 E13.16285
G1 X91.320 Y81.249 E13.18569
G1 X93.944 Y80.735 E13.31909
G1 X94.521 Y80.051 E13.36374
G1 X130.116 Y80.051 E15.13958
G1 X130.692 Y80.735 E15.18419
G1 X133.317 Y81.249 E15.31764
G1 X133.764 Y81.150 E15.34048
G1 X134.059 Y81.117 E15.35529
G1 X134.364 Y81.113 E15.37051
G1 X134.658 Y81.141 E15.38524
G1 X135.243 Y81.291 E15.41537
G1 X135.513 Y81.406 E15.43002
G1 X135.779 Y81.554 E15.44520
G1 X136.026 Y81.727 E15.46025
G1 X136.249 Y81.921 E15.47499
G1 X136.457 Y82.144 E15.49021
G1 X136.635 Y82.378 E15.50488
G1 X136.790 Y82.634 E15.51981
G1 X136.919 Y82.909 E15.53496
G1 X137.018 Y83.187 E15.54968
G1 X137.089 Y83.485 E15.56497
G1 X137.128 Y83.779 E15.57976
G1 X137.136 Y84.086 E15.59508
G1 X137.114 Y84.380 E15.60979
G1 X136.978 Y84.957 E15.63937
G1 X136.804 Y85.385 E15.66242
G1 X136.866 Y88.058 E15.79581
G1 X143.580 Y96.023 E16.31553
G1 X143.580 Y113.566 E17.19075
G1 X146.602 Y117.151 E17.42468
G1 X149.228 Y117.665 E17.55818
G1 X149.673 Y117.566 E17.58092
G1 X149.961 Y117.533 E17.59538
G1 X150.255 Y117.529 E17.61005
G1 X150.560 Y117.557 E17.62533
G1 X150.844 Y117.612 E17.63976
G1 X151.127 Y117.698 E17.65452
G1 X151.408 Y117.815 E17.66971
G1 X151.661 Y117.953 E17.68408
G1 X151.906 Y118.120 E17.69888
G1 X152.342 Y118.532 E17.72880
G1 X152.521 Y118.761 E17.74330
G1 X152.680 Y119.014 E17.75821
G1 X152.809 Y119.273 E17.77265
G1 X152.912 Y119.554 E17.78758
G1 X152.988 Y119.847 E17.80268
G1 X153.033 Y120.136 E17.81727
G1 X153.047 Y120.413 E17.83111
G1 X152.982 Y121.037 E17.86241
G1 X152.912 Y121.302 E17.87608
G1 X152.673 Y121.851 E17.90596
G1 X152.517 Y122.098 E17.92053
G1 X152.339 Y122.324 E17.93488
G1 X151.915 Y122.722 E17.96390
G1 X151.665 Y122.895 E17.97907
G1 X149.868 Y123.750 E18.07835
G1 X148.166 Y124.501 E18.17116
G1 X146.433 Y125.223 E18.26482
G1 X144.672 Y125.913 E18.35918
G1 X142.909 Y126.564 E18.45294
G1 X141.146 Y127.173 E18.54600
G1 X139.358 Y127.749 E18.63972
G1 X137.547 Y128.293 E18.73406
G1 X135.749 Y128.792 E18.82715
G1 X133.915 Y129.260 E18.92158
G1 X132.101 Y129.684 E19.01452
G1 X130.251 Y130.076 E19.10887
G1 X128.418 Y130.426 E19.20197
G1 X126.566 Y130.738 E19.29567
G1 X124.696 Y131.014 E19.38997
G1 X122.845 Y131.249 E19.48306
G1 X121.418 Y131.401 E19.55466
G1 X121.418 Y131.342 E19.55760
G1 X121.369 Y130.907 E19.57944
G1 X121.213 Y130.463 E19.60292
G1 X120.963 Y130.065 E19.62637
G1 X120.629 Y129.731 E19.64993
G1 X120.231 Y129.481 E19.67338
G1 X119.787 Y129.325 E19.69686
G1 X119.352 Y129.276 E19.71870
G1 X105.284 Y129.276 E20.42056
G1 X104.849 Y129.325 E20.44240
G1 X104.405 Y129.481 E20.46587
G1 X104.007 Y129.731 E20.48932
G1 X103.673 Y130.065 E20.51289
G1 X103.423 Y130.463 E20.53634
G1 X103.267 Y130.907 E20.55982
G1 X103.218 Y131.342 E20.58165
G1 X103.218 Y131.402 E20.58465
G1 X102.220 Y131.299 E20.63470
G1 X100.343 Y131.070 E20.72904
G1 X98.484 Y130.804 E20.82273
G1 X96.641 Y130.501 E20.91591
G1 X94.796 Y130.158 E21.00954
G1 X92.944 Y129.775 E21.10389
G1 X91.113 Y129.356 E21.19760
G1 X89.303 Y128.902 E21.29070
G1 X87.479 Y128.405 E21.38502
G1 X85.689 Y127.877 E21.47812
G1 X83.887 Y127.306 E21.57243
G1 X82.121 Y126.705 E21.66550
G1 X80.355 Y126.062 E21.75926
G1 X78.592 Y125.380 E21.85357
G1 X76.865 Y124.670 E21.94673
G1 X75.134 Y123.916 E22.04093
G1 X73.427 Y123.131 E22.13466
G1 X73.008 Y122.917 E22.15814
G1 X72.739 Y122.739 E22.17423
G1 X72.511 Y122.546 E22.18913
G1 X72.303 Y122.331 E22.20406
G1 X72.120 Y122.099 E22.21880
G1 X71.963 Y121.851 E22.23344
G1 X71.727 Y121.309 E22.26293
G1 X71.645 Y120.984 E22.27966
G1 X71.604 Y120.724 E22.29279
G1 X71.589 Y120.430 E22.30748
G1 X71.603 Y120.136 E22.32216
G1 X71.648 Y119.847 E22.33675
G1 X71.724 Y119.554 E22.35185
G1 X71.827 Y119.273 E22.36678
G1 X71.956 Y119.014 E22.38122
G1 X72.115 Y118.761 E22.39613
G1 X72.294 Y118.532 E22.41063
G1 X72.730 Y118.120 E22.44056
G1 X72.975 Y117.953 E22.45535
G1 X73.228 Y117.815 E22.46973
G1 X73.509 Y117.698 E22.48491
G1 X73.792 Y117.612 E22.49967
G1 X74.077 Y117.557 E22.51415
G1 X74.381 Y117.529 E22.52938
G1 X74.675 Y117.533 E22.54405
G1 X74.963 Y117.566 E22.55851
G1 X75.409 Y117.665 E22.58131
G1 X78.034 Y117.151 E22.71475
G1 X81.056 Y113.566 E22.94868
G1 X81.056 Y103.994 E23.42623
G1 X79.556 Y102.495 E23.53203
G1 X79.556 Y96.464 E23.83291
G1 X79.578 Y96.314 E23.84048
G1 X79.634 Y96.206 E23.84655
G1 X79.733 Y96.111 E23.85339
G1 X81.796 Y95.144 E23.96706
G1 X87.770 Y88.058 E24.42945
G1 X87.832 Y85.386 E24.56280
G1 X87.662 Y84.967 E24.58536
G1 X87.576 Y84.676 E24.60050
G1 X87.500 Y84.085 E24.63022
G1 X87.508 Y83.779 E24.64549
G1 X87.547 Y83.481 E24.66049
G1 X87.617 Y83.194 E24.67523
G1 X87.717 Y82.907 E24.69039
G1 X87.843 Y82.641 E24.70507
G1 X88.179 Y82.144 E24.73500
G1 X88.389 Y81.920 E24.75032
G0 F9000 X88.802 Y82.644
G1 F1800 X88.606 Y82.914 E24.76697
G1 X88.464 Y83.187 E24.78232
G1 X88.358 Y83.507 E24.79914
G1 X88.302 Y83.845 E24.81623
G1 X88.308 Y84.215 E24.83469
G1 X88.368 Y84.548 E24.85157
G1 X88.480 Y84.866 E24.86839
G1 X88.640 Y85.159 E24.88505
G1 X88.827 Y85.408 E24.90059
G1 X89.099 Y85.660 E24.91908
G1 X89.380 Y85.846 E24.93590
G1 X89.682 Y85.984 E24.95246
G1 X89.978 Y86.070 E24.96784
G1 X90.319 Y86.111 E24.98498
G1 X90.687 Y86.090 E25.00336
G1 X91.018 Y86.017 E25.02028
G1 X91.327 Y85.893 E25.03689
G1 X91.592 Y85.741 E25.05213
G1 X91.854 Y85.526 E25.06904
G1 X92.078 Y85.272 E25.08593
G1 X92.262 Y84.983 E25.10302
G1 X92.399 Y84.646 E25.12117
G1 X92.473 Y84.348 E25.13649
G1 X92.500 Y84.005 E25.15366
G1 X92.466 Y83.643 E25.17180
G1 X92.392 Y83.343 E25.18721
G1 X92.257 Y83.029 E25.20427
G1 X92.055 Y82.719 E25.22273
G1 X91.825 Y82.470 E25.23964
G1 X91.560 Y82.261 E25.25647
G1 X91.265 Y82.098 E25.27329
G1 X90.952 Y81.985 E25.28989
G1 X90.652 Y81.924 E25.30516
G1 X90.310 Y81.909 E25.32224
G1 X89.942 Y81.959 E25.34077
G1 X89.618 Y82.060 E25.35770
G1 X89.321 Y82.208 E25.37426
G1 X89.065 Y82.384 E25.38976
G1 X88.802 Y82.644 E25.40821
G0 F9000 X88.309 Y84.215
G0 X89.100 Y85.659
G0 X91.805 Y96.203
G1 F1800 X81.707 Y96.203 E25.91200
G1 X79.856 Y98.054 E26.04260
G1 X79.856 Y100.492 E26.16423
G1 X81.707 Y102.343 E26.29483
G1 X91.805 Y102.343 E26.79862
G1 X93.656 Y100.492 E26.92922
G1 X93.656 Y98.054 E27.05085
G1 X91.805 Y96.203 E27.18145
G0 F9000 X93.640 Y98.061
G0 X93.640 Y100.485
G0 X91.798 Y102.327
G0 X85.658 Y104.610
G1 F1800 X85.658 Y113.310 E27.61549
G1 X98.258 Y113.310 E28.24411
G1 X98.258 Y104.610 E28.67815
G1 X85.658 Y104.610 E29.30677
G0 F9000 X81.043 Y113.561
G0 X78.027 Y117.140
G0 X75.650 Y118.677
G1 F1800 X75.355 Y118.514 E29.32359
G1 X75.042 Y118.401 E29.34019
G1 X74.742 Y118.340 E29.35546
G1 X74.400 Y118.325 E29.37254
G1 X74.032 Y118.375 E29.39107
G1 X73.708 Y118.476 E29.40800
G1 X73.411 Y118.624 E29.42455
G1 X73.155 Y118.800 E29.44005
G1 X72.892 Y119.060 E29.45850
G1 X72.696 Y119.330 E29.47515
G1 X72.554 Y119.603 E29.49050
G1 X72.448 Y119.923 E29.50732
G1 X72.392 Y120.261 E29.52441
G1 X72.398 Y120.631 E29.54287
G1 X72.458 Y120.964 E29.55976
G1 X72.570 Y121.282 E29.57658
G1 X72.730 Y121.575 E29.59323
G1 X72.917 Y121.824 E29.60877
G1 X73.189 Y122.076 E29.62727
G1 X73.470 Y122.262 E29.64408
G1 X73.772 Y122.400 E29.66064
G1 X74.068 Y122.486 E29.67602
G1 X74.409 Y122.527 E29.69316
G1 X74.777 Y122.506 E29.71155
G1 X75.108 Y122.433 E29.72846
G1 X75.417 Y122.309 E29.74507
G1 X75.682 Y122.157 E29.76031
G1 X75.944 Y121.942 E29.77722
G1 X76.168 Y121.688 E29.79411
G1 X76.352 Y121.399 E29.81121
G1 X76.489 Y121.062 E29.82936
G1 X76.563 Y120.764 E29.84467
G1 X76.590 Y120.422 E29.86179
G1 X76.556 Y120.058 E29.88003
G1 X76.481 Y119.759 E29.89541
G1 X76.347 Y119.445 E29.91244
G1 X76.145 Y119.135 E29.93090
G1 X75.915 Y118.886 E29.94781
G1 X75.650 Y118.677 E29.96465
G0 F9000 X103.218 Y116.342
G1 F1800 X103.218 Y123.410 E30.31727
G1 X103.267 Y123.845 E30.33911
G1 X103.423 Y124.289 E30.36259
G1 X103.673 Y124.687 E30.38604
G1 X104.007 Y125.021 E30.40961
G1 X104.405 Y125.271 E30.43305
G1 X104.849 Y125.427 E30.45653
G1 X105.284 Y125.476 E30.47837
G1 X119.352 Y125.476 E31.18023
G1 X119.787 Y125.427 E31.20207
G1 X120.231 Y125.271 E31.22555
G1 X120.629 Y125.021 E31.24899
G1 X120.963 Y124.687 E31.27256
G1 X121.213 Y124.289 E31.29601
G1 X121.369 Y123.845 E31.31949
G1 X121.418 Y123.410 E31.34133
G1 X121.418 Y116.342 E31.69395
G1 X121.369 Y115.907 E31.71579
G1 X121.213 Y115.463 E31.73927
G1 X120.963 Y115.065 E31.76272
G1 X120.629 Y114.731 E31.78628
G1 X120.231 Y114.481 E31.80973
G1 X119.787 Y114.325 E31.83321
G1 X119.352 Y114.276 E31.85505
G1 X105.284 Y114.276 E32.55691
G1 X104.849 Y114.325 E32.57875
G1 X104.405 Y114.481 E32.60222
G1 X104.007 Y114.731 E32.62567
G1 X103.673 Y115.065 E32.64924
G1 X103.423 Y115.463 E32.67269
G1 X103.267 Y115.907 E32.69617
G1 X103.218 Y116.342 E32.71800
G0 F9000 X103.674 Y115.066
G0 X104.850 Y114.328
G0 X127.792 Y112.332
G1 F1800 X127.792 Y122.432 E33.22190
G1 X140.392 Y122.432 E33.85051
G1 X140.392 Y112.332 E34.35440
G1 X127.792 Y112.332 E34.98302
G0 F9000 X140.333 Y112.391
G0 X148.214 Y119.603
G1 F1800 X148.108 Y119.923 E34.99984
G1 X148.052 Y120.261 E35.01693
G1 X148.058 Y120.631 E35.03539
G1 X148.118 Y120.964 E35.05227
G1 X148.230 Y121.282 E35.06909
G1 X148.390 Y121.575 E35.08575
G1 X148.577 Y121.824 E35.10129
G1 X148.849 Y122.076 E35.11978
G1 X149.130 Y122.262 E35.13660
G1 X149.432 Y122.400 E35.15316
G1 X149.728 Y122.486 E35.16854
G1 X150.069 Y122.527 E35.18567
G1 X150.437 Y122.506 E35.20406
G1 X150.768 Y122.433 E35.22097
G1 X151.077 Y122.309 E35.23759
G1 X151.342 Y122.157 E35.25283
G1 X151.604 Y121.942 E35.26974
G1 X151.828 Y121.688 E35.28663
G1 X152.012 Y121.399 E35.30372
G1 X152.149 Y121.062 E35.32187
G1 X152.223 Y120.764 E35.33719
G1 X152.250 Y120.422 E35.35431
G1 X152.216 Y120.058 E35.37255
G1 X152.141 Y119.759 E35.38793
G1 X152.007 Y119.445 E35.40496
G1 X151.805 Y119.135 E35.42342
G1 X151.575 Y118.886 E35.44033
G1 X151.310 Y118.677 E35.45717
G1 X151.015 Y118.514 E35.47398
G1 X150.702 Y118.401 E35.49058
G1 X150.402 Y118.340 E35.50586
G1 X150.060 Y118.325 E35.52294
G1 X149.692 Y118.375 E35.54147
G1 X149.368 Y118.476 E35.55840
G1 X149.071 Y118.624 E35.57495
G1 X148.815 Y118.800 E35.59045
G1 X148.552 Y119.060 E35.60890
G1 X148.356 Y119.330 E35.62555
G1 X148.214 Y119.603 E35.64090
G0 F9000 X143.593 Y113.561
G0 X134.858 Y86.017
G1 F1800 X135.167 Y85.893 E35.65751
G1 X135.432 Y85.741 E35.67275
G1 X135.694 Y85.526 E35.68966
G1 X135.918 Y85.272 E35.70656
G1 X136.102 Y84.983 E35.72365
G1 X136.239 Y84.646 E35.74180
G1 X136.313 Y84.348 E35.75712
G1 X136.340 Y84.005 E35.77428
G1 X136.306 Y83.643 E35.79242
G1 X136.232 Y83.343 E35.80784
G1 X136.097 Y83.029 E35.82489
G1 X135.895 Y82.719 E35.84335
G1 X135.665 Y82.470 E35.86026
G1 X135.400 Y82.261 E35.87710
G1 X135.105 Y82.098 E35.89391
G1 X134.792 Y81.985 E35.91052
G1 X134.492 Y81.924 E35.92579
