;Generated with Cura_SteamEngine 15.01
; Default start code
G28 ; Home extruder
G1 Z15 F100
M107 ; Turn off fan
G90 ; Absolute positioning
M82 ; Extruder in absolute mode
M190 S80
; Activate all used extruder
M104 T0 S220
G92 E0 ; Reset extruder position
; Wait for all used extruders to reach temperature
M109 T0 S220
;Layer count: 10
;LAYER:0
M107
G0 F9000 X77.004 Y96.793 Z0.300
;TYPE:SKIRT
G1 F1800 X82.550 Y96.793 E0.27669
G1 X82.727 Y96.798 E0.28553
G1 X82.729 Y96.793 E0.28579
G1 X86.718 Y96.793 E0.48481
G1 X87.421 Y94.764 E0.59194
G1 X88.399 Y91.934 E0.74132
G1 X93.945 Y91.934 E1.01801
G1 X94.851 Y91.958 E1.06323
G1 X95.615 Y92.107 E1.10206
G1 X96.322 Y92.375 E1.13978
G1 X96.708 Y91.934 E1.16902
G1 X117.082 Y91.934 E2.18548
G1 X115.401 Y96.816 E2.44308
G1 X115.453 Y96.818 E2.44568
G1 X115.912 Y96.858 E2.46867
G1 X116.919 Y97.141 E2.52085
G1 X116.933 Y97.149 E2.52166
G1 X117.180 Y97.044 E2.53505
G1 X118.090 Y96.823 E2.58177
G1 X120.829 Y96.792 E2.71842
G1 X121.524 Y96.818 E2.75312
G1 X121.981 Y96.858 E2.77601
G1 X123.002 Y97.143 E2.82889
G1 X123.692 Y97.533 E2.86844
G1 X124.326 Y98.038 E2.90887
G1 X125.025 Y98.969 E2.96696
G1 X125.383 Y100.060 E3.02424
G1 X125.449 Y100.822 E3.06240
G1 X125.402 Y101.579 E3.10024
G1 X125.208 Y102.330 E3.13894
G1 X124.847 Y103.378 E3.19424
G1 X124.678 Y104.068 E3.22968
G1 X124.426 Y104.799 E3.26826
G1 X124.142 Y105.464 E3.30433
G1 X123.764 Y106.087 E3.34069
G1 X123.308 Y106.637 E3.37633
G1 X122.792 Y107.100 E3.41092
G1 X122.247 Y107.451 E3.44326
G1 X121.633 Y107.741 E3.47714
G1 X120.868 Y107.956 E3.51678
G1 X120.059 Y108.058 E3.55746
G1 X117.513 Y108.065 E3.68448
G1 X116.892 Y108.043 E3.71548
G1 X116.445 Y108.014 E3.73783
G1 X115.505 Y107.756 E3.78646
G1 X114.796 Y107.956 E3.82322
G1 X113.987 Y108.058 E3.86390
G1 X111.490 Y108.065 E3.98847
G1 X99.889 Y108.065 E4.56725
G1 X99.893 Y108.052 E4.56793
G1 X99.655 Y108.043 E4.57981
G1 X99.647 Y108.065 E4.58098
G1 X73.105 Y108.065 E5.90516
G1 X76.026 Y99.625 E6.35074
G1 X76.025 Y99.625 E6.35079
G1 X77.004 Y96.793 E6.50028
G0 F9000 X77.289 Y97.193
G1 F1800 X82.545 Y97.193 E6.76251
G1 X83.009 Y97.205 E6.78566
G1 X83.013 Y97.193 E6.78630
G1 X87.003 Y97.193 E6.98536
G1 X87.799 Y94.895 E7.10669
G1 X87.800 Y94.895 E7.10674
G1 X88.684 Y92.334 E7.24190
G1 X93.940 Y92.334 E7.50413
G1 X94.807 Y92.357 E7.54740
G1 X95.505 Y92.493 E7.58288
G1 X96.173 Y92.746 E7.61851
G1 X96.400 Y92.892 E7.63198
G1 X96.889 Y92.334 E7.66899
G1 X116.521 Y92.334 E8.64844
G1 X114.857 Y97.167 E8.90345
G1 X114.847 Y97.195 E8.90493
G1 X115.428 Y97.217 E8.93394
G1 X115.840 Y97.254 E8.95458
G1 X116.766 Y97.513 E9.00255
G1 X116.910 Y97.593 E9.01077
G1 X117.307 Y97.425 E9.03227
G1 X118.141 Y97.222 E9.07510
G1 X120.824 Y97.192 E9.20896
G1 X121.499 Y97.217 E9.24266
G1 X121.909 Y97.253 E9.26319
G1 X122.847 Y97.516 E9.31179
G1 X123.468 Y97.866 E9.34736
G1 X124.037 Y98.319 E9.38364
G1 X124.665 Y99.156 E9.43585
G1 X124.988 Y100.141 E9.48757
G1 X125.047 Y100.827 E9.52192
G1 X125.005 Y101.516 E9.55635
G1 X124.825 Y102.215 E9.59237
G1 X124.462 Y103.270 E9.64803
G1 X124.294 Y103.955 E9.68322
G1 X124.052 Y104.655 E9.72017
G1 X123.785 Y105.281 E9.75412
G1 X123.437 Y105.855 E9.78761
G1 X123.019 Y106.359 E9.82028
G1 X122.548 Y106.781 E9.85183
G1 X122.052 Y107.100 E9.88125
G1 X121.492 Y107.365 E9.91216
G1 X120.788 Y107.563 E9.94864
G1 X120.033 Y107.658 E9.98661
G1 X117.520 Y107.665 E10.11198
G1 X116.912 Y107.643 E10.14233
G1 X116.511 Y107.617 E10.16238
G1 X115.496 Y107.340 E10.21487
G1 X115.486 Y107.333 E10.21548
G1 X115.416 Y107.366 E10.21934
G1 X114.716 Y107.563 E10.25562
G1 X113.961 Y107.658 E10.29359
G1 X111.448 Y107.665 E10.41896
G1 X111.210 Y107.656 E10.43084
G1 X111.207 Y107.665 E10.43132
G1 X100.451 Y107.665 E10.96794
G1 X100.452 Y107.664 E10.96801
G1 X100.237 Y107.665 E10.97873
G1 X99.573 Y107.639 E11.01189
G1 X99.377 Y107.621 E11.02170
G1 X99.362 Y107.665 E11.02402
G1 X73.666 Y107.665 E12.30600
G1 X76.404 Y99.754 E12.72365
G1 X76.405 Y99.754 E12.72370
G1 X77.289 Y97.193 E12.85887
G1 F2400 E8.85887
G0 F9000 X79.711 Y100.593
;TYPE:WALL-OUTER
G1 F2400 E12.85887
G1 F1800 X82.497 Y100.593 E12.99786
G1 X83.042 Y100.608 E13.02507
G1 X83.171 Y100.633 E13.03162
G1 X83.297 Y100.693 E13.03858
G1 X83.335 Y100.741 E13.04164
G1 X83.359 Y100.805 E13.04505
G1 X83.365 Y100.855 E13.04756
G1 X83.363 Y100.918 E13.05070
G1 X83.305 Y101.164 E13.06331
G1 X83.043 Y101.923 E13.10337
G1 X82.837 Y102.450 E13.13160
G1 X84.783 Y102.450 E13.22869
G1 X85.426 Y100.593 E13.32673
G1 X88.212 Y100.593 E13.46573
G1 X88.757 Y100.608 E13.49293
G1 X88.885 Y100.632 E13.49942
G1 X88.993 Y100.681 E13.50534
G1 X89.050 Y100.738 E13.50936
G1 X89.060 Y100.758 E13.51048
G1 X89.080 Y100.859 E13.51561
G1 X89.078 Y100.914 E13.51836
G1 X89.022 Y101.155 E13.53070
G1 X88.756 Y101.923 E13.57125
G1 X88.550 Y102.450 E13.59948
G1 X90.711 Y102.450 E13.70730
G1 X91.354 Y100.593 E13.80534
G1 X91.788 Y100.593 E13.82699
G1 X91.145 Y102.450 E13.92503
G1 X93.497 Y102.450 E14.04237
G1 X94.140 Y100.593 E14.14042
G1 X94.452 Y100.593 E14.15598
G1 X96.641 Y103.456 E14.33579
G1 X96.877 Y103.418 E14.34771
G1 X97.854 Y100.593 E14.49684
G1 X98.217 Y100.593 E14.51495
G1 X97.574 Y102.450 E14.61299
G1 X99.997 Y102.450 E14.73388
G1 X100.312 Y101.540 E14.78192
G1 X100.494 Y101.098 E14.80577
G1 X100.599 Y100.928 E14.81574
G1 X100.683 Y100.830 E14.82218
G1 X100.769 Y100.756 E14.82784
G1 X100.846 Y100.710 E14.83231
G1 X100.986 Y100.655 E14.83982
G1 X101.177 Y100.615 E14.84955
G1 X102.318 Y100.593 E14.90649
G1 X102.551 Y100.593 E14.91811
G1 X102.833 Y99.750 E14.96246
G1 X102.877 Y99.621 E14.96926
G1 X102.536 Y97.834 E15.06002
G1 X99.431 Y97.834 E15.21493
G1 X99.740 Y99.406 E15.29486
G1 X99.245 Y99.406 E15.31956
G1 X99.069 Y98.477 E15.36673
G1 X96.318 Y98.477 E15.50398
G1 X95.498 Y99.406 E15.56580
G1 X95.210 Y99.406 E15.58017
G1 X96.382 Y98.069 E15.66887
G1 X96.276 Y97.834 E15.68173
G1 X92.791 Y97.834 E15.85560
G1 X92.681 Y98.059 E15.86809
G1 X93.742 Y99.406 E15.95364
G1 X93.110 Y99.406 E15.98517
G1 X92.050 Y97.834 E16.07976
G1 X90.814 Y97.834 E16.14142
G1 X90.269 Y99.406 E16.22443
G1 X89.835 Y99.406 E16.24608
G1 X91.106 Y95.734 E16.43994
G1 X93.892 Y95.734 E16.57894
G1 X94.438 Y95.749 E16.60619
G1 X94.570 Y95.774 E16.61289
G1 X94.633 Y95.798 E16.61625
G1 X94.697 Y95.839 E16.62005
G1 X94.729 Y95.880 E16.62264
G1 X94.754 Y95.945 E16.62612
G1 X94.761 Y95.995 E16.62863
G1 X94.759 Y96.059 E16.63183
G1 X94.702 Y96.301 E16.64423
G1 X94.437 Y97.064 E16.68453
G1 X94.229 Y97.592 E16.71284
G1 X96.801 Y97.592 E16.84116
G1 X98.429 Y95.734 E16.96441
G1 X99.020 Y95.734 E16.99389
G1 X99.383 Y97.592 E17.08834
G1 X102.490 Y97.592 E17.24335
G1 X102.134 Y95.734 E17.33773
G1 X102.611 Y95.734 E17.36153
G1 X103.143 Y98.968 E17.52504
G1 X103.390 Y99.036 E17.53782
G1 X106.144 Y95.734 E17.75234
G1 X106.455 Y95.734 E17.76785
G1 X105.238 Y97.143 E17.86074
G1 X105.345 Y97.377 E17.87358
G1 X107.609 Y97.377 E17.98653
G1 X108.177 Y95.734 E18.07326
G1 X111.755 Y95.734 E18.25176
G1 X111.671 Y95.977 E18.26459
G1 X108.528 Y95.977 E18.42140
G1 X108.042 Y97.377 E18.49533
G1 X109.972 Y97.377 E18.59162
G1 X109.888 Y97.620 E18.60445
G1 X107.959 Y97.620 E18.70069
G1 X107.424 Y99.163 E18.78216
G1 X110.568 Y99.163 E18.93902
G1 X110.484 Y99.406 E18.95184
G1 X107.340 Y99.406 E19.10870
G1 X107.049 Y100.247 E19.15310
G1 X106.926 Y100.593 E19.17142
G1 X110.075 Y100.593 E19.32852
G1 X109.991 Y100.836 E19.34135
G1 X106.848 Y100.836 E19.49815
G1 X106.362 Y102.236 E19.57209
G1 X111.448 Y102.236 E19.82583
G1 X111.691 Y101.476 E19.86564
G1 X111.848 Y101.099 E19.88601
G1 X111.949 Y100.933 E19.89571
G1 X112.037 Y100.829 E19.90250
G1 X112.112 Y100.761 E19.90755
G1 X112.187 Y100.714 E19.91197
G1 X112.308 Y100.663 E19.91852
G1 X112.494 Y100.618 E19.92807
G1 X114.707 Y100.593 E20.03848
G1 X115.221 Y100.612 E20.06414
G1 X115.484 Y100.691 E20.07784
G1 X115.537 Y100.743 E20.08155
G1 X115.564 Y100.826 E20.08590
G1 X115.567 Y100.865 E20.08785
G1 X115.560 Y100.983 E20.09375
G1 X115.485 Y101.246 E20.10740
G1 X115.099 Y101.332 E20.12713
G1 X115.272 Y100.836 E20.15333
G1 X112.277 Y100.836 E20.30275
G1 X111.766 Y102.307 E20.38044
G1 X117.508 Y102.307 E20.66691
G1 X117.763 Y101.476 E20.71028
G1 X117.920 Y101.099 E20.73066
G1 X118.021 Y100.933 E20.74035
G1 X118.109 Y100.828 E20.74718
G1 X118.182 Y100.763 E20.75206
G1 X118.260 Y100.714 E20.75666
G1 X118.380 Y100.663 E20.76316
G1 X118.565 Y100.618 E20.77266
G1 X120.778 Y100.593 E20.88307
G1 X121.292 Y100.612 E20.90874
G1 X121.538 Y100.680 E20.92147
G1 X121.577 Y100.706 E20.92381
G1 X121.610 Y100.749 E20.92651
G1 X121.635 Y100.826 E20.93055
G1 X121.638 Y100.865 E20.93250
G1 X121.631 Y100.983 E20.93840
G1 X121.563 Y101.244 E20.95186
G1 X121.171 Y101.332 E20.97190
G1 X121.344 Y100.836 E20.99811
G1 X118.348 Y100.836 E21.14758
G1 X117.837 Y102.307 E21.22527
G1 X120.214 Y102.307 E21.34386
G1 X120.752 Y102.325 E21.37071
G1 X121.005 Y102.392 E21.38377
G1 X121.060 Y102.428 E21.38705
G1 X121.090 Y102.467 E21.38950
G1 X121.106 Y102.516 E21.39208
G1 X121.114 Y102.586 E21.39559
G1 X121.109 Y102.668 E21.39969
G1 X121.029 Y102.992 E21.41634
G1 X120.754 Y103.723 E21.45530
G1 X120.660 Y103.877 E21.46431
G1 X120.560 Y103.997 E21.47210
G1 X120.480 Y104.069 E21.47747
G1 X120.399 Y104.121 E21.48227
G1 X120.300 Y104.168 E21.48774
G1 X120.106 Y104.223 E21.49780
G1 X119.818 Y104.259 E21.51228
G1 X117.579 Y104.265 E21.62398
G1 X117.074 Y104.246 E21.64920
G1 X116.891 Y104.196 E21.65866
G1 X116.835 Y104.161 E21.66195
G1 X116.816 Y104.138 E21.66344
G1 X116.799 Y104.054 E21.66772
G1 X116.800 Y103.963 E21.67226
G1 X116.923 Y103.512 E21.69558
G1 X117.303 Y103.440 E21.71488
G1 X117.217 Y103.690 E21.72807
G1 X117.099 Y104.022 E21.74565
G1 X120.311 Y104.022 E21.90589
G1 X120.690 Y102.924 E21.96384
G1 X120.821 Y102.550 E21.98361
G1 X115.082 Y102.550 E22.26993
G1 X114.819 Y103.392 E22.31394
G1 X114.682 Y103.724 E22.33186
G1 X114.588 Y103.876 E22.34078
G1 X114.492 Y103.994 E22.34837
G1 X114.407 Y104.069 E22.35402
G1 X114.325 Y104.123 E22.35892
G1 X114.229 Y104.168 E22.36421
G1 X114.034 Y104.223 E22.37432
G1 X113.746 Y104.259 E22.38880
G1 X111.507 Y104.265 E22.50050
G1 X111.002 Y104.246 E22.52572
G1 X110.818 Y104.196 E22.53523
G1 X110.765 Y104.162 E22.53837
G1 X110.745 Y104.138 E22.53993
G1 X110.728 Y104.054 E22.54420
G1 X110.729 Y103.963 E22.54874
G1 X110.851 Y103.512 E22.57205
G1 X111.231 Y103.440 E22.59135
G1 X111.027 Y104.022 E22.62212
G1 X114.238 Y104.022 E22.78231
G1 X114.749 Y102.550 E22.86005
G1 X112.262 Y102.550 E22.98413
G1 X111.765 Y102.536 E23.00893
G1 X111.630 Y102.507 E23.01582
G1 X111.515 Y102.465 E23.02193
G1 X108.213 Y102.465 E23.18667
G1 X108.208 Y102.479 E23.18741
G1 X106.279 Y102.479 E23.28365
G1 X105.744 Y104.022 E23.36513
G1 X108.887 Y104.022 E23.52193
G1 X108.803 Y104.265 E23.53476
G1 X105.226 Y104.265 E23.71321
G1 X107.525 Y97.620 E24.06402
G1 X104.826 Y97.620 E24.19867
G1 X103.200 Y99.503 E24.32279
G1 X102.925 Y100.243 E24.36218
G1 X102.792 Y100.593 E24.38086
G1 X103.602 Y100.593 E24.42127
G1 X103.955 Y100.611 E24.43890
G1 X104.182 Y100.674 E24.45065
G1 X104.236 Y100.709 E24.45386
G1 X104.256 Y100.746 E24.45596
G1 X104.276 Y100.855 E24.46149
G1 X104.273 Y100.944 E24.46593
G1 X104.233 Y101.147 E24.47626
G1 X104.070 Y101.635 E24.50193
G1 X103.611 Y101.712 E24.52515
G1 X103.788 Y101.196 E24.55236
G1 X103.916 Y100.836 E24.57142
G1 X100.991 Y100.836 E24.71735
G1 X99.887 Y104.022 E24.88557
G1 X102.810 Y104.022 E25.03140
G1 X103.146 Y103.054 E25.08252
G1 X103.551 Y103.138 E25.10316
G1 X103.305 Y103.763 E25.13667
G1 X103.213 Y103.911 E25.14536
G1 X103.121 Y104.018 E25.15240
G1 X103.028 Y104.096 E25.15846
G1 X102.930 Y104.151 E25.16407
G1 X102.782 Y104.205 E25.17193
G1 X102.544 Y104.249 E25.18400
G1 X100.296 Y104.265 E25.29616
G1 X99.789 Y104.245 E25.32147
G1 X99.581 Y104.182 E25.33231
G1 X99.542 Y104.148 E25.33489
G1 X99.519 Y104.099 E25.33760
G1 X99.513 Y104.047 E25.34021
G1 X99.518 Y103.935 E25.34580
G1 X99.555 Y103.749 E25.35526
G1 X99.801 Y103.019 E25.39369
G1 X99.916 Y102.693 E25.41094
G1 X97.490 Y102.693 E25.53197
G1 X96.946 Y104.265 E25.61496
G1 X96.651 Y104.265 E25.62968
G1 X94.466 Y101.351 E25.81139
G1 X94.228 Y101.388 E25.82341
G1 X93.232 Y104.265 E25.97530
G1 X92.869 Y104.265 E25.99341
G1 X93.413 Y102.693 E26.07640
G1 X91.062 Y102.693 E26.19369
G1 X90.518 Y104.265 E26.27668
G1 X90.084 Y104.265 E26.29834
G1 X90.628 Y102.693 E26.38133
G1 X87.111 Y102.693 E26.55679
G1 X87.001 Y102.918 E26.56929
G1 X88.061 Y104.265 E26.65480
G1 X87.430 Y104.265 E26.68628
G1 X86.370 Y102.693 E26.78087
G1 X85.134 Y102.693 E26.84254
G1 X84.589 Y104.265 E26.92554
G1 X84.155 Y104.265 E26.94720
G1 X84.699 Y102.693 E27.03019
G1 X79.420 Y102.693 E27.29356
G1 X78.875 Y104.265 E27.37656
G1 X78.441 Y104.265 E27.39822
G1 X79.711 Y100.593 E27.59206
G0 F9000 X80.062 Y100.836
G1 F1800 X79.503 Y102.450 E27.67728
G1 X81.932 Y102.450 E27.79846
G1 X82.096 Y102.439 E27.80666
G1 X82.273 Y102.390 E27.81582
G1 X82.391 Y102.313 E27.82285
G1 X82.513 Y102.157 E27.83273
G1 X82.758 Y101.490 E27.86818
G1 X82.819 Y101.288 E27.87871
G1 X82.829 Y101.154 E27.88541
G1 X82.782 Y101.005 E27.89321
G1 X82.722 Y100.936 E27.89777
G1 X82.626 Y100.876 E27.90342
G1 X82.471 Y100.841 E27.91135
G1 X80.062 Y100.836 E28.03153
G1 F2400 E24.03153
G0 F9000 X85.215 Y102.450
G1 F2400 E28.03153
G1 F1800 X87.653 Y102.450 E28.15317
G1 X87.949 Y102.410 E28.16807
G1 X88.080 Y102.341 E28.17545
G1 X88.192 Y102.220 E28.18368
G1 X88.295 Y102.003 E28.19566
G1 X88.475 Y101.482 E28.22316
G1 X88.532 Y101.294 E28.23296
G1 X88.545 Y101.155 E28.23993
G1 X88.522 Y101.057 E28.24495
G1 X88.493 Y100.994 E28.24841
G1 X88.400 Y100.901 E28.25497
G1 X88.205 Y100.842 E28.26514
G1 X85.777 Y100.836 E28.38627
G1 X85.352 Y102.062 E28.45101
G1 X85.215 Y102.450 E28.47154
G1 F2400 E24.47154
G0 F9000 X90.895 Y97.592
G1 F2400 E28.47154
G1 F1800 X93.109 Y97.592 E28.58199
G1 X93.552 Y97.572 E28.60412
G1 X93.706 Y97.517 E28.61228
G1 X93.809 Y97.436 E28.61881
G1 X93.876 Y97.354 E28.62410
G1 X93.975 Y97.144 E28.63568
G1 X94.155 Y96.623 E28.66318
G1 X94.214 Y96.434 E28.67306
G1 X94.224 Y96.302 E28.67966
G1 X94.212 Y96.225 E28.68355
G1 X94.179 Y96.145 E28.68787
G1 X94.115 Y96.070 E28.69279
G1 X93.982 Y96.004 E28.70019
G1 X93.874 Y95.983 E28.70568
G1 X91.457 Y95.977 E28.82627
G1 X91.032 Y97.204 E28.89105
G1 X90.895 Y97.592 E28.91158
G1 F2400 E24.91158
G0 F9000 X96.708 Y98.003
G1 F2400 E28.91158
G1 F1800 X96.816 Y98.234 E28.92430
G1 X99.064 Y98.234 E29.03645
G1 X98.717 Y95.976 E29.15043
G1 X98.469 Y95.907 E29.16327
G1 X96.708 Y98.003 E29.29985
G0 F9000 X96.554 Y97.968
;TYPE:FILL
G1 F1800 X96.438 Y97.852 E29.30803
G1 F2400 E25.30803
G0 F9000 X94.347 Y96.893
G1 F2400 E29.30803
G1 F1800 X94.369 Y96.632 E29.31529
G1 X94.490 Y96.187 E29.32466
G1 X94.486 Y95.900 E29.33898
G0 F9000 X94.098 Y97.210
G1 F1800 X94.036 Y97.430 E29.34548
G1 X94.016 Y97.693 E29.35864
G0 F9000 X92.577 Y97.951
G1 F1800 X92.357 Y97.731 E29.37416
G0 F9000 X92.894 Y98.833
G1 F1800 X93.325 Y99.265 E29.40461
G1 F2400 E25.40461
G0 F9000 X90.545 Y98.181
G1 F2400 E29.40461
G1 F1800 X90.566 Y97.920 E29.41189
G1 X90.710 Y97.499 E29.41927
G1 X90.857 Y97.079 E29.42654
G1 X91.002 Y96.659 E29.43391
G1 X91.148 Y96.239 E29.44123
G1 X91.168 Y95.977 E29.45434
G0 F9000 X91.321 Y96.029
G0 X90.448 Y98.550
G0 X90.296 Y98.498
G1 F1800 X90.275 Y98.760 E29.46159
G1 X90.253 Y99.021 E29.47466
G1 F2400 E25.47466
G0 F9000 X99.124 Y97.710
G1 F2400 E29.47466
G1 F1800 X99.260 Y98.129 E29.48691
G1 X99.376 Y98.810 E29.50190
G1 X99.548 Y99.265 E29.52617
G0 F9000 X99.487 Y99.106
G0 X100.472 Y101.417
G0 X100.530 Y101.378
G1 F1800 X100.498 Y101.629 E29.53270
G1 X100.352 Y102.049 E29.53997
G1 X100.209 Y102.471 E29.54725
G1 X100.064 Y102.892 E29.55424
G1 X100.040 Y103.152 E29.56727
G1 F2400 E25.56727
G0 F9000 X103.886 Y101.340
G1 F2400 E29.56727
G1 F1800 X103.986 Y101.440 E29.57433
G0 F9000 X106.033 Y102.356
G1 F1800 X106.012 Y102.618 E29.58167
G1 X105.866 Y103.038 E29.58899
G1 X105.721 Y103.458 E29.59631
G1 X105.575 Y103.878 E29.60352
G1 X105.539 Y104.125 E29.61597
G0 F9000 X105.517 Y103.965
G0 X106.132 Y101.985
G0 X106.282 Y102.039
