;Generated with Cura_SteamEngine 15.01
; Default start code
G28 ; Home extruder
G1 Z15 F100
M107 ; Turn off fan
G90 ; Absolute positioning
M82 ; Extruder in absolute mode
M190 S80
; Activate all used extruder
M104 T0 S220
G92 E0 ; Reset extruder position
; Wait for all used extruders to reach temperature
M109 T0 S220
;Layer count: 20
;LAYER:0
M107
G0 F9000 X48.217 Y48.261 Z0.300
;TYPE:SKIRT
G1 F1800 X48.671 Y47.812 E0.03186
G1 X49.127 Y47.368 E0.06361
G1 X49.588 Y46.925 E0.09551
G1 X50.053 Y46.487 E0.12738
G1 X50.521 Y46.053 E0.15922
G1 X50.997 Y45.621 E0.19129
G1 X51.473 Y45.197 E0.22309
G1 X51.949 Y44.779 E0.25470
G1 X52.432 Y44.361 E0.28656
G1 X52.924 Y43.944 E0.31874
G1 X53.415 Y43.536 E0.35059
G1 X53.908 Y43.133 E0.38236
G1 X54.406 Y42.733 E0.41423
G1 X54.907 Y42.338 E0.44605
G1 X55.411 Y41.947 E0.47788
G1 X55.922 Y41.558 E0.50992
G1 X56.434 Y41.176 E0.54179
G1 X56.945 Y40.801 E0.57341
G1 X57.465 Y40.425 E0.60543
G1 X57.989 Y40.055 E0.63743
G1 X58.511 Y39.693 E0.66912
G1 X59.037 Y39.334 E0.70089
G1 X59.571 Y38.976 E0.73297
G1 X60.107 Y38.625 E0.76493
G1 X60.642 Y38.281 E0.79666
G1 X61.184 Y37.939 E0.82864
G1 X61.725 Y37.605 E0.86036
G1 X62.267 Y37.274 E0.89204
G1 X62.821 Y36.943 E0.92424
G1 X63.375 Y36.622 E0.95618
G1 X63.924 Y36.308 E0.98774
G1 X64.481 Y35.994 E1.01964
G1 X65.043 Y35.685 E1.05163
G1 X65.607 Y35.382 E1.08357
G1 X66.169 Y35.087 E1.11524
G1 X66.737 Y34.793 E1.14715
G1 X67.311 Y34.504 E1.17921
G1 X67.884 Y34.221 E1.21110
G1 X68.458 Y33.945 E1.24287
G1 X69.032 Y33.674 E1.27454
G1 X69.613 Y33.404 E1.30650
G1 X70.198 Y33.141 E1.33850
G1 X70.782 Y32.884 E1.37033
G1 X71.367 Y32.632 E1.40211
G1 X71.958 Y32.384 E1.43409
G1 X72.548 Y32.143 E1.46588
G1 X73.142 Y31.905 E1.49781
G1 X73.736 Y31.674 E1.52961
G1 X74.332 Y31.447 E1.56142
G1 X74.936 Y31.224 E1.59355
G1 X75.536 Y31.010 E1.62533
G1 X76.136 Y30.799 E1.65706
G1 X76.742 Y30.593 E1.68899
G1 X77.348 Y30.393 E1.72083
G1 X77.955 Y30.198 E1.75264
G1 X78.565 Y30.008 E1.78451
G1 X79.177 Y29.823 E1.81641
G1 X79.793 Y29.644 E1.84841
G1 X80.406 Y29.471 E1.88019
G1 X81.022 Y29.303 E1.91204
G1 X81.642 Y29.139 E1.94404
G1 X82.262 Y28.982 E1.97595
G1 X82.879 Y28.831 E2.00764
G1 X83.501 Y28.684 E2.03953
G1 X84.125 Y28.542 E2.07145
G1 X84.751 Y28.406 E2.10341
G1 X85.375 Y28.276 E2.13521
G1 X86.000 Y28.151 E2.16701
G1 X86.628 Y28.032 E2.19890
G1 X87.257 Y27.918 E2.23079
G1 X87.883 Y27.810 E2.26249
G1 X88.513 Y27.706 E2.29434
G1 X89.150 Y27.608 E2.32650
G1 X89.781 Y27.517 E2.35830
G1 X90.411 Y27.431 E2.39002
G1 X91.045 Y27.349 E2.42192
G1 X91.683 Y27.273 E2.45397
G1 X92.319 Y27.204 E2.48589
G1 X92.950 Y27.141 E2.51753
G1 X93.585 Y27.081 E2.54935
G1 X94.225 Y27.028 E2.58139
G1 X94.861 Y26.981 E2.61320
G1 X95.496 Y26.938 E2.64496
G1 X96.137 Y26.901 E2.67699
G1 X96.776 Y26.871 E2.70890
G1 X97.411 Y26.846 E2.74061
G1 X98.050 Y26.825 E2.77251
G1 X98.692 Y26.811 E2.80454
G1 X99.332 Y26.803 E2.83648
G1 X99.919 Y26.801 E2.86576
G1 X99.951 Y26.800 E2.86736
G1 X100.603 Y26.801 E2.89989
G1 X101.245 Y26.809 E2.93192
G1 X101.885 Y26.823 E2.96386
G1 X102.521 Y26.843 E2.99560
G1 X103.158 Y26.867 E3.02740
G1 X103.800 Y26.897 E3.05947
G1 X104.439 Y26.934 E3.09140
G1 X105.071 Y26.976 E3.12300
G1 X105.710 Y27.022 E3.15496
G1 X106.349 Y27.075 E3.18695
G1 X106.982 Y27.133 E3.21867
G1 X107.615 Y27.196 E3.25040
G1 X108.254 Y27.265 E3.28247
G1 X108.889 Y27.341 E3.31438
G1 X109.521 Y27.421 E3.34616
G1 X110.154 Y27.507 E3.37803
G1 X110.787 Y27.598 E3.40993
G1 X111.422 Y27.696 E3.44199
G1 X112.049 Y27.799 E3.47369
G1 X112.677 Y27.905 E3.50546
G1 X113.309 Y28.020 E3.53751
G1 X113.936 Y28.139 E3.56935
G1 X114.559 Y28.262 E3.60103
G1 X115.186 Y28.391 E3.63297
G1 X115.814 Y28.528 E3.66504
G1 X116.436 Y28.669 E3.69686
G1 X117.055 Y28.815 E3.72859
G1 X117.675 Y28.965 E3.76041
G1 X118.297 Y29.123 E3.79243
G1 X118.915 Y29.286 E3.82431
G1 X119.528 Y29.452 E3.85600
G1 X120.144 Y29.625 E3.88792
G1 X120.759 Y29.805 E3.91989
G1 X121.369 Y29.988 E3.95166
G1 X121.980 Y30.177 E3.98357
G1 X122.590 Y30.373 E4.01554
G1 X123.196 Y30.572 E4.04736
G1 X123.800 Y30.777 E4.07918
G1 X124.403 Y30.987 E4.11103
G1 X125.005 Y31.202 E4.14293
G1 X125.606 Y31.424 E4.17489
G1 X126.201 Y31.650 E4.20664
G1 X126.797 Y31.880 E4.23852
G1 X127.393 Y32.119 E4.27055
G1 X127.981 Y32.359 E4.30224
G1 X128.569 Y32.605 E4.33404
G1 X129.156 Y32.856 E4.36589
G1 X129.744 Y33.114 E4.39792
G1 X130.328 Y33.377 E4.42988
G1 X130.907 Y33.645 E4.46171
G1 X131.483 Y33.916 E4.49347
G1 X132.059 Y34.193 E4.52535
G1 X132.632 Y34.476 E4.55724
G1 X133.204 Y34.764 E4.58919
G1 X133.769 Y35.055 E4.62089
G1 X134.333 Y35.350 E4.65265
G1 X134.901 Y35.655 E4.68481
G1 X135.462 Y35.963 E4.71674
G1 X136.016 Y36.274 E4.74844
G1 X136.569 Y36.589 E4.78019
G1 X137.125 Y36.912 E4.81227
G1 X137.675 Y37.240 E4.84422
G1 X138.215 Y37.568 E4.87574
G1 X138.760 Y37.903 E4.90766
G1 X139.305 Y38.247 E4.93981
G1 X139.840 Y38.591 E4.97154
G1 X140.374 Y38.941 E5.00340
G1 X140.906 Y39.297 E5.03533
G1 X141.433 Y39.654 E5.06709
G1 X141.957 Y40.018 E5.09892
G1 X142.481 Y40.387 E5.13089
G1 X143.000 Y40.761 E5.16281
G1 X143.513 Y41.137 E5.19454
G1 X144.027 Y41.520 E5.22652
G1 X144.537 Y41.908 E5.25849
G1 X145.039 Y42.297 E5.29018
G1 X145.541 Y42.691 E5.32201
G1 X146.041 Y43.091 E5.35396
G1 X146.536 Y43.496 E5.38587
G1 X147.027 Y43.904 E5.41772
G1 X147.516 Y44.318 E5.44968
G1 X147.997 Y44.733 E5.48138
G1 X148.477 Y45.152 E5.51316
G1 X148.956 Y45.579 E5.54518
G1 X149.432 Y46.011 E5.57725
G1 X149.899 Y46.444 E5.60902
G1 X150.361 Y46.879 E5.64068
G1 X150.823 Y47.320 E5.67254
G1 X151.283 Y47.766 E5.70451
G1 X151.738 Y48.217 E5.73647
G1 X152.187 Y48.671 E5.76833
G1 X152.631 Y49.127 E5.80008
G1 X153.074 Y49.588 E5.83198
G1 X153.512 Y50.053 E5.86385
G1 X153.946 Y50.521 E5.89569
G1 X154.378 Y50.997 E5.92776
G1 X154.802 Y51.473 E5.95956
G1 X155.220 Y51.949 E5.99117
G1 X155.638 Y52.432 E6.02304
G1 X156.055 Y52.924 E6.05521
G1 X156.463 Y53.415 E6.08706
G1 X156.866 Y53.908 E6.11883
G1 X157.266 Y54.406 E6.15070
G1 X157.661 Y54.907 E6.18253
G1 X158.052 Y55.411 E6.21435
G1 X158.441 Y55.922 E6.24639
G1 X158.823 Y56.434 E6.27826
G1 X159.198 Y56.945 E6.30988
G1 X159.574 Y57.465 E6.34190
G1 X159.944 Y57.989 E6.37390
G1 X160.306 Y58.511 E6.40559
G1 X160.665 Y59.037 E6.43736
G1 X161.023 Y59.571 E6.46944
G1 X161.374 Y60.107 E6.50140
G1 X161.718 Y60.642 E6.53314
G1 X162.060 Y61.184 E6.56511
G1 X162.394 Y61.725 E6.59683
G1 X162.725 Y62.267 E6.62851
G1 X163.056 Y62.821 E6.66071
G1 X163.377 Y63.375 E6.69265
G1 X163.691 Y63.924 E6.72421
G1 X164.005 Y64.481 E6.75611
G1 X164.314 Y65.043 E6.78810
G1 X164.617 Y65.607 E6.82005
G1 X164.912 Y66.169 E6.85171
G1 X165.206 Y66.737 E6.88362
G1 X165.495 Y67.311 E6.91568
G1 X165.778 Y67.884 E6.94757
G1 X166.054 Y68.458 E6.97934
G1 X166.325 Y69.032 E7.01101
G1 X166.595 Y69.613 E7.04297
G1 X166.858 Y70.198 E7.07497
G1 X167.115 Y70.782 E7.10680
G1 X167.367 Y71.367 E7.13858
G1 X167.615 Y71.958 E7.17056
G1 X167.856 Y72.548 E7.20236
G1 X168.094 Y73.142 E7.23428
G1 X168.325 Y73.736 E7.26608
G1 X168.552 Y74.332 E7.29790
G1 X168.775 Y74.936 E7.33002
G1 X168.989 Y75.536 E7.36180
G1 X169.200 Y76.136 E7.39353
G1 X169.406 Y76.742 E7.42546
G1 X169.606 Y77.348 E7.45730
G1 X169.801 Y77.955 E7.48911
G1 X169.991 Y78.565 E7.52098
G1 X170.176 Y79.177 E7.55288
G1 X170.355 Y79.793 E7.58488
G1 X170.528 Y80.406 E7.61666
G1 X170.696 Y81.022 E7.64852
G1 X170.860 Y81.642 E7.68051
G1 X171.017 Y82.262 E7.71242
G1 X171.168 Y82.879 E7.74411
G1 X171.315 Y83.501 E7.77600
G1 X171.457 Y84.125 E7.80792
G1 X171.593 Y84.751 E7.83988
G1 X171.723 Y85.375 E7.87168
G1 X171.848 Y86.000 E7.90348
G1 X171.967 Y86.628 E7.93537
G1 X172.081 Y87.257 E7.96726
G1 X172.189 Y87.883 E7.99896
G1 X172.293 Y88.513 E8.03081
G1 X172.391 Y89.150 E8.06297
G1 X172.482 Y89.781 E8.09477
G1 X172.568 Y90.411 E8.12649
G1 X172.650 Y91.045 E8.15839
G1 X172.726 Y91.683 E8.19044
G1 X172.795 Y92.319 E8.22236
G1 X172.858 Y92.950 E8.25400
G1 X172.918 Y93.585 E8.28582
G1 X172.971 Y94.225 E8.31786
G1 X173.018 Y94.861 E8.34967
G1 X173.061 Y95.496 E8.38143
G1 X173.098 Y96.137 E8.41346
G1 X173.128 Y96.776 E8.44538
G1 X173.153 Y97.411 E8.47708
G1 X173.174 Y98.050 E8.50898
G1 X173.188 Y98.692 E8.54101
G1 X173.196 Y99.329 E8.57280
G1 X173.199 Y99.920 E8.60228
G1 X173.200 Y99.954 E8.60398
G1 X173.198 Y100.605 E8.63646
G1 X173.190 Y101.245 E8.66839
G1 X173.176 Y101.885 E8.70033
G1 X173.156 Y102.521 E8.73207
G1 X173.132 Y103.158 E8.76388
G1 X173.102 Y103.800 E8.79594
G1 X173.065 Y104.439 E8.82787
G1 X173.023 Y105.071 E8.85947
G1 X172.977 Y105.710 E8.89144
G1 X172.924 Y106.349 E8.92343
G1 X172.866 Y106.982 E8.95514
G1 X172.803 Y107.615 E8.98687
G1 X172.734 Y108.254 E9.01894
G1 X172.658 Y108.889 E9.05085
G1 X172.578 Y109.521 E9.08263
G1 X172.492 Y110.154 E9.11450
G1 X172.401 Y110.787 E9.14640
G1 X172.303 Y111.422 E9.17846
G1 X172.200 Y112.049 E9.21016
G1 X172.094 Y112.677 E9.24193
G1 X171.979 Y113.309 E9.27398
G1 X171.860 Y113.936 E9.30582
G1 X171.737 Y114.559 E9.33750
G1 X171.608 Y115.186 E9.36944
G1 X171.471 Y115.814 E9.40151
G1 X171.330 Y116.436 E9.43333
G1 X171.184 Y117.055 E9.46506
G1 X171.034 Y117.675 E9.49688
G1 X170.876 Y118.297 E9.52890
G1 X170.713 Y118.915 E9.56078
G1 X170.547 Y119.528 E9.59247
G1 X170.374 Y120.144 E9.62439
G1 X170.194 Y120.759 E9.65636
G1 X170.011 Y121.369 E9.68813
G1 X169.822 Y121.980 E9.72004
G1 X169.626 Y122.590 E9.75201
G1 X169.427 Y123.196 E9.78383
G1 X169.222 Y123.800 E9.81565
G1 X169.012 Y124.403 E9.84751
G1 X168.797 Y125.005 E9.87940
G1 X168.575 Y125.606 E9.91136
G1 X168.349 Y126.201 E9.94312
G1 X168.119 Y126.797 E9.97499
G1 X167.880 Y127.393 E10.00702
G1 X167.640 Y127.981 E10.03871
G1 X167.394 Y128.569 E10.07051
G1 X167.143 Y129.156 E10.10236
G1 X166.885 Y129.744 E10.13439
G1 X166.622 Y130.328 E10.16635
G1 X166.354 Y130.907 E10.19818
G1 X166.083 Y131.483 E10.22994
G1 X165.806 Y132.059 E10.26182
G1 X165.523 Y132.632 E10.29371
G1 X165.235 Y133.204 E10.32566
G1 X164.944 Y133.769 E10.35737
G1 X164.649 Y134.333 E10.38912
G1 X164.344 Y134.901 E10.42128
G1 X164.036 Y135.462 E10.45321
G1 X163.725 Y136.016 E10.48491
G1 X163.410 Y136.569 E10.51666
G1 X163.087 Y137.125 E10.54874
G1 X162.759 Y137.675 E10.58069
G1 X162.431 Y138.215 E10.61221
G1 X162.096 Y138.760 E10.64413
G1 X161.752 Y139.305 E10.67628
G1 X161.408 Y139.840 E10.70801
G1 X161.058 Y140.374 E10.73987
G1 X160.702 Y140.906 E10.77180
G1 X160.345 Y141.433 E10.80356
G1 X159.981 Y141.957 E10.83539
G1 X159.612 Y142.481 E10.86737
G1 X159.238 Y143.000 E10.89928
G1 X158.862 Y143.513 E10.93101
G1 X158.479 Y144.027 E10.96299
G1 X158.091 Y144.537 E10.99496
G1 X157.702 Y145.039 E11.02665
G1 X157.308 Y145.541 E11.05848
G1 X156.908 Y146.041 E11.09043
G1 X156.503 Y146.536 E11.12234
G1 X156.095 Y147.027 E11.15419
G1 X155.681 Y147.516 E11.18615
G1 X155.266 Y147.997 E11.21785
G1 X154.847 Y148.477 E11.24964
G1 X154.420 Y148.956 E11.28165
G1 X153.988 Y149.432 E11.31372
G1 X153.555 Y149.899 E11.34549
G1 X153.120 Y150.361 E11.37715
G1 X152.679 Y150.823 E11.40901
G1 X152.233 Y151.283 E11.44098
G1 X151.782 Y151.738 E11.47294
G1 X151.328 Y152.187 E11.50480
G1 X150.872 Y152.631 E11.53655
G1 X150.411 Y153.074 E11.56845
G1 X149.946 Y153.512 E11.60032
G1 X149.478 Y153.946 E11.63216
G1 X149.002 Y154.378 E11.66423
G1 X148.526 Y154.802 E11.69603
G1 X148.050 Y155.220 E11.72764
G1 X147.567 Y155.638 E11.75951
G1 X147.075 Y156.055 E11.79168
G1 X146.584 Y156.463 E11.82353
G1 X146.091 Y156.866 E11.85530
G1 X145.593 Y157.266 E11.88717
G1 X145.092 Y157.661 E11.91900
G1 X144.588 Y158.052 E11.95082
G1 X144.077 Y158.441 E11.98286
G1 X143.565 Y158.823 E12.01473
G1 X143.054 Y159.198 E12.04635
G1 X142.534 Y159.574 E12.07837
G1 X142.010 Y159.944 E12.11037
G1 X141.488 Y160.306 E12.14206
G1 X140.962 Y160.665 E12.17383
G1 X140.428 Y161.023 E12.20591
G1 X139.892 Y161.374 E12.23787
G1 X139.357 Y161.718 E12.26961
G1 X138.815 Y162.060 E12.30158
G1 X138.274 Y162.394 E12.33330
G1 X137.732 Y162.725 E12.36498
G1 X137.179 Y163.055 E12.39711
G1 X136.625 Y163.377 E12.42908
G1 X136.074 Y163.692 E12.46075
G1 X135.518 Y164.005 E12.49258
G1 X134.956 Y164.314 E12.52458
G1 X134.392 Y164.617 E12.55652
G1 X133.830 Y164.912 E12.58818
G1 X133.262 Y165.206 E12.62009
G1 X132.688 Y165.495 E12.65215
G1 X132.115 Y165.778 E12.68404
G1 X131.541 Y166.054 E12.71581
G1 X130.967 Y166.325 E12.74748
G1 X130.386 Y166.595 E12.77944
G1 X129.801 Y166.858 E12.81144
G1 X129.217 Y167.115 E12.84328
G1 X128.632 Y167.367 E12.87505
G1 X128.041 Y167.615 E12.90703
G1 X127.451 Y167.856 E12.93883
G1 X126.857 Y168.094 E12.97075
G1 X126.263 Y168.325 E13.00255
G1 X125.667 Y168.552 E13.03437
G1 X125.063 Y168.775 E13.06649
G1 X124.463 Y168.989 E13.09827
G1 X123.863 Y169.200 E13.13000
G1 X123.257 Y169.406 E13.16193
G1 X122.651 Y169.606 E13.19377
G1 X122.044 Y169.801 E13.22558
G1 X121.434 Y169.991 E13.25745
G1 X120.822 Y170.176 E13.28935
G1 X120.206 Y170.355 E13.32135
G1 X119.593 Y170.528 E13.35313
G1 X118.977 Y170.696 E13.38499
G1 X118.357 Y170.860 E13.41698
G1 X117.737 Y171.017 E13.44889
G1 X117.120 Y171.168 E13.48058
G1 X116.498 Y171.315 E13.51247
G1 X115.874 Y171.457 E13.54440
G1 X115.248 Y171.593 E13.57636
G1 X114.624 Y171.723 E13.60816
G1 X113.999 Y171.848 E13.63995
G1 X113.371 Y171.967 E13.67184
G1 X112.742 Y172.081 E13.70373
G1 X112.116 Y172.189 E13.73543
G1 X111.486 Y172.293 E13.76728
G1 X110.849 Y172.391 E13.79944
G1 X110.218 Y172.482 E13.83124
G1 X109.588 Y172.568 E13.86297
G1 X108.954 Y172.650 E13.89486
G1 X108.316 Y172.726 E13.92692
G1 X107.680 Y172.795 E13.95883
G1 X107.049 Y172.858 E13.99047
G1 X106.414 Y172.918 E14.02229
G1 X105.774 Y172.971 E14.05433
G1 X105.138 Y173.018 E14.08615
G1 X104.503 Y173.061 E14.11790
G1 X103.862 Y173.098 E14.14993
G1 X103.223 Y173.128 E14.18185
G1 X102.588 Y173.153 E14.21355
G1 X101.949 Y173.174 E14.24545
G1 X101.307 Y173.188 E14.27749
G1 X100.670 Y173.196 E14.30927
G1 X100.080 Y173.199 E14.33870
G1 X100.046 Y173.200 E14.34040
G1 X99.394 Y173.198 E14.37293
G1 X98.754 Y173.190 E14.40486
G1 X98.114 Y173.176 E14.43680
G1 X97.478 Y173.156 E14.46854
G1 X96.841 Y173.132 E14.50035
G1 X96.199 Y173.102 E14.53241
G1 X95.560 Y173.065 E14.56434
G1 X94.928 Y173.023 E14.59595
G1 X94.289 Y172.977 E14.62791
G1 X93.650 Y172.924 E14.65990
G1 X93.017 Y172.866 E14.69161
G1 X92.384 Y172.803 E14.72335
G1 X91.745 Y172.734 E14.75541
G1 X91.110 Y172.658 E14.78732
G1 X90.478 Y172.578 E14.81910
G1 X89.845 Y172.492 E14.85097
G1 X89.212 Y172.401 E14.88288
G1 X88.577 Y172.303 E14.91493
G1 X87.950 Y172.200 E14.94663
G1 X87.322 Y172.094 E14.97841
G1 X86.690 Y171.979 E15.01045
G1 X86.063 Y171.860 E15.04229
G1 X85.440 Y171.737 E15.07398
G1 X84.813 Y171.608 E15.10591
G1 X84.185 Y171.471 E15.13798
G1 X83.563 Y171.330 E15.16980
G1 X82.944 Y171.184 E15.20153
G1 X82.324 Y171.034 E15.23335
G1 X81.702 Y170.876 E15.26537
G1 X81.084 Y170.713 E15.29726
G1 X80.471 Y170.547 E15.32894
G1 X79.855 Y170.374 E15.36086
G1 X79.240 Y170.194 E15.39283
G1 X78.630 Y170.011 E15.42460
G1 X78.019 Y169.822 E15.45651
G1 X77.409 Y169.626 E15.48848
G1 X76.803 Y169.427 E15.52030
G1 X76.199 Y169.222 E15.55212
G1 X75.596 Y169.012 E15.58398
G1 X74.994 Y168.797 E15.61587
G1 X74.393 Y168.575 E15.64783
G1 X73.798 Y168.349 E15.67959
G1 X73.202 Y168.119 E15.71146
G1 X72.606 Y167.880 E15.74350
G1 X72.018 Y167.640 E15.77518
G1 X71.430 Y167.394 E15.80698
G1 X70.843 Y167.143 E15.83883
G1 X70.255 Y166.885 E15.87087
G1 X69.671 Y166.622 E15.90282
G1 X69.092 Y166.354 E15.93465
G1 X68.516 Y166.083 E15.96641
G1 X67.940 Y165.806 E15.99830
G1 X67.367 Y165.523 E16.03018
G1 X66.795 Y165.235 E16.06213
G1 X66.230 Y164.944 E16.09384
G1 X65.666 Y164.649 E16.12559
G1 X65.098 Y164.344 E16.15776
G1 X64.537 Y164.036 E16.18968
G1 X63.982 Y163.725 E16.22142
G1 X63.431 Y163.410 E16.25309
G1 X62.875 Y163.088 E16.28514
G1 X62.324 Y162.759 E16.31716
G1 X61.784 Y162.431 E16.34868
G1 X61.239 Y162.096 E16.38060
G1 X60.694 Y161.752 E16.41275
G1 X60.159 Y161.408 E16.44448
G1 X59.625 Y161.058 E16.47634
G1 X59.093 Y160.702 E16.50827
G1 X58.566 Y160.345 E16.54003
G1 X58.042 Y159.981 E16.57186
G1 X57.518 Y159.612 E16.60384
G1 X56.999 Y159.238 E16.63575
G1 X56.486 Y158.862 E16.66748
G1 X55.972 Y158.479 E16.69946
