;Generated with Cura_SteamEngine 15.01
; Default start code
G28 ; Home extruder
G1 Z15 F100
M107 ; Turn off fan
G90 ; Absolute positioning
M82 ; Extruder in absolute mode
M190 S80
; Activate all used extruder
M104 T0 S220
G92 E0 ; Reset extruder position
; Wait for all used extruders to reach temperature
M109 T0 S220
;Layer count: 175
;LAYER:0
M107
G0 F9000 X101.024 Y88.294 Z0.300
;TYPE:SKIRT
G1 F1800 X101.633 Y87.609 E0.04573
G1 X102.321 Y87.003 E0.09147
G1 X103.079 Y86.481 E0.13739
G1 X103.940 Y86.033 E0.18581
G1 X105.126 Y85.624 E0.24840
G1 X106.028 Y85.459 E0.29414
G1 X106.544 Y85.412 E0.31999
G1 X107.011 Y85.399 E0.34330
G1 X107.526 Y85.414 E0.36901
G1 X108.391 Y85.522 E0.41250
G1 X109.222 Y85.729 E0.45522
G1 X109.806 Y85.930 E0.48604
G1 X110.897 Y86.463 E0.54661
G1 X111.705 Y87.024 E0.59569
G1 X112.390 Y87.633 E0.64142
G1 X112.996 Y88.321 E0.68716
G1 X113.518 Y89.079 E0.73307
G1 X113.966 Y89.940 E0.78150
G1 X114.375 Y91.126 E0.84409
G1 X114.540 Y92.028 E0.88983
G1 X114.587 Y92.537 E0.91534
G1 X114.602 Y93.011 E0.93900
G1 X114.585 Y93.534 E0.96510
G1 X114.477 Y94.391 E1.00820
G1 X114.270 Y95.222 E1.05092
G1 X114.069 Y95.806 E1.08174
G1 X113.536 Y96.897 E1.14231
G1 X112.975 Y97.705 E1.19139
G1 X112.366 Y98.390 E1.23712
G1 X111.678 Y98.996 E1.28286
G1 X110.920 Y99.518 E1.32877
G1 X110.059 Y99.966 E1.37720
G1 X109.954 Y100.002 E1.38273
G1 X110.897 Y100.463 E1.43510
G1 X111.705 Y101.024 E1.48418
G1 X112.390 Y101.633 E1.52991
G1 X112.996 Y102.321 E1.57565
G1 X113.518 Y103.079 E1.62156
G1 X113.966 Y103.940 E1.66999
G1 X114.375 Y105.126 E1.73257
G1 X114.540 Y106.028 E1.77832
G1 X114.587 Y106.537 E1.80382
G1 X114.602 Y107.011 E1.82748
G1 X114.585 Y107.534 E1.85359
G1 X114.477 Y108.391 E1.89668
G1 X114.270 Y109.222 E1.93941
G1 X114.069 Y109.806 E1.97022
G1 X113.536 Y110.897 E2.03080
G1 X112.975 Y111.705 E2.07988
G1 X112.366 Y112.390 E2.12560
G1 X111.678 Y112.996 E2.17135
G1 X110.920 Y113.518 E2.21726
G1 X110.059 Y113.966 E2.26568
G1 X108.873 Y114.375 E2.32827
G1 X107.971 Y114.540 E2.37402
G1 X107.462 Y114.587 E2.39952
G1 X106.989 Y114.602 E2.42313
G1 X106.466 Y114.585 E2.44924
G1 X105.608 Y114.477 E2.49238
G1 X104.777 Y114.270 E2.53511
G1 X104.193 Y114.069 E2.56592
G1 X103.102 Y113.536 E2.62650
G1 X102.294 Y112.975 E2.67558
G1 X101.609 Y112.366 E2.72130
G1 X101.003 Y111.678 E2.76705
G1 X100.481 Y110.920 E2.81296
G1 X100.033 Y110.059 E2.86138
G1 X99.997 Y109.954 E2.86692
G1 X99.536 Y110.897 E2.91929
G1 X98.975 Y111.705 E2.96836
G1 X98.366 Y112.390 E3.01409
G1 X97.678 Y112.996 E3.05983
G1 X96.920 Y113.518 E3.10575
G1 X96.059 Y113.966 E3.15417
G1 X94.873 Y114.375 E3.21676
G1 X93.971 Y114.540 E3.26251
G1 X93.462 Y114.587 E3.28801
G1 X92.989 Y114.602 E3.31162
G1 X92.466 Y114.585 E3.33773
G1 X91.608 Y114.477 E3.38087
G1 X90.777 Y114.270 E3.42360
G1 X90.193 Y114.069 E3.45441
G1 X89.102 Y113.536 E3.51499
G1 X88.294 Y112.975 E3.56406
G1 X87.609 Y112.366 E3.60979
G1 X87.003 Y111.678 E3.65553
G1 X86.481 Y110.920 E3.70145
G1 X86.033 Y110.059 E3.74987
G1 X85.624 Y108.873 E3.81246
G1 X85.459 Y107.971 E3.85821
G1 X85.412 Y107.455 E3.88406
G1 X85.399 Y106.989 E3.90732
G1 X85.413 Y106.473 E3.93307
G1 X85.522 Y105.608 E3.97657
G1 X85.729 Y104.777 E4.01929
G1 X85.930 Y104.193 E4.05010
G1 X86.463 Y103.102 E4.11068
G1 X87.024 Y102.294 E4.15976
G1 X87.633 Y101.609 E4.20549
G1 X88.321 Y101.003 E4.25123
G1 X89.079 Y100.481 E4.29714
G1 X89.940 Y100.033 E4.34557
G1 X91.126 Y99.624 E4.40816
G1 X92.028 Y99.459 E4.45390
G1 X92.544 Y99.412 E4.47975
G1 X93.011 Y99.399 E4.50306
G1 X93.526 Y99.414 E4.52876
G1 X94.391 Y99.522 E4.57225
G1 X95.222 Y99.729 E4.61498
G1 X95.806 Y99.930 E4.64579
G1 X96.897 Y100.463 E4.70637
G1 X97.705 Y101.024 E4.75545
G1 X98.390 Y101.633 E4.80118
G1 X98.996 Y102.321 E4.84692
G1 X99.518 Y103.079 E4.89283
G1 X99.966 Y103.940 E4.94126
G1 X100.002 Y104.045 E4.94679
G1 X100.463 Y103.102 E4.99916
G1 X101.024 Y102.294 E5.04824
G1 X101.633 Y101.609 E5.09396
G1 X102.321 Y101.003 E5.13970
G1 X103.079 Y100.481 E5.18562
G1 X103.940 Y100.033 E5.23404
G1 X104.045 Y99.997 E5.23958
G1 X103.102 Y99.536 E5.29195
G1 X102.294 Y98.975 E5.34102
G1 X101.609 Y98.366 E5.38675
G1 X101.003 Y97.678 E5.43249
G1 X100.481 Y96.920 E5.47841
G1 X100.033 Y96.059 E5.52683
G1 X99.624 Y94.873 E5.58942
G1 X99.459 Y93.971 E5.63517
G1 X99.412 Y93.455 E5.66102
G1 X99.399 Y92.989 E5.68428
G1 X99.413 Y92.473 E5.71003
G1 X99.522 Y91.608 E5.75353
G1 X99.729 Y90.777 E5.79625
G1 X99.930 Y90.193 E5.82706
G1 X100.463 Y89.102 E5.88764
G1 X101.024 Y88.294 E5.93672
G0 F9000 X101.339 Y88.542
G1 F1800 X101.916 Y87.893 E5.98004
G1 X102.568 Y87.319 E6.02338
G1 X103.285 Y86.825 E6.06682
G1 X104.098 Y86.401 E6.11257
G1 X105.228 Y86.012 E6.17219
G1 X106.082 Y85.855 E6.21551
G1 X106.568 Y85.811 E6.23985
G1 X107.011 Y85.799 E6.26196
G1 X107.495 Y85.813 E6.28612
G1 X108.318 Y85.916 E6.32750
G1 X109.108 Y86.113 E6.36812
G1 X109.653 Y86.300 E6.39687
G1 X110.694 Y86.808 E6.45466
G1 X111.457 Y87.339 E6.50103
G1 X112.106 Y87.916 E6.54436
G1 X112.680 Y88.568 E6.58770
G1 X113.174 Y89.285 E6.63114
G1 X113.598 Y90.098 E6.67688
G1 X113.987 Y91.228 E6.73650
G1 X114.144 Y92.082 E6.77983
G1 X114.187 Y92.561 E6.80382
G1 X114.202 Y93.011 E6.82628
G1 X114.185 Y93.502 E6.85079
G1 X114.083 Y94.318 E6.89182
G1 X113.886 Y95.108 E6.93244
G1 X113.699 Y95.653 E6.96119
G1 X113.191 Y96.694 E7.01898
G1 X112.660 Y97.457 E7.06535
G1 X112.083 Y98.106 E7.10868
G1 X111.431 Y98.680 E7.15202
G1 X110.714 Y99.174 E7.19546
G1 X109.901 Y99.598 E7.24120
G1 X108.771 Y99.987 E7.30082
G1 X108.674 Y100.005 E7.30575
G1 X109.108 Y100.113 E7.32806
G1 X109.653 Y100.300 E7.35680
G1 X110.694 Y100.808 E7.41459
G1 X111.457 Y101.339 E7.46097
G1 X112.106 Y101.916 E7.50430
G1 X112.680 Y102.568 E7.54763
G1 X113.174 Y103.285 E7.59107
G1 X113.598 Y104.098 E7.63682
G1 X113.987 Y105.228 E7.69644
G1 X114.144 Y106.082 E7.73976
G1 X114.187 Y106.561 E7.76376
G1 X114.202 Y107.011 E7.78622
G1 X114.185 Y107.502 E7.81073
G1 X114.083 Y108.318 E7.85176
G1 X113.886 Y109.108 E7.89238
G1 X113.699 Y109.653 E7.92112
G1 X113.191 Y110.694 E7.97891
G1 X112.660 Y111.457 E8.02529
G1 X112.083 Y112.106 E8.06862
G1 X111.431 Y112.680 E8.11195
G1 X110.714 Y113.174 E8.15539
G1 X109.901 Y113.598 E8.20114
G1 X108.771 Y113.987 E8.26076
G1 X107.917 Y114.144 E8.30408
G1 X107.438 Y114.187 E8.32807
G1 X106.989 Y114.202 E8.35049
G1 X106.497 Y114.185 E8.37505
G1 X105.681 Y114.083 E8.41608
G1 X104.891 Y113.886 E8.45670
G1 X104.346 Y113.699 E8.48544
G1 X103.305 Y113.191 E8.54323
G1 X102.542 Y112.660 E8.58961
G1 X101.893 Y112.083 E8.63293
G1 X101.319 Y111.431 E8.67627
G1 X100.825 Y110.714 E8.71971
G1 X100.401 Y109.901 E8.76546
G1 X100.012 Y108.771 E8.82508
G1 X99.994 Y108.674 E8.83000
G1 X99.886 Y109.108 E8.85231
G1 X99.699 Y109.653 E8.88106
G1 X99.191 Y110.694 E8.93885
G1 X98.660 Y111.457 E8.98523
G1 X98.083 Y112.106 E9.02855
G1 X97.431 Y112.680 E9.07189
G1 X96.714 Y113.174 E9.11533
G1 X95.901 Y113.598 E9.16108
G1 X94.771 Y113.987 E9.22070
G1 X93.917 Y114.144 E9.26402
G1 X93.438 Y114.187 E9.28801
G1 X92.989 Y114.202 E9.31043
G1 X92.497 Y114.185 E9.33499
G1 X91.681 Y114.083 E9.37601
G1 X90.891 Y113.886 E9.41663
G1 X90.346 Y113.699 E9.44538
G1 X89.305 Y113.191 E9.50317
G1 X88.542 Y112.660 E9.54955
G1 X87.893 Y112.083 E9.59287
G1 X87.319 Y111.431 E9.63621
G1 X86.825 Y110.714 E9.67965
G1 X86.401 Y109.901 E9.72539
G1 X86.012 Y108.771 E9.78502
G1 X85.855 Y107.917 E9.82834
G1 X85.811 Y107.431 E9.85268
G1 X85.799 Y106.990 E9.87469
G1 X85.813 Y106.504 E9.89895
G1 X85.916 Y105.681 E9.94033
G1 X86.113 Y104.891 E9.98095
G1 X86.300 Y104.346 E10.00970
G1 X86.808 Y103.305 E10.06749
G1 X87.339 Y102.542 E10.11386
G1 X87.916 Y101.893 E10.15719
G1 X88.568 Y101.319 E10.20053
G1 X89.285 Y100.825 E10.24397
G1 X90.098 Y100.401 E10.28971
G1 X91.228 Y100.012 E10.34933
G1 X92.082 Y99.855 E10.39265
G1 X92.568 Y99.811 E10.41700
G1 X93.011 Y99.799 E10.43911
G1 X93.495 Y99.813 E10.46327
G1 X94.318 Y99.916 E10.50465
G1 X95.108 Y100.113 E10.54527
G1 X95.653 Y100.300 E10.57401
G1 X96.694 Y100.808 E10.63180
G1 X97.457 Y101.339 E10.67818
G1 X98.106 Y101.916 E10.72150
G1 X98.680 Y102.568 E10.76484
G1 X99.174 Y103.285 E10.80828
G1 X99.598 Y104.098 E10.85403
G1 X99.987 Y105.228 E10.91365
G1 X100.005 Y105.325 E10.91857
G1 X100.113 Y104.891 E10.94088
G1 X100.300 Y104.346 E10.96963
G1 X100.808 Y103.305 E11.02742
G1 X101.339 Y102.542 E11.07380
G1 X101.916 Y101.893 E11.11712
G1 X102.568 Y101.319 E11.16046
G1 X103.285 Y100.825 E11.20390
G1 X104.098 Y100.401 E11.24965
G1 X105.228 Y100.012 E11.30927
G1 X105.325 Y99.994 E11.31419
G1 X104.891 Y99.886 E11.33650
G1 X104.346 Y99.699 E11.36525
G1 X103.305 Y99.191 E11.42304
G1 X102.542 Y98.660 E11.46942
G1 X101.893 Y98.083 E11.51274
G1 X101.319 Y97.431 E11.55608
G1 X100.825 Y96.714 E11.59952
G1 X100.401 Y95.901 E11.64526
G1 X100.012 Y94.771 E11.70489
G1 X99.855 Y93.917 E11.74821
G1 X99.811 Y93.431 E11.77255
G1 X99.799 Y92.990 E11.79456
G1 X99.813 Y92.504 E11.81882
G1 X99.916 Y91.681 E11.86020
G1 X100.113 Y90.891 E11.90082
G1 X100.300 Y90.346 E11.92957
G1 X100.808 Y89.305 E11.98736
G1 X101.339 Y88.542 E12.03373
G1 F2400 E8.03373
G0 F9000 X94.195 Y103.817
;TYPE:WALL-INNER
G1 F2400 E12.03373
G1 F1800 X94.759 Y104.092 E12.06504
G1 X95.105 Y104.333 E12.08607
G1 X95.407 Y104.601 E12.10622
G1 X95.681 Y104.912 E12.12690
G1 X95.912 Y105.247 E12.14720
G1 X96.097 Y105.603 E12.16721
G1 X96.301 Y106.195 E12.19845
G1 X96.392 Y106.789 E12.22843
G1 X96.399 Y107.008 E12.23937
G1 X96.393 Y107.211 E12.24950
G1 X96.342 Y107.618 E12.26996
G1 X96.182 Y108.195 E12.29984
G1 X95.907 Y108.759 E12.33114
G1 X95.666 Y109.105 E12.35218
G1 X95.398 Y109.407 E12.37232
G1 X95.087 Y109.681 E12.39300
G1 X94.752 Y109.912 E12.41330
G1 X94.396 Y110.097 E12.43332
G1 X93.804 Y110.301 E12.46456
G1 X93.200 Y110.393 E12.49504
G1 X92.992 Y110.399 E12.50542
G1 X92.788 Y110.393 E12.51560
G1 X92.381 Y110.342 E12.53606
G1 X91.804 Y110.182 E12.56594
G1 X91.240 Y109.907 E12.59724
G1 X90.894 Y109.666 E12.61828
G1 X90.592 Y109.398 E12.63842
G1 X90.318 Y109.087 E12.65910
G1 X90.087 Y108.752 E12.67940
G1 X89.902 Y108.396 E12.69942
G1 X89.698 Y107.804 E12.73066
G1 X89.606 Y107.201 E12.76109
G1 X89.600 Y106.991 E12.77157
G1 X89.606 Y106.788 E12.78170
G1 X89.657 Y106.381 E12.80217
G1 X89.817 Y105.804 E12.83204
G1 X90.092 Y105.240 E12.86335
G1 X90.333 Y104.894 E12.88438
G1 X90.601 Y104.592 E12.90453
G1 X90.912 Y104.318 E12.92521
G1 X91.247 Y104.087 E12.94551
G1 X91.603 Y103.902 E12.96552
G1 X92.195 Y103.698 E12.99676
G1 X92.798 Y103.606 E13.02719
G1 X93.009 Y103.600 E13.03772
G1 X93.211 Y103.606 E13.04781
G1 X93.618 Y103.657 E13.06827
G1 X94.195 Y103.817 E13.09814
G0 F9000 X93.873 Y104.926
G1 F1800 X93.472 Y104.799 E13.11913
G1 X93.026 Y104.748 E13.14153
G1 X92.620 Y104.780 E13.16184
G1 X92.213 Y104.888 E13.18285
G1 X91.844 Y105.068 E13.20333
G1 X91.485 Y105.334 E13.22563
G1 X91.207 Y105.634 E13.24603
G1 X90.985 Y105.993 E13.26709
G1 X90.838 Y106.371 E13.28732
G1 X90.788 Y106.581 E13.29809
G1 X90.759 Y106.789 E13.30857
G1 X90.748 Y107.025 E13.32036
G1 X90.789 Y107.433 E13.34082
G1 X90.909 Y107.836 E13.36179
G1 X91.101 Y108.211 E13.38281
G1 X91.350 Y108.531 E13.40304
G1 X91.513 Y108.690 E13.41440
G1 X91.691 Y108.831 E13.42573
G1 X92.040 Y109.036 E13.44592
G1 X92.436 Y109.180 E13.46695
G1 X92.828 Y109.244 E13.48676
G1 X93.077 Y109.250 E13.49919
G1 X93.498 Y109.198 E13.52035
G1 X94.050 Y108.991 E13.54976
G1 X94.253 Y108.868 E13.56161
G1 X94.435 Y108.734 E13.57288
G1 X94.725 Y108.447 E13.59324
G1 X94.957 Y108.110 E13.61365
G1 X95.063 Y107.897 E13.62552
G1 X95.186 Y107.536 E13.64455
G1 X95.230 Y107.302 E13.65642
G1 X95.250 Y106.882 E13.67740
G1 X95.189 Y106.476 E13.69788
G1 X95.121 Y106.248 E13.70975
G1 X94.958 Y105.891 E13.72933
G1 X94.830 Y105.689 E13.74127
G1 X94.564 Y105.380 E13.76161
G1 X94.234 Y105.116 E13.78269
G1 X93.873 Y104.926 E13.80304
G0 F9000 X93.712 Y105.293
;TYPE:WALL-OUTER
G1 F1800 X93.387 Y105.190 E13.82005
G1 X93.215 Y105.162 E13.82875
G1 X93.028 Y105.149 E13.83810
G1 X92.687 Y105.176 E13.85516
G1 X92.353 Y105.265 E13.87241
G1 X92.044 Y105.415 E13.88955
G1 X91.760 Y105.626 E13.90720
G1 X91.527 Y105.877 E13.92428
G1 X91.344 Y106.172 E13.94160
G1 X91.221 Y106.490 E13.95861
G1 X91.158 Y106.826 E13.97567
G1 X91.149 Y107.014 E13.98506
G1 X91.183 Y107.355 E14.00215
G1 X91.282 Y107.687 E14.01944
G1 X91.440 Y107.995 E14.03671
G1 X91.649 Y108.264 E14.05370
G1 X91.918 Y108.500 E14.07156
G1 X92.211 Y108.673 E14.08853
G1 X92.537 Y108.791 E14.10583
G1 X92.865 Y108.845 E14.12241
G1 X93.057 Y108.849 E14.13200
G1 X93.402 Y108.807 E14.14933
G1 X93.875 Y108.630 E14.17453
G1 X94.174 Y108.429 E14.19251
G1 X94.417 Y108.189 E14.20954
G1 X94.612 Y107.907 E14.22665
G1 X94.693 Y107.743 E14.23578
G1 X94.798 Y107.434 E14.25206
G1 X94.832 Y107.255 E14.26115
G1 X94.849 Y106.903 E14.27873
G1 X94.798 Y106.563 E14.29588
G1 X94.746 Y106.389 E14.30494
G1 X94.606 Y106.082 E14.32178
G1 X94.508 Y105.928 E14.33088
G1 X94.285 Y105.669 E14.34793
G1 X94.014 Y105.452 E14.36525
G1 X93.712 Y105.293 E14.38228
G0 F9000 X93.813 Y105.011
G0 X94.230 Y103.722
G0 X94.346 Y103.446
G1 F1800 X94.971 Y103.751 E14.41698
G1 X95.349 Y104.014 E14.43995
G1 X95.688 Y104.315 E14.46257
G1 X95.992 Y104.659 E14.48547
G1 X96.257 Y105.044 E14.50879
G1 X96.465 Y105.443 E14.53124
G1 X96.688 Y106.090 E14.56538
G1 X96.792 Y106.764 E14.59941
G1 X96.800 Y107.002 E14.61129
G1 X96.792 Y107.240 E14.62317
G1 X96.736 Y107.691 E14.64584
G1 X96.553 Y108.346 E14.67977
G1 X96.249 Y108.969 E14.71435
G1 X95.985 Y109.349 E14.73744
G1 X95.683 Y109.689 E14.76013
G1 X95.337 Y109.994 E14.78314
G1 X94.954 Y110.258 E14.80635
G1 X94.556 Y110.465 E14.82873
G1 X93.909 Y110.688 E14.86287
G1 X93.233 Y110.792 E14.89699
G1 X92.992 Y110.800 E14.90902
G1 X92.759 Y110.792 E14.92065
G1 X92.308 Y110.736 E14.94333
G1 X91.653 Y110.553 E14.97726
G1 X91.028 Y110.248 E15.01195
G1 X90.650 Y109.985 E15.03493
G1 X90.307 Y109.680 E15.05783
G1 X90.005 Y109.337 E15.08063
G1 X89.741 Y108.954 E15.10383
G1 X89.534 Y108.556 E15.12621
G1 X89.310 Y107.907 E15.16047
G1 X89.207 Y107.233 E15.19448
G1 X89.200 Y106.997 E15.20626
G1 X89.207 Y106.755 E15.21834
G1 X89.263 Y106.308 E15.24082
G1 X89.446 Y105.653 E15.27475
G1 X89.751 Y105.028 E15.30944
G1 X90.014 Y104.650 E15.33242
G1 X90.319 Y104.307 E15.35532
G1 X90.662 Y104.005 E15.37812
G1 X91.047 Y103.740 E15.40143
G1 X91.443 Y103.534 E15.42370
G1 X92.090 Y103.311 E15.45785
G1 X92.766 Y103.207 E15.49197
G1 X93.009 Y103.200 E15.50410
G1 X93.240 Y103.207 E15.51563
G1 X93.691 Y103.263 E15.53830
G1 X94.346 Y103.446 E15.57223
G0 F9000 X94.012 Y103.912
;TYPE:SKIN
G1 F1800 X96.077 Y105.976 E15.71789
G0 F9000 X96.237 Y106.702
G1 F1800 X93.291 Y103.756 E15.92575
G0 F9000 X92.727 Y103.758
G1 F1800 X93.688 Y104.719 E15.99355
G0 F9000 X93.011 Y104.607
G1 F1800 X92.237 Y103.833 E16.04816
G0 F9000 X91.814 Y103.977
G1 F1800 X92.503 Y104.665 E16.09674
G0 F9000 X92.071 Y104.799
G1 F1800 X91.423 Y104.151 E16.14246
G0 F9000 X91.079 Y104.373
G1 F1800 X91.703 Y104.996 E16.18645
G0 F9000 X91.380 Y105.240
G1 F1800 X90.769 Y104.629 E16.22956
G0 F9000 X90.496 Y104.921
G1 F1800 X91.108 Y105.533 E16.27274
G0 F9000 X90.889 Y105.880
G1 F1800 X90.256 Y105.247 E16.31740
G0 F9000 X90.062 Y105.619
G1 F1800 X90.723 Y106.280 E16.36404
G0 F9000 X90.624 Y106.746
G1 F1800 X89.901 Y106.023 E16.41505
G0 F9000 X89.785 Y106.473
G1 F1800 X90.638 Y107.326 E16.47523
G0 F9000 X89.814 Y107.633
G1 F1800 X92.374 Y110.193 E16.65585
G0 F9000 X93.004 Y110.257
G1 F1800 X91.806 Y109.059 E16.74038
G0 F9000 X91.483 Y109.868
G1 F1800 X90.111 Y108.496 E16.83718
G0 F9000 X90.929 Y108.183
G1 F1800 X89.740 Y106.993 E16.92111
G0 F9000 X91.691 Y108.831
G0 X92.672 Y109.360
G1 F1800 X93.514 Y110.201 E16.98048
G0 F9000 X93.970 Y110.092
G1 F1800 X93.247 Y109.369 E17.03149
G0 F9000 X93.712 Y109.268
G1 F1800 X94.386 Y109.943 E17.07908
G0 F9000 X94.750 Y109.741
G1 F1800 X94.121 Y109.112 E17.12346
G0 F9000 X94.461 Y108.886
G1 F1800 X95.076 Y109.501 E17.16685
G0 F9000 X95.368 Y109.228
G1 F1800 X94.755 Y108.614 E17.21014
G0 F9000 X95.000 Y108.294
G1 F1800 X95.625 Y108.919 E17.25424
G0 F9000 X95.842 Y108.570
G1 F1800 X95.199 Y107.927 E17.29960
