;Generated with Cura_SteamEngine 15.01
; Default start code
G28 ; Home extruder
G1 Z15 F100
M107 ; Turn off fan
G90 ; Absolute positioning
M82 ; Extruder in absolute mode
M190 S80
; Activate all used extruder
M104 T0 S220
G92 E0 ; Reset extruder position
; Wait for all used extruders to reach temperature
M109 T0 S220
;Layer count: 49
;LAYER:0
M107
G0 F9000 X91.450 Y99.650 Z0.300
;TYPE:SKIRT
G1 F1800 X106.194 Y99.650 E0.73558
G1 X106.194 Y99.244 E0.75584
G1 X118.394 Y99.244 E1.36450
G1 X118.394 Y119.944 E2.39722
G1 X108.549 Y119.944 E2.88839
G1 X108.549 Y120.350 E2.90865
G1 X91.450 Y120.350 E3.76172
G1 X91.450 Y99.650 E4.79445
G0 F9000 X91.850 Y100.050
G1 F1800 X106.594 Y100.050 E5.53003
G1 X106.594 Y99.644 E5.55029
G1 X117.994 Y99.644 E6.11903
G1 X117.994 Y119.544 E7.11185
G1 X108.149 Y119.544 E7.60302
G1 X108.149 Y119.950 E7.62327
G1 X91.850 Y119.950 E8.43643
G1 X91.850 Y100.050 E9.42925
G1 F2400 E5.42925
G0 F9000 X95.650 Y103.850
;TYPE:WALL-INNER
G1 F2400 E9.42925
G1 F1800 X104.349 Y103.850 E9.86324
G1 X104.349 Y116.150 E10.47689
G1 X103.549 Y116.150 E10.51680
G1 X103.549 Y116.001 E10.52424
G1 X102.549 Y115.002 E10.59476
G1 X102.549 Y114.498 E10.61990
G1 X103.549 Y113.499 E10.69042
G1 X103.549 Y104.650 E11.13190
G1 X96.450 Y104.650 E11.48607
G1 X96.450 Y113.499 E11.92755
G1 X97.450 Y114.498 E11.99807
G1 X97.450 Y115.002 E12.02322
G1 X96.450 Y116.001 E12.09374
G1 X96.450 Y116.150 E12.10117
G1 X95.650 Y116.150 E12.14108
G1 X95.650 Y103.850 E12.75473
G0 F9000 X96.850 Y104.750
G0 X96.850 Y105.050
;TYPE:WALL-OUTER
G1 F1800 X96.850 Y113.333 E13.16797
G1 X97.850 Y114.332 E13.23849
G1 X97.850 Y115.168 E13.28020
G1 X96.850 Y116.167 E13.35072
G1 X96.850 Y116.550 E13.36983
G1 X95.250 Y116.550 E13.44965
G1 X95.250 Y103.450 E14.10321
G1 X104.749 Y103.450 E14.57712
G1 X104.749 Y116.550 E15.23068
G1 X103.149 Y116.550 E15.31051
G1 X103.149 Y116.167 E15.32961
G1 X102.149 Y115.168 E15.40013
G1 X102.149 Y114.332 E15.44184
G1 X103.149 Y113.333 E15.51236
G1 X103.149 Y105.050 E15.92560
G1 X96.850 Y105.050 E16.23986
G0 F9000 X96.310 Y105.078
;TYPE:SKIN
G1 F1800 X96.049 Y104.534 E16.27659
G1 X96.071 Y103.990 E16.31332
G1 X96.895 Y104.248 E16.34983
G1 X97.460 Y104.248 E16.38634
G1 X98.026 Y104.248 E16.42290
G1 X98.592 Y104.248 E16.45947
G1 X99.157 Y104.248 E16.49598
G1 X99.723 Y104.248 E16.53254
G1 X100.289 Y104.248 E16.56911
G1 X100.855 Y104.248 E16.60568
G1 X101.420 Y104.248 E16.64218
G1 X101.986 Y104.248 E16.67875
G1 X102.552 Y104.248 E16.71532
G1 X103.117 Y104.248 E16.75182
G1 X103.674 Y104.522 E16.78837
G1 X103.948 Y105.079 E16.82499
G1 X103.948 Y105.645 E16.86163
G1 X103.948 Y106.211 E16.89826
G1 X103.948 Y106.776 E16.93491
G1 X103.948 Y107.342 E16.97155
G1 X103.948 Y107.908 E17.00819
G1 X103.948 Y108.474 E17.04482
G1 X103.948 Y109.039 E17.08140
G1 X103.948 Y109.605 E17.11804
G1 X103.948 Y110.171 E17.15475
G1 X103.948 Y110.736 E17.19146
G1 X103.948 Y111.302 E17.22817
G1 X103.948 Y111.868 E17.26488
G1 X103.948 Y112.433 E17.30159
G1 X103.948 Y112.999 E17.33830
G1 X103.941 Y113.557 E17.37498
G1 X104.209 Y114.108 E17.40555
G0 F9000 X104.209 Y114.674
G1 F1800 X103.390 Y113.855 E17.46334
G0 F9000 X103.106 Y114.137
G1 F1800 X104.209 Y115.240 E17.54116
G0 F9000 X104.209 Y115.805
G1 F1800 X102.823 Y114.420 E17.63891
G0 F9000 X102.688 Y114.851
G1 F1800 X103.847 Y116.009 E17.72065
G0 F9000 X104.208 Y104.491
G1 F1800 X103.707 Y103.989 E17.75604
G0 F9000 X96.509 Y104.709
G0 X96.310 Y105.643
G1 F1800 X95.789 Y105.406 E17.79273
G1 X96.049 Y106.231 E17.82941
G1 X96.049 Y106.797 E17.86612
G1 X96.049 Y107.363 E17.90283
G1 X96.049 Y107.928 E17.93955
G1 X96.049 Y108.494 E17.97625
G1 X96.049 Y109.060 E18.01296
G1 X96.049 Y109.625 E18.04968
G1 X96.049 Y110.191 E18.08639
G1 X96.049 Y110.757 E18.12310
G1 X96.049 Y111.322 E18.15981
G1 X96.049 Y111.888 E18.19652
G1 X96.049 Y112.454 E18.23323
G1 X96.310 Y112.997 E18.26329
G0 F9000 X95.789 Y113.043
G1 F1800 X97.309 Y114.563 E18.37053
G0 F9000 X97.216 Y115.035
G1 F1800 X95.789 Y113.608 E18.47121
G0 F9000 X95.789 Y114.174
G1 F1800 X96.933 Y115.318 E18.55193
G0 F9000 X96.650 Y115.600
G1 F1800 X95.789 Y114.740 E18.61264
G0 F9000 X95.789 Y115.305
G1 F1800 X96.367 Y115.883 E18.65342
G0 F9000 X95.927 Y116.009
G1 F1800 X95.789 Y115.871 E18.66316
G1 F2400 E14.66316
G0 F9000 X110.394 Y115.744
;TYPE:WALL-INNER
G1 F2400 E18.66316
G1 F1800 X110.394 Y103.444 E19.27681
G1 X114.194 Y103.444 E19.46639
G1 X114.194 Y115.744 E20.08004
G1 X110.394 Y115.744 E20.26963
G0 F9000 X109.994 Y116.144
;TYPE:WALL-OUTER
G1 F1800 X109.994 Y103.044 E20.92319
G1 X114.594 Y103.044 E21.15268
G1 X114.594 Y116.144 E21.80624
G1 X109.994 Y116.144 E22.03574
G0 F9000 X110.795 Y115.603
;TYPE:SKIN
G1 F1800 X110.533 Y115.341 E22.05422
G0 F9000 X110.533 Y114.776
G1 F1800 X111.360 Y115.603 E22.11257
G0 F9000 X111.926 Y115.603
G1 F1800 X110.533 Y114.210 E22.21086
G0 F9000 X110.533 Y113.644
G1 F1800 X112.492 Y115.603 E22.34907
G0 F9000 X113.057 Y115.603
G1 F1800 X110.533 Y113.079 E22.52716
G0 F9000 X110.533 Y112.513
G1 F1800 X113.623 Y115.603 E22.74517
G0 F9000 X114.053 Y115.467
G1 F1800 X110.533 Y111.947 E22.99353
G0 F9000 X110.533 Y111.382
G1 F1800 X114.053 Y114.902 E23.24188
G0 F9000 X114.053 Y114.336
G1 F1800 X110.533 Y110.816 E23.49024
G0 F9000 X110.533 Y110.250
G1 F1800 X114.053 Y113.770 E23.73859
G0 F9000 X114.053 Y113.204
G1 F1800 X110.533 Y109.684 E23.98695
G0 F9000 X110.533 Y109.119
G1 F1800 X114.053 Y112.639 E24.23530
G0 F9000 X114.053 Y112.073
G1 F1800 X110.533 Y108.553 E24.48366
G0 F9000 X110.533 Y107.987
G1 F1800 X114.053 Y111.507 E24.73201
G0 F9000 X114.053 Y110.942
G1 F1800 X110.533 Y107.422 E24.98037
G0 F9000 X110.533 Y106.856
G1 F1800 X114.053 Y110.376 E25.22872
G0 F9000 X114.053 Y109.810
G1 F1800 X110.533 Y106.290 E25.47708
G0 F9000 X110.533 Y105.725
G1 F1800 X114.053 Y109.245 E25.72543
G0 F9000 X114.053 Y108.679
G1 F1800 X110.533 Y105.159 E25.97379
G0 F9000 X110.533 Y104.593
G1 F1800 X114.053 Y108.113 E26.22214
G0 F9000 X114.053 Y107.548
G1 F1800 X110.533 Y104.028 E26.47050
G0 F9000 X110.655 Y103.584
G1 F1800 X114.053 Y106.982 E26.71025
G0 F9000 X114.053 Y106.416
G1 F1800 X111.220 Y103.584 E26.91009
G0 F9000 X111.786 Y103.584
G1 F1800 X114.053 Y105.851 E27.07004
G0 F9000 X114.053 Y105.285
G1 F1800 X112.352 Y103.584 E27.19006
G0 F9000 X112.917 Y103.584
G1 F1800 X114.053 Y104.719 E27.27017
G0 F9000 X114.053 Y104.154
G1 F1800 X113.483 Y103.584 E27.31039
;LAYER:1
M106 S63
G1 F2400 E23.31039
G0 F9000 X104.349 Y103.850 Z0.500
;TYPE:WALL-INNER
G1 F2400 E27.31039
G1 F2220 X104.349 Y116.150 E27.71949
G1 X103.549 Y116.150 E27.74610
G1 X103.549 Y116.001 E27.75105
G1 X102.549 Y115.002 E27.79807
G1 X102.549 Y114.498 E27.81483
G1 X103.549 Y113.499 E27.86184
G1 X103.549 Y104.650 E28.15616
G1 X96.450 Y104.650 E28.39228
G1 X96.450 Y113.499 E28.68659
G1 X97.450 Y114.498 E28.73361
G1 X97.450 Y115.002 E28.75037
G1 X96.450 Y116.001 E28.79738
G1 X96.450 Y116.150 E28.80234
G1 X95.650 Y116.150 E28.82895
G1 X95.650 Y103.850 E29.23805
G1 X104.349 Y103.850 E29.52738
G0 F9000 X103.449 Y105.050
G0 X103.149 Y105.050
;TYPE:WALL-OUTER
G1 F1980 X96.850 Y105.050 E29.73688
G1 X96.850 Y113.333 E30.01238
G1 X97.850 Y114.332 E30.05939
G1 X97.850 Y115.168 E30.08720
G1 X96.850 Y116.167 E30.13421
G1 X96.850 Y116.550 E30.14695
G1 X95.250 Y116.550 E30.20016
G1 X95.250 Y103.450 E30.63587
G1 X104.749 Y103.450 E30.95181
G1 X104.749 Y116.550 E31.38752
G1 X103.149 Y116.550 E31.44073
G1 X103.149 Y116.167 E31.45347
G1 X102.149 Y115.168 E31.50049
G1 X102.149 Y114.332 E31.52829
G1 X103.149 Y113.333 E31.57531
G1 X103.149 Y105.050 E31.85080
G0 F9000 X103.379 Y104.509
;TYPE:SKIN
G1 F1980 X104.053 Y104.118 E31.87523
G1 X103.947 Y104.789 E31.89957
G1 X103.947 Y105.355 E31.92395
G1 X103.947 Y105.920 E31.94828
G1 X103.947 Y106.486 E31.97266
G1 X103.947 Y107.052 E31.99704
G1 X103.947 Y107.617 E32.02138
G1 X103.947 Y108.183 E32.04576
G1 X103.947 Y108.749 E32.07014
G1 X103.947 Y109.314 E32.09447
G1 X103.947 Y109.880 E32.11885
G1 X103.948 Y110.446 E32.14323
G1 X103.948 Y111.011 E32.16761
G1 X103.948 Y111.577 E32.19204
G1 X103.948 Y112.143 E32.21646
G1 X103.948 Y112.708 E32.24084
G1 X103.688 Y113.251 E32.26087
G0 F9000 X104.208 Y113.297
G1 F1980 X102.688 Y114.817 E32.33236
G0 F9000 X102.908 Y115.163
G1 F1980 X104.208 Y113.863 E32.39351
G0 F9000 X104.208 Y114.428
G1 F1980 X103.191 Y115.445 E32.44135
G0 F9000 X103.474 Y115.728
G1 F1980 X104.208 Y114.994 E32.47587
G0 F9000 X104.208 Y115.560
G1 F1980 X103.759 Y116.009 E32.49699
G0 F9000 X103.490 Y104.709
G0 X102.814 Y104.509
G1 F1980 X103.051 Y103.989 E32.52142
G1 X102.225 Y104.249 E32.54583
G1 X101.659 Y104.249 E32.57030
G1 X101.093 Y104.249 E32.59477
G1 X100.528 Y104.249 E32.61920
G1 X99.962 Y104.249 E32.64368
G1 X99.396 Y104.249 E32.66815
G1 X98.831 Y104.249 E32.69258
G1 X98.265 Y104.249 E32.71700
G1 X97.699 Y104.249 E32.74148
G1 X97.134 Y104.249 E32.76591
G1 X96.450 Y104.650 E32.79037
G1 X96.050 Y105.333 E32.81478
G1 X96.050 Y105.899 E32.83921
G1 X96.050 Y106.465 E32.86363
G1 X96.050 Y107.030 E32.88802
G1 X96.050 Y107.596 E32.91244
G1 X96.050 Y108.162 E32.93687
G1 X96.050 Y108.727 E32.96125
G1 X96.050 Y109.293 E32.98568
G1 X96.050 Y109.859 E33.01010
G1 X96.050 Y110.424 E33.03448
G1 X96.050 Y110.990 E33.05891
G1 X96.050 Y111.556 E33.08334
G1 X96.050 Y112.122 E33.10776
G1 X96.050 Y112.687 E33.13214
G1 X96.050 Y113.253 E33.15657
G1 X95.790 Y113.796 E33.17659
G0 F9000 X95.790 Y114.361
G1 F1980 X96.452 Y113.699 E33.20773
G0 F9000 X96.735 Y113.982
G1 F1980 X95.790 Y114.927 E33.25218
G0 F9000 X95.790 Y115.493
G1 F1980 X97.019 Y114.264 E33.30999
G0 F9000 X97.302 Y114.547
G1 F1980 X95.839 Y116.009 E33.37878
G0 F9000 X95.790 Y104.745
G1 F1980 X96.546 Y103.989 E33.41434
G0 F9000 X95.980 Y103.989
G1 F1980 X95.790 Y104.179 E33.42328
G1 F2400 E29.42328
G0 F9000 X110.394 Y103.444
;TYPE:WALL-INNER
G1 F2400 E33.42328
G1 F2220 X114.194 Y103.444 E33.54967
G1 X114.194 Y115.744 E33.95877
G1 X110.394 Y115.744 E34.08516
G1 X110.394 Y103.444 E34.49426
G0 F9000 X109.994 Y103.044
;TYPE:WALL-OUTER
G1 F1980 X114.594 Y103.044 E34.64725
G1 X114.594 Y116.144 E35.08296
G1 X109.994 Y116.144 E35.23596
G1 X109.994 Y103.044 E35.67166
G0 F9000 X111.093 Y103.584
;TYPE:SKIN
G1 F1980 X110.533 Y104.144 E35.69800
G0 F9000 X110.533 Y104.709
G1 F1980 X111.659 Y103.584 E35.75095
G0 F9000 X112.224 Y103.584
G1 F1980 X110.533 Y105.275 E35.83048
G0 F9000 X110.533 Y105.841
G1 F1980 X112.790 Y103.584 E35.93665
G0 F9000 X113.356 Y103.584
G1 F1980 X110.533 Y106.406 E36.06941
G0 F9000 X110.533 Y106.972
G1 F1980 X113.921 Y103.584 E36.22877
G0 F9000 X114.053 Y104.018
G1 F1980 X110.533 Y107.538 E36.39434
G0 F9000 X110.533 Y108.103
G1 F1980 X114.053 Y104.583 E36.55991
G0 F9000 X114.053 Y105.149
G1 F1980 X110.533 Y108.669 E36.72548
G0 F9000 X110.533 Y109.235
G1 F1980 X114.053 Y105.715 E36.89105
G0 F9000 X114.053 Y106.280
G1 F1980 X110.533 Y109.800 E37.05662
G0 F9000 X110.533 Y110.366
G1 F1980 X114.053 Y106.846 E37.22219
G0 F9000 X114.053 Y107.412
G1 F1980 X110.533 Y110.932 E37.38776
G0 F9000 X110.533 Y111.498
G1 F1980 X114.053 Y107.978 E37.55333
G0 F9000 X114.053 Y108.543
G1 F1980 X110.533 Y112.063 E37.71890
G0 F9000 X110.533 Y112.629
G1 F1980 X114.053 Y109.109 E37.88447
G0 F9000 X114.053 Y109.675
G1 F1980 X110.533 Y113.195 E38.05004
G0 F9000 X110.533 Y113.760
G1 F1980 X114.053 Y110.240 E38.21561
G0 F9000 X114.053 Y110.806
G1 F1980 X110.533 Y114.326 E38.38118
G0 F9000 X110.533 Y114.892
G1 F1980 X114.053 Y111.372 E38.54675
G0 F9000 X114.053 Y111.937
G1 F1980 X110.533 Y115.457 E38.71232
G0 F9000 X110.953 Y115.603
G1 F1980 X114.053 Y112.503 E38.85813
G0 F9000 X114.053 Y113.069
G1 F1980 X111.519 Y115.603 E38.97733
G0 F9000 X112.084 Y115.603
G1 F1980 X114.053 Y113.634 E39.06994
G0 F9000 X114.053 Y114.200
G1 F1980 X112.650 Y115.603 E39.13593
G0 F9000 X113.216 Y115.603
G1 F1980 X114.053 Y114.766 E39.17530
G0 F9000 X114.053 Y115.331
G1 F1980 X113.781 Y115.603 E39.18810
;LAYER:2
M106 S130
G1 F2400 E35.18810
G0 F9000 X104.349 Y116.150 Z0.700
;TYPE:WALL-INNER
G1 F2400 E39.18810
G1 F2640 X103.549 Y116.150 E39.21471
G1 X103.549 Y116.001 E39.21966
G1 X102.549 Y115.002 E39.26668
G1 X102.549 Y114.498 E39.28344
G1 X103.549 Y113.499 E39.33045
G1 X103.549 Y104.650 E39.62477
G1 X96.450 Y104.650 E39.86088
G1 X96.450 Y113.499 E40.15520
G1 X97.450 Y114.498 E40.20222
G1 X97.450 Y115.002 E40.21898
G1 X96.450 Y116.001 E40.26599
G1 X96.450 Y116.150 E40.27095
G1 X95.650 Y116.150 E40.29756
G1 X95.650 Y103.850 E40.70666
G1 X104.349 Y103.850 E40.99599
G1 X104.349 Y116.150 E41.40509
G0 F9000 X103.149 Y116.167
;TYPE:WALL-OUTER
G1 F2160 X102.149 Y115.168 E41.45210
G1 X102.149 Y114.332 E41.47991
G1 X103.149 Y113.333 E41.52692
G1 X103.149 Y105.050 E41.80241
G1 X96.850 Y105.050 E42.01192
G1 X96.850 Y113.333 E42.28741
G1 X97.850 Y114.332 E42.33443
G1 X97.850 Y115.168 E42.36223
G1 X96.850 Y116.167 E42.40924
G1 X96.850 Y116.550 E42.42198
G1 X95.250 Y116.550 E42.47520
G1 X95.250 Y103.450 E42.91091
G1 X104.749 Y103.450 E43.22685
G1 X104.749 Y116.550 E43.66255
G1 X103.149 Y116.550 E43.71577
G1 X103.149 Y116.167 E43.72851
G0 F9000 X103.847 Y116.009
;TYPE:SKIN
G1 F2160 X102.688 Y114.851 E43.78300
G0 F9000 X102.823 Y114.420
G1 F2160 X104.209 Y115.805 E43.84817
G0 F9000 X104.209 Y115.240
G1 F2160 X103.106 Y114.137 E43.90005
G0 F9000 X103.390 Y113.855
G1 F2160 X104.209 Y114.674 E43.93857
G0 F9000 X104.209 Y114.108
G1 F2160 X103.941 Y113.557 E43.96379
G1 X103.948 Y112.999 E43.98825
G1 X103.948 Y112.433 E44.01272
G1 X103.948 Y111.868 E44.03720
G1 X103.948 Y111.302 E44.06167
G1 X103.948 Y110.736 E44.08614
G1 X103.948 Y110.171 E44.11062
G1 X103.948 Y109.605 E44.13509
G1 X103.948 Y109.039 E44.15952
G1 X103.948 Y108.474 E44.18390
G1 X103.948 Y107.908 E44.20833
G1 X103.948 Y107.342 E44.23275
G1 X103.948 Y106.776 E44.25718
G1 X103.948 Y106.211 E44.28161
G1 X103.948 Y105.645 E44.30603
G1 X103.948 Y105.079 E44.33046
G1 X103.674 Y104.522 E44.35487
G1 X103.117 Y104.248 E44.37923
G1 X102.552 Y104.248 E44.40357
G1 X101.986 Y104.248 E44.42795
G1 X101.420 Y104.248 E44.45233
G1 X100.855 Y104.248 E44.47666
G1 X100.289 Y104.248 E44.50104
G1 X99.723 Y104.248 E44.52542
G1 X99.157 Y104.248 E44.54980
G1 X98.592 Y104.248 E44.57414
G1 X98.026 Y104.248 E44.59851
G1 X97.460 Y104.248 E44.62289
G1 X96.895 Y104.248 E44.64723
G1 X96.331 Y104.250 E44.67157
G1 X95.789 Y104.274 E44.69606
G1 X96.049 Y105.100 E44.72054
G1 X96.049 Y105.666 E44.74502
G1 X96.049 Y106.231 E44.76949
G1 X96.049 Y106.797 E44.79397
G1 X96.049 Y107.363 E44.81844
G1 X96.049 Y107.928 E44.84292
G1 X96.049 Y108.494 E44.86739
G1 X96.049 Y109.060 E44.89186
G1 X96.049 Y109.625 E44.91634
G1 X96.049 Y110.191 E44.94081
G1 X96.049 Y110.757 E44.96528
G1 X96.049 Y111.322 E44.98976
G1 X96.049 Y111.888 E45.01423
G1 X96.049 Y112.454 E45.03871
G1 X96.310 Y112.997 E45.05874
G0 F9000 X95.789 Y113.043
G1 F2160 X97.309 Y114.563 E45.13024
G0 F9000 X97.216 Y115.035
G1 F2160 X95.789 Y113.608 E45.19736
G0 F9000 X95.789 Y114.174
G1 F2160 X96.933 Y115.318 E45.25117
G0 F9000 X96.650 Y115.600
G1 F2160 X95.789 Y114.740 E45.29165
G0 F9000 X95.789 Y115.305
G1 F2160 X96.367 Y115.883 E45.31884
G0 F9000 X95.927 Y116.009
G1 F2160 X95.789 Y115.871 E45.32533
G0 F9000 X96.509 Y104.709
G0 X103.490 Y104.709
G0 X104.208 Y104.491
G1 F2160 X103.707 Y103.989 E45.34892
G1 F2400 E41.34892
G0 F9000 X110.394 Y103.444
;TYPE:WALL-INNER
G1 F2400 E45.34892
G1 F2640 X114.194 Y103.444 E45.47530
G1 X114.194 Y115.744 E45.88440
G1 X110.394 Y115.744 E46.01079
G1 X110.394 Y103.444 E46.41989
G0 F9000 X109.994 Y103.044
;TYPE:WALL-OUTER
G1 F2160 X114.594 Y103.044 E46.57289
G1 X114.594 Y116.144 E47.00860
G1 X109.994 Y116.144 E47.16159
G1 X109.994 Y103.044 E47.59730
G0 F9000 X110.655 Y103.584
;TYPE:SKIN
G1 F2160 X114.053 Y106.982 E47.75713
G0 F9000 X114.053 Y107.548
G1 F2160 X110.533 Y104.028 E47.92270
G0 F9000 X110.533 Y104.593
G1 F2160 X114.053 Y108.113 E48.08827
G0 F9000 X114.053 Y108.679
G1 F2160 X110.533 Y105.159 E48.25384
G0 F9000 X110.533 Y105.725
G1 F2160 X114.053 Y109.245 E48.41941
G0 F9000 X114.053 Y109.810
G1 F2160 X110.533 Y106.290 E48.58498
G0 F9000 X110.533 Y106.856
G1 F2160 X114.053 Y110.376 E48.75055
G0 F9000 X114.053 Y110.942
