;Generated with Cura_SteamEngine 15.01
; Default start code
G28 ; Home extruder
G1 Z15 F100
M107 ; Turn off fan
G90 ; Absolute positioning
M82 ; Extruder in absolute mode
M190 S50
; Activate all used extruder
M104 T0 S210
G92 E0 ; Reset extruder position
; Wait for all used extruders to reach temperature
M109 T0 S210
;Layer count: 40
;LAYER:0
M107
G0 F9000 X51.343 Y96.291 Z0.300
;TYPE:SKIRT
G1 F1800 X127.310 Y89.613 E4.75578
G1 X127.847 Y95.746 E5.13971
G1 X128.158 Y99.076 E5.34829
G1 X99.152 Y101.614 E7.16409
G1 X116.268 Y101.614 E8.23149
G1 X116.808 Y101.660 E8.26529
G1 X117.444 Y101.810 E8.30604
G1 X118.094 Y102.083 E8.35001
G1 X118.670 Y102.444 E8.39240
G1 X119.161 Y102.874 E8.43310
G1 X119.571 Y103.354 E8.47247
G1 X119.726 Y103.605 E8.49087
G1 X124.961 Y103.614 E8.81734
G1 X128.380 Y103.614 E9.03056
G1 X128.380 Y112.114 E9.56064
G1 X123.497 Y112.114 E9.86516
G1 X122.520 Y111.718 E9.93090
G1 X122.172 Y111.597 E9.95388
G1 X121.862 Y111.506 E9.97402
G1 X121.526 Y111.427 E9.99555
G1 X121.163 Y111.361 E10.01856
G1 X120.836 Y111.318 E10.03913
G1 X120.493 Y111.291 E10.06058
G1 X120.111 Y111.281 E10.08441
G1 X119.799 Y111.289 E10.10388
G1 X119.440 Y111.316 E10.12633
G1 X119.103 Y111.359 E10.14752
G1 X118.753 Y111.422 E10.16969
G1 X118.435 Y111.497 E10.19007
G1 X118.092 Y111.596 E10.21233
G1 X117.751 Y111.714 E10.23483
G1 X116.762 Y112.114 E10.30137
G1 X112.380 Y112.114 E10.57464
G1 X112.380 Y113.966 E10.69013
G1 X105.697 Y110.848 E11.15003
G1 X105.219 Y110.638 E11.18259
G1 X104.841 Y110.493 E11.20784
G1 X104.488 Y110.377 E11.23101
G1 X104.119 Y110.277 E11.25485
G1 X103.778 Y110.204 E11.27660
G1 X103.456 Y110.155 E11.29691
G1 X103.145 Y110.126 E11.31639
G1 X102.807 Y110.115 E11.33748
G1 X52.557 Y110.114 E14.47121
G1 X51.648 Y99.718 E15.12201
G1 X51.649 Y99.718 E15.12207
G1 X51.343 Y96.291 E15.33664
G1 F2400 E11.33664
G0 F9000 X55.682 Y99.925
;TYPE:WALL-INNER
G1 F2400 E15.33664
G1 F1800 X123.674 Y93.948 E19.59316
G1 X123.805 Y95.441 E19.68662
G1 X58.057 Y101.194 E23.80252
G1 X58.376 Y104.856 E24.03175
G1 X58.447 Y105.614 E24.07923
G1 X116.101 Y105.614 E27.67469
G1 X116.202 Y105.627 E27.68104
G1 X116.271 Y105.661 E27.68584
G1 X116.330 Y105.717 E27.69091
G1 X116.374 Y105.824 E27.69813
G1 X116.400 Y106.144 E27.71815
G1 X116.473 Y106.442 E27.73728
G1 X116.700 Y106.881 E27.76811
G1 X116.898 Y107.110 E27.78698
G1 X117.095 Y107.278 E27.80313
G1 X117.333 Y107.425 E27.82058
G1 X117.708 Y107.558 E27.84539
G1 X116.879 Y107.783 E27.89896
G1 X116.357 Y107.963 E27.93339
G1 X115.985 Y108.114 E27.95843
G1 X115.880 Y108.114 E27.96498
G1 X115.880 Y106.114 E28.08970
G1 X108.380 Y106.114 E28.55742
G1 X108.380 Y107.686 E28.65546
G1 X107.350 Y107.206 E28.72632
G1 X106.745 Y106.939 E28.76756
G1 X106.181 Y106.723 E28.80523
G1 X105.620 Y106.539 E28.84205
G1 X105.060 Y106.387 E28.87823
G1 X104.504 Y106.269 E28.91368
G1 X103.949 Y106.183 E28.94870
G1 X103.397 Y106.132 E28.98328
G1 X102.860 Y106.115 E29.01678
G1 X56.222 Y106.114 E31.92526
G1 X55.682 Y99.925 E32.31268
G0 F9000 X58.540 Y105.511
G0 X116.451 Y106.135
G0 X117.357 Y107.379
G0 X122.767 Y107.610
G1 F1800 X124.380 Y107.613 E32.41328
G1 X124.380 Y108.114 E32.44452
G1 X124.276 Y108.114 E32.45101
G1 X123.921 Y107.970 E32.47490
G1 X123.410 Y107.792 E32.50864
G1 X122.879 Y107.637 E32.54314
G1 X122.767 Y107.610 E32.55032
G0 F9000 X122.751 Y108.120
;TYPE:WALL-OUTER
G1 F1800 X122.237 Y107.998 E32.58327
G1 X121.719 Y107.904 E32.61610
G1 X121.196 Y107.835 E32.64900
G1 X120.670 Y107.794 E32.68190
G1 X120.150 Y107.780 E32.71434
G1 X120.136 Y107.779 E32.71522
G1 X119.616 Y107.792 E32.74765
G1 X119.091 Y107.832 E32.78049
G1 X118.568 Y107.899 E32.81337
G1 X118.049 Y107.992 E32.84625
G1 X117.536 Y108.113 E32.87912
G1 X117.030 Y108.260 E32.91198
G1 X116.532 Y108.432 E32.94484
G1 X116.081 Y108.614 E32.97517
G1 X115.380 Y108.614 E33.01889
G1 X115.380 Y106.614 E33.14361
G1 X108.880 Y106.614 E33.54897
G1 X108.880 Y108.471 E33.66478
G1 X107.143 Y107.661 E33.78430
G1 X106.554 Y107.402 E33.82443
G1 X106.014 Y107.194 E33.86051
G1 X105.477 Y107.018 E33.89576
G1 X104.943 Y106.873 E33.93026
G1 X104.414 Y106.761 E33.96398
G1 X103.888 Y106.680 E33.99717
G1 X103.366 Y106.631 E34.02987
G1 X102.852 Y106.615 E34.06194
G1 X55.764 Y106.614 E36.99848
G1 X55.140 Y99.471 E37.44563
G1 X124.129 Y93.406 E41.76457
G1 X124.347 Y95.896 E41.92045
G1 X58.598 Y101.649 E46.03640
G1 X58.874 Y104.811 E46.23434
G1 X58.902 Y105.114 E46.25332
G1 X116.121 Y105.114 E49.82165
G1 X116.356 Y105.149 E49.83647
G1 X116.472 Y105.198 E49.84432
G1 X116.668 Y105.343 E49.85953
G1 X116.734 Y105.421 E49.86590
G1 X116.797 Y105.523 E49.87338
G1 X116.843 Y105.636 E49.88098
G1 X116.870 Y105.749 E49.88823
G1 X116.895 Y106.065 E49.90800
G1 X116.944 Y106.265 E49.92084
G1 X117.117 Y106.598 E49.94424
G1 X117.251 Y106.754 E49.95707
G1 X117.390 Y106.873 E49.96848
G1 X117.560 Y106.977 E49.98091
G1 X117.755 Y107.056 E49.99403
G1 X117.947 Y107.102 E50.00634
G1 X124.880 Y107.114 E50.43870
G1 X124.880 Y108.614 E50.53224
G1 X124.180 Y108.614 E50.57590
G1 X123.257 Y108.269 E50.63735
G1 X122.751 Y108.120 E50.67024
G1 F2400 E46.67024
G0 F9000 X116.851 Y107.608
;TYPE:FILL
G1 F2400 E50.67024
G1 F1800 X116.053 Y106.810 E50.74062
G0 F9000 X116.053 Y106.507
;TYPE:SKIN
G1 F1800 X116.776 Y107.230 E50.80031
G1 X116.799 Y107.606 E50.82023
G1 X116.053 Y107.215 E50.87275
G0 F9000 X116.208 Y105.955
G1 F1800 X116.087 Y105.834 E50.88343
G0 F9000 X108.489 Y106.223
G0 X108.204 Y106.436
G1 F1800 X107.556 Y105.788 E50.94058
G0 F9000 X106.849 Y105.788
G1 F1800 X108.204 Y107.143 E51.06008
G0 F9000 X107.382 Y107.029
G1 F1800 X106.142 Y105.788 E51.16948
G0 F9000 X105.435 Y105.788
G1 F1800 X106.184 Y106.538 E51.23559
G0 F9000 X105.174 Y106.235
G1 F1800 X104.509 Y105.923 E51.27489
G1 X103.755 Y105.876 E51.29863
G1 X103.034 Y105.863 E51.31401
G1 X102.327 Y105.863 E51.32715
G1 X101.620 Y105.863 E51.34029
G1 X100.913 Y105.863 E51.35343
G1 X100.206 Y105.863 E51.36657
G1 X99.499 Y105.863 E51.37971
G1 X98.792 Y105.863 E51.39285
G1 X98.085 Y105.863 E51.40599
G1 X97.378 Y105.863 E51.41913
G1 X96.670 Y105.863 E51.43228
G1 X95.963 Y105.863 E51.44542
G1 X95.256 Y105.863 E51.45856
G1 X94.549 Y105.863 E51.47170
G1 X93.842 Y105.863 E51.48484
G1 X93.135 Y105.863 E51.49798
G1 X92.428 Y105.863 E51.51112
G1 X91.721 Y105.863 E51.52426
G1 X91.014 Y105.863 E51.53739
G1 X90.307 Y105.863 E51.55053
G1 X89.599 Y105.863 E51.56369
G1 X88.892 Y105.863 E51.57683
G1 X88.185 Y105.863 E51.58997
G1 X87.478 Y105.863 E51.60311
G1 X86.771 Y105.863 E51.61625
G1 X86.064 Y105.863 E51.62939
G1 X85.357 Y105.863 E51.64253
G1 X84.650 Y105.863 E51.65566
G1 X83.943 Y105.863 E51.66880
G1 X83.235 Y105.863 E51.68196
G1 X82.528 Y105.863 E51.69510
G1 X81.821 Y105.863 E51.70824
G1 X81.114 Y105.863 E51.72138
G1 X80.407 Y105.863 E51.73452
G1 X79.700 Y105.863 E51.74766
G1 X78.993 Y105.863 E51.76079
G1 X78.286 Y105.863 E51.77393
G1 X77.579 Y105.863 E51.78707
G1 X76.872 Y105.863 E51.80021
G1 X76.164 Y105.863 E51.81337
G1 X75.457 Y105.863 E51.82651
G1 X74.750 Y105.863 E51.83965
G1 X74.043 Y105.863 E51.85279
G1 X73.336 Y105.863 E51.86592
G1 X72.629 Y105.863 E51.87906
G1 X71.922 Y105.863 E51.89220
G1 X71.215 Y105.863 E51.90534
G1 X70.508 Y105.863 E51.91848
G1 X69.800 Y105.863 E51.93164
G1 X69.093 Y105.863 E51.94478
G1 X68.386 Y105.863 E51.95792
G1 X67.679 Y105.863 E51.97105
G1 X66.972 Y105.863 E51.98419
G1 X66.265 Y105.863 E51.99733
G1 X65.558 Y105.863 E52.01047
G1 X64.851 Y105.863 E52.02361
G1 X64.144 Y105.863 E52.03675
G1 X63.436 Y105.863 E52.04991
G1 X62.729 Y105.863 E52.06305
G1 X62.022 Y105.863 E52.07618
G1 X61.315 Y105.863 E52.08932
G1 X60.608 Y105.863 E52.10246
G1 X60.180 Y105.788 E52.12956
G0 F9000 X58.540 Y105.511
G0 X58.174 Y101.293
G0 X60.173 Y100.832
G1 F1800 X59.138 Y99.796 E52.22089
G0 F9000 X59.787 Y99.739
G1 F1800 X60.823 Y100.775 E52.31226
G0 F9000 X61.473 Y100.718
G1 F1800 X60.437 Y99.682 E52.40362
G0 F9000 X61.087 Y99.624
G1 F1800 X62.124 Y100.661 E52.49508
G0 F9000 X62.774 Y100.604
G1 F1800 X61.737 Y99.567 E52.58654
G0 F9000 X62.388 Y99.511
G1 F1800 X63.424 Y100.547 E52.67791
G0 F9000 X64.074 Y100.490
G1 F1800 X63.037 Y99.453 E52.76937
G0 F9000 X63.687 Y99.396
G1 F1800 X64.725 Y100.433 E52.86087
G0 F9000 X65.375 Y100.377
G1 F1800 X64.337 Y99.339 E52.95241
G0 F9000 X64.987 Y99.282
G1 F1800 X66.025 Y100.320 E53.04396
G0 F9000 X66.675 Y100.263
G1 F1800 X65.637 Y99.225 E53.13550
G0 F9000 X66.287 Y99.168
G1 F1800 X67.325 Y100.206 E53.22705
G0 F9000 X67.976 Y100.149
G1 F1800 X66.937 Y99.110 E53.31868
G0 F9000 X67.587 Y99.053
G1 F1800 X68.626 Y100.092 E53.41032
G0 F9000 X69.276 Y100.035
G1 F1800 X68.237 Y98.996 E53.50195
G0 F9000 X68.887 Y98.939
G1 F1800 X69.926 Y99.978 E53.59359
G0 F9000 X70.577 Y99.921
G1 F1800 X69.537 Y98.882 E53.68526
G0 F9000 X70.187 Y98.825
G1 F1800 X71.226 Y99.864 E53.77690
G0 F9000 X71.877 Y99.808
G1 F1800 X70.837 Y98.767 E53.86866
G0 F9000 X71.487 Y98.711
G1 F1800 X72.527 Y99.751 E53.96039
G0 F9000 X73.177 Y99.694
G1 F1800 X72.137 Y98.654 E54.05211
G0 F9000 X72.787 Y98.596
G1 F1800 X73.828 Y99.637 E54.14392
G0 F9000 X74.478 Y99.580
G1 F1800 X73.437 Y98.539 E54.23573
G0 F9000 X74.087 Y98.482
G1 F1800 X75.128 Y99.523 E54.32754
G0 F9000 X75.778 Y99.466
G1 F1800 X74.737 Y98.425 E54.41935
G0 F9000 X75.387 Y98.368
G1 F1800 X76.429 Y99.410 E54.51125
G0 F9000 X77.078 Y99.352
G1 F1800 X76.037 Y98.311 E54.60306
G0 F9000 X76.687 Y98.253
G1 F1800 X77.729 Y99.296 E54.69500
G0 F9000 X78.379 Y99.239
G1 F1800 X77.336 Y98.196 E54.78699
G0 F9000 X77.987 Y98.140
G1 F1800 X79.029 Y99.182 E54.87888
G0 F9000 X79.680 Y99.125
G1 F1800 X78.637 Y98.082 E54.97087
G0 F9000 X79.287 Y98.025
G1 F1800 X80.330 Y99.068 E55.06286
G0 F9000 X80.980 Y99.011
G1 F1800 X79.937 Y97.968 E55.15484
G0 F9000 X80.586 Y97.910
G1 F1800 X81.630 Y98.954 E55.24692
G0 F9000 X82.281 Y98.898
G1 F1800 X81.237 Y97.854 E55.33899
G0 F9000 X81.887 Y97.797
G1 F1800 X82.930 Y98.840 E55.43098
G0 F9000 X83.581 Y98.784
G1 F1800 X82.537 Y97.739 E55.52310
G0 F9000 X83.186 Y97.682
G1 F1800 X84.231 Y98.726 E55.61522
G0 F9000 X84.881 Y98.670
G1 F1800 X83.836 Y97.625 E55.70738
G0 F9000 X84.487 Y97.568
G1 F1800 X85.532 Y98.613 E55.79954
G0 F9000 X86.182 Y98.556
G1 F1800 X85.137 Y97.511 E55.89171
G0 F9000 X85.786 Y97.454
G1 F1800 X86.832 Y98.499 E55.98391
G0 F9000 X87.482 Y98.442
G1 F1800 X86.436 Y97.396 E56.07617
G0 F9000 X87.086 Y97.339
G1 F1800 X88.133 Y98.386 E56.16850
G0 F9000 X88.782 Y98.328
G1 F1800 X87.737 Y97.283 E56.26067
G0 F9000 X88.386 Y97.225
G1 F1800 X89.433 Y98.272 E56.35301
G0 F9000 X90.083 Y98.215
G1 F1800 X89.036 Y97.168 E56.44535
G0 F9000 X89.686 Y97.111
G1 F1800 X90.733 Y98.158 E56.53769
G0 F9000 X91.383 Y98.101
G1 F1800 X90.337 Y97.054 E56.62998
G0 F9000 X90.986 Y96.997
G1 F1800 X92.034 Y98.044 E56.72236
G0 F9000 X92.684 Y97.988
G1 F1800 X91.636 Y96.940 E56.81479
G0 F9000 X92.286 Y96.882
G1 F1800 X93.334 Y97.930 E56.90722
G0 F9000 X93.985 Y97.874
G1 F1800 X92.936 Y96.825 E56.99974
G0 F9000 X93.586 Y96.768
G1 F1800 X94.634 Y97.816 E57.09216
G0 F9000 X95.285 Y97.760
G1 F1800 X94.236 Y96.711 E57.18468
G0 F9000 X94.886 Y96.654
G1 F1800 X95.935 Y97.703 E57.27719
G0 F9000 X96.585 Y97.646
G1 F1800 X95.536 Y96.597 E57.36971
G0 F9000 X96.186 Y96.539
G1 F1800 X97.235 Y97.589 E57.46227
G0 F9000 X97.886 Y97.532
G1 F1800 X96.836 Y96.483 E57.55483
G0 F9000 X97.486 Y96.426
G1 F1800 X98.536 Y97.475 E57.64739
G0 F9000 X99.186 Y97.418
G1 F1800 X98.136 Y96.368 E57.73999
G0 F9000 X98.786 Y96.311
G1 F1800 X99.837 Y97.362 E57.83269
G0 F9000 X100.486 Y97.304
G1 F1800 X99.436 Y96.254 E57.92529
G0 F9000 X100.086 Y96.197
G1 F1800 X101.137 Y97.248 E58.01798
G0 F9000 X101.787 Y97.191
G1 F1800 X100.736 Y96.140 E58.11067
G0 F9000 X101.386 Y96.083
G1 F1800 X102.437 Y97.134 E58.20337
G0 F9000 X103.087 Y97.077
G1 F1800 X102.036 Y96.025 E58.29610
G0 F9000 X102.686 Y95.968
G1 F1800 X103.738 Y97.020 E58.38888
G0 F9000 X104.388 Y96.963
G1 F1800 X103.336 Y95.911 E58.48166
G0 F9000 X103.986 Y95.854
G1 F1800 X105.038 Y96.906 E58.57444
G0 F9000 X105.688 Y96.849
G1 F1800 X104.636 Y95.797 E58.66722
G0 F9000 X105.286 Y95.740
G1 F1800 X106.338 Y96.793 E58.76005
G0 F9000 X106.989 Y96.736
G1 F1800 X105.935 Y95.682 E58.85301
G0 F9000 X106.586 Y95.626
G1 F1800 X107.639 Y96.679 E58.94587
G0 F9000 X108.289 Y96.622
G1 F1800 X107.236 Y95.569 E59.03874
G0 F9000 X107.886 Y95.511
G1 F1800 X108.939 Y96.565 E59.13166
G0 F9000 X109.590 Y96.508
G1 F1800 X108.535 Y95.454 E59.22466
G0 F9000 X109.186 Y95.397
G1 F1800 X110.240 Y96.451 E59.31761
G0 F9000 X110.890 Y96.394
G1 F1800 X109.836 Y95.340 E59.41057
G0 F9000 X110.486 Y95.283
G1 F1800 X111.540 Y96.337 E59.50353
G0 F9000 X112.190 Y96.281
G1 F1800 X111.135 Y95.226 E59.59657
G0 F9000 X111.785 Y95.168
G1 F1800 X112.840 Y96.223 E59.68962
G0 F9000 X113.491 Y96.167
G1 F1800 X112.436 Y95.112 E59.78266
G0 F9000 X113.086 Y95.054
G1 F1800 X114.141 Y96.110 E59.87575
G0 F9000 X114.791 Y96.053
G1 F1800 X113.736 Y94.997 E59.96884
G0 F9000 X114.385 Y94.940
G1 F1800 X115.442 Y95.996 E60.06202
G0 F9000 X116.092 Y95.939
G1 F1800 X115.035 Y94.883 E60.15519
G0 F9000 X115.686 Y94.826
G1 F1800 X116.742 Y95.882 E60.24833
G0 F9000 X117.392 Y95.825
G1 F1800 X116.336 Y94.769 E60.34146
G0 F9000 X116.985 Y94.712
G1 F1800 X118.042 Y95.769 E60.43468
G0 F9000 X118.692 Y95.711
G1 F1800 X117.635 Y94.654 E60.52790
G0 F9000 X118.285 Y94.597
G1 F1800 X119.343 Y95.655 E60.62121
G0 F9000 X119.993 Y95.598
G1 F1800 X118.936 Y94.540 E60.71448
G0 F9000 X119.585 Y94.483
G1 F1800 X120.643 Y95.541 E60.80779
G0 F9000 X121.294 Y95.484
G1 F1800 X120.235 Y94.426 E60.90114
G0 F9000 X120.885 Y94.369
G1 F1800 X121.944 Y95.427 E60.99449
G0 F9000 X122.594 Y95.371
G1 F1800 X121.535 Y94.311 E61.08794
G0 F9000 X122.185 Y94.255
G1 F1800 X123.244 Y95.313 E61.18129
G0 F9000 X123.585 Y94.947
G1 F1800 X122.835 Y94.197 E61.24744
G0 F9000 X59.523 Y100.889
G1 F1800 X58.487 Y99.853 E61.33880
G0 F9000 X57.837 Y99.910
G1 F1800 X58.873 Y100.945 E61.43013
G0 F9000 X58.223 Y101.003
G1 F1800 X57.187 Y99.967 E61.52150
G0 F9000 X56.538 Y100.025
G1 F1800 X57.899 Y101.386 E61.64153
G0 F9000 X57.967 Y102.162
G1 F1800 X55.888 Y100.082 E61.82493
G0 F9000 X55.937 Y100.839
G1 F1800 X58.036 Y102.937 E62.01001
G0 F9000 X58.105 Y103.713
G1 F1800 X56.004 Y101.613 E62.19526
G0 F9000 X56.072 Y102.387
G1 F1800 X58.172 Y104.488 E62.38051
G0 F9000 X58.241 Y105.264
G1 F1800 X56.140 Y103.162 E62.56585
G0 F9000 X56.207 Y103.936
G1 F1800 X58.209 Y105.938 E62.74242
G0 F9000 X58.766 Y105.788
G1 F1800 X59.194 Y105.863 E62.75564
G1 X59.623 Y105.938 E62.78280
G0 F9000 X57.501 Y105.938
G1 F1800 X56.274 Y104.711 E62.89101
G0 F9000 X56.342 Y105.486
G1 F1800 X56.794 Y105.938 E62.93088
;LAYER:1
M106 S63
G0 F9000 X58.447 Y105.614 Z0.500
;TYPE:WALL-INNER
G1 F2220 X116.098 Y105.614 E65.32773
G1 X116.169 Y105.620 E65.33069
G1 X116.245 Y105.646 E65.33403
G1 X116.306 Y105.692 E65.33721
G1 X116.351 Y105.752 E65.34032
G1 X116.376 Y105.836 E65.34397
G1 X116.401 Y106.151 E65.35711
G1 X116.469 Y106.423 E65.36876
G1 X116.577 Y106.672 E65.38005
G1 X116.692 Y106.862 E65.38928
G1 X116.747 Y106.936 E65.39311
G1 X116.906 Y107.116 E65.40310
G1 X117.090 Y107.275 E65.41321
G1 X117.333 Y107.425 E65.42508
G1 X117.618 Y107.538 E65.43783
G1 X117.709 Y107.559 E65.44171
G1 X116.865 Y107.787 E65.47806
G1 X116.343 Y107.969 E65.50104
G1 X115.985 Y108.114 E65.51710
G1 X115.880 Y108.114 E65.52146
G1 X115.880 Y106.114 E65.60461
G1 X108.380 Y106.114 E65.91643
G1 X108.380 Y107.686 E65.98178
G1 X107.404 Y107.231 E66.02655
G1 X106.753 Y106.943 E66.05615
G1 X106.189 Y106.725 E66.08129
G1 X105.627 Y106.541 E66.10587
G1 X105.067 Y106.389 E66.13000
G1 X104.511 Y106.270 E66.15364
G1 X103.956 Y106.184 E66.17699
G1 X103.403 Y106.132 E66.20008
G1 X102.866 Y106.115 E66.22242
G1 X56.222 Y106.114 E68.16165
G1 X55.682 Y99.925 E68.41994
G1 X123.674 Y93.948 E71.25762
G1 X123.805 Y95.441 E71.31993
G1 X58.057 Y101.194 E74.06386
G1 X58.369 Y104.781 E74.21355
G1 X58.447 Y105.614 E74.24833
G1 F2400 E70.24833
G0 F9000 X122.773 Y107.611
G1 F2400 E74.24833
G1 F2220 X124.380 Y107.613 E74.31514
G1 X124.380 Y108.114 E74.33597
G1 X124.276 Y108.114 E74.34030
G1 X123.396 Y107.787 E74.37933
