;Generated with Cura_SteamEngine 15.01
; Default start code
G28 ; Home extruder
G1 Z15 F100
M107 ; Turn off fan
G90 ; Absolute positioning
M82 ; Extruder in absolute mode
M190 S50
; Activate all used extruder
M104 T0 S210
G92 E0 ; Reset extruder position
; Wait for all used extruders to reach temperature
M109 T0 S210
;Layer count: 75
;LAYER:0
M107
G0 F9000 X50.801 Y87.820 Z0.300
;TYPE:SKIRT
G1 F1800 X125.687 Y74.616 E4.74214
G1 X126.766 Y80.733 E5.12950
G1 X127.333 Y83.972 E5.33456
G1 X68.376 Y94.368 E9.06801
G1 X116.570 Y94.368 E12.07352
G1 X117.091 Y94.414 E12.10613
G1 X117.731 Y94.561 E12.14709
G1 X118.378 Y94.831 E12.19081
G1 X118.938 Y95.181 E12.23199
G1 X119.441 Y95.609 E12.27318
G1 X119.886 Y96.133 E12.31605
G1 X120.022 Y96.359 E12.33250
G1 X125.337 Y96.368 E12.66396
G1 X128.675 Y96.368 E12.87212
G1 X128.675 Y104.868 E13.40221
G1 X123.797 Y104.868 E13.70641
G1 X122.777 Y104.459 E13.77495
G1 X122.430 Y104.339 E13.79784
G1 X122.075 Y104.240 E13.82083
G1 X121.721 Y104.161 E13.84345
G1 X121.340 Y104.097 E13.86754
G1 X120.987 Y104.058 E13.88969
G1 X120.611 Y104.038 E13.91317
G1 X120.226 Y104.037 E13.93718
G1 X119.883 Y104.055 E13.95860
G1 X119.495 Y104.098 E13.98294
G1 X119.135 Y104.158 E14.00570
G1 X118.790 Y104.235 E14.02775
G1 X118.408 Y104.343 E14.05250
G1 X118.078 Y104.456 E14.07426
G1 X117.665 Y104.622 E14.10202
G1 X117.092 Y104.868 E14.14090
G1 X112.675 Y104.868 E14.41636
G1 X112.675 Y106.718 E14.53173
G1 X105.952 Y103.586 E14.99426
G1 X105.509 Y103.391 E15.02444
G1 X105.141 Y103.249 E15.04904
G1 X104.762 Y103.125 E15.07391
G1 X104.422 Y103.032 E15.09589
G1 X104.078 Y102.959 E15.11782
G1 X103.748 Y102.908 E15.13865
G1 X103.440 Y102.880 E15.15794
G1 X103.102 Y102.869 E15.17903
G1 X53.463 Y102.868 E18.27465
G1 X51.395 Y91.142 E19.01720
G1 X51.396 Y91.142 E19.01726
G1 X50.801 Y87.820 E19.22773
G1 F2400 E15.22773
G0 F9000 X55.443 Y91.064
;TYPE:WALL-INNER
G1 F2400 E19.22773
G1 F1800 X122.442 Y79.250 E23.47043
G1 X122.703 Y80.726 E23.56391
G1 X57.705 Y92.188 E27.67990
G1 X58.675 Y97.686 E28.02807
G1 X58.801 Y98.368 E28.07132
G1 X116.392 Y98.368 E31.66285
G1 X116.466 Y98.375 E31.66749
G1 X116.537 Y98.397 E31.67212
G1 X116.603 Y98.446 E31.67725
G1 X116.645 Y98.504 E31.68172
G1 X116.670 Y98.586 E31.68706
G1 X116.695 Y98.894 E31.70633
G1 X116.758 Y99.161 E31.72344
G1 X116.866 Y99.418 E31.74083
G1 X117.011 Y99.652 E31.75799
G1 X117.190 Y99.861 E31.77515
G1 X117.402 Y100.041 E31.79250
G1 X117.641 Y100.185 E31.80990
G1 X117.893 Y100.286 E31.82683
G1 X118.003 Y100.313 E31.83389
G1 X117.798 Y100.359 E31.84699
G1 X117.229 Y100.519 E31.88386
G1 X116.671 Y100.710 E31.92064
G1 X116.278 Y100.868 E31.94705
G1 X116.175 Y100.868 E31.95347
G1 X116.175 Y98.868 E32.07820
G1 X108.675 Y98.868 E32.54592
G1 X108.675 Y100.441 E32.64402
G1 X107.618 Y99.949 E32.71673
G1 X107.040 Y99.694 E32.75612
G1 X106.477 Y99.477 E32.79375
G1 X105.914 Y99.293 E32.83069
G1 X105.355 Y99.141 E32.86682
G1 X104.798 Y99.023 E32.90232
G1 X104.244 Y98.937 E32.93729
G1 X103.692 Y98.886 E32.97186
G1 X103.155 Y98.869 E33.00536
G1 X56.820 Y98.868 E35.89494
G1 X55.443 Y91.064 E36.38914
G0 F9000 X58.882 Y98.271
G0 X116.746 Y98.886
G0 X117.665 Y100.139
G0 X123.068 Y100.364
G1 F1800 X124.675 Y100.367 E36.48935
G1 X124.675 Y100.868 E36.52060
G1 X124.570 Y100.868 E36.52715
G1 X123.621 Y100.520 E36.59018
G1 X123.068 Y100.364 E36.62601
G0 F9000 X122.931 Y100.845
;TYPE:WALL-OUTER
G1 F1800 X122.382 Y100.723 E36.66109
G1 X121.827 Y100.630 E36.69618
G1 X121.269 Y100.569 E36.73119
G1 X120.707 Y100.538 E36.76629
G1 X120.145 Y100.537 E36.80134
G1 X119.584 Y100.567 E36.83637
G1 X119.024 Y100.628 E36.87150
G1 X118.469 Y100.721 E36.90659
G1 X117.921 Y100.844 E36.94162
G1 X117.378 Y100.996 E36.97678
G1 X116.846 Y101.179 E37.01187
G1 X116.375 Y101.368 E37.04352
G1 X115.675 Y101.368 E37.08717
G1 X115.675 Y99.368 E37.21190
G1 X109.175 Y99.368 E37.61726
G1 X109.175 Y101.225 E37.73306
G1 X107.412 Y100.404 E37.85435
G1 X106.849 Y100.157 E37.89269
G1 X106.309 Y99.948 E37.92880
G1 X105.771 Y99.772 E37.96410
G1 X105.238 Y99.627 E37.99855
G1 X104.708 Y99.515 E38.03233
G1 X104.183 Y99.434 E38.06546
G1 X103.661 Y99.385 E38.09815
G1 X103.147 Y99.369 E38.13022
G1 X56.399 Y99.368 E41.04556
G1 X54.863 Y90.658 E41.59712
G1 X122.848 Y78.670 E45.90226
G1 X123.283 Y81.132 E46.05817
G1 X58.284 Y92.593 E50.17422
G1 X59.167 Y97.597 E50.49111
G1 X59.217 Y97.868 E50.50829
G1 X116.414 Y97.868 E54.07525
G1 X116.540 Y97.879 E54.08314
G1 X116.659 Y97.907 E54.09076
G1 X116.768 Y97.952 E54.09812
G1 X116.866 Y98.013 E54.10532
G1 X116.958 Y98.091 E54.11284
G1 X117.033 Y98.179 E54.12005
G1 X117.093 Y98.280 E54.12738
G1 X117.138 Y98.392 E54.13490
G1 X117.164 Y98.503 E54.14201
G1 X117.190 Y98.815 E54.16154
G1 X117.235 Y99.006 E54.17378
G1 X117.312 Y99.189 E54.18616
G1 X117.416 Y99.356 E54.19843
G1 X117.544 Y99.506 E54.21072
G1 X117.695 Y99.634 E54.22307
G1 X117.864 Y99.736 E54.23538
G1 X118.046 Y99.809 E54.24761
G1 X118.240 Y99.856 E54.26006
G1 X125.175 Y99.868 E54.69254
G1 X125.175 Y101.368 E54.78609
G1 X124.473 Y101.368 E54.82986
G1 X124.004 Y101.180 E54.86137
G1 X123.472 Y100.997 E54.89646
G1 X122.931 Y100.845 E54.93150
G1 F2400 E50.93150
G0 F9000 X117.200 Y100.344
;TYPE:FILL
G1 F2400 E54.93150
G1 F1800 X116.348 Y99.492 E55.00665
G0 F9000 X116.348 Y99.731
;TYPE:SKIN
G1 F1800 X116.760 Y100.497 E55.06599
G1 X116.348 Y100.438 E55.09194
G0 F9000 X118.227 Y100.196
G1 F1800 X118.669 Y100.284 E55.11538
G1 X119.329 Y100.237 E55.13824
G1 X120.006 Y100.208 E55.15565
G1 X120.705 Y100.198 E55.17135
G1 X121.425 Y100.212 E55.18922
G1 X122.176 Y100.255 E55.21446
G1 X122.815 Y100.542 E55.25814
G0 F9000 X120.853 Y100.148
G0 X117.665 Y100.139
G0 X116.626 Y99.302
G1 F1800 X116.348 Y99.024 E55.28266
G0 F9000 X108.499 Y98.953
G1 F1800 X108.089 Y98.543 E55.31882
G0 F9000 X107.381 Y98.543
G1 F1800 X108.499 Y99.660 E55.41738
G0 F9000 X108.122 Y99.991
G1 F1800 X106.674 Y98.543 E55.54508
G0 F9000 X105.967 Y98.543
G1 F1800 X106.863 Y99.439 E55.62411
G0 F9000 X105.796 Y99.079
G1 F1800 X105.064 Y98.700 E55.67130
G1 X104.299 Y98.643 E55.69904
G1 X103.570 Y98.620 E55.71660
G1 X102.860 Y98.618 E55.73024
G1 X102.153 Y98.618 E55.74338
G1 X101.446 Y98.618 E55.75652
G1 X100.739 Y98.618 E55.76965
G1 X100.310 Y98.543 E55.79681
G0 F9000 X58.882 Y98.271
G0 X57.832 Y92.276
G0 X100.392 Y84.482
G1 F1800 X99.400 Y83.490 E55.88430
G0 F9000 X98.799 Y83.596
G1 F1800 X99.791 Y84.588 E55.97179
G0 F9000 X99.189 Y84.693
G1 F1800 X98.198 Y83.702 E56.05919
G0 F9000 X97.596 Y83.808
G1 F1800 X98.588 Y84.799 E56.14664
G0 F9000 X97.987 Y84.905
G1 F1800 X96.995 Y83.914 E56.23408
G0 F9000 X96.394 Y84.020
G1 F1800 X97.386 Y85.011 E56.32153
G0 F9000 X96.785 Y85.117
G1 F1800 X95.793 Y84.126 E56.40897
G0 F9000 X95.192 Y84.231
G1 F1800 X96.184 Y85.224 E56.49650
G0 F9000 X95.583 Y85.330
G1 F1800 X94.591 Y84.338 E56.58399
G0 F9000 X93.990 Y84.444
G1 F1800 X94.982 Y85.436 E56.67148
G0 F9000 X94.381 Y85.542
G1 F1800 X93.389 Y84.550 E56.75897
G0 F9000 X92.787 Y84.656
G1 F1800 X93.780 Y85.648 E56.84650
G0 F9000 X93.178 Y85.753
G1 F1800 X92.186 Y84.762 E56.93395
G0 F9000 X91.585 Y84.868
G1 F1800 X92.577 Y85.859 E57.02139
G0 F9000 X91.976 Y85.965
G1 F1800 X90.984 Y84.974 E57.10884
G0 F9000 X90.383 Y85.080
G1 F1800 X91.375 Y86.071 E57.19628
G0 F9000 X90.774 Y86.177
G1 F1800 X89.782 Y85.186 E57.28372
G0 F9000 X89.181 Y85.291
G1 F1800 X90.173 Y86.283 E57.37121
G0 F9000 X89.572 Y86.390
G1 F1800 X88.579 Y85.397 E57.45879
G0 F9000 X87.978 Y85.504
G1 F1800 X88.971 Y86.496 E57.54632
G0 F9000 X88.369 Y86.602
G1 F1800 X87.377 Y85.610 E57.63381
G0 F9000 X86.776 Y85.716
G1 F1800 X87.768 Y86.708 E57.72130
G0 F9000 X87.167 Y86.813
G1 F1800 X86.175 Y85.822 E57.80874
G0 F9000 X85.574 Y85.928
G1 F1800 X86.566 Y86.919 E57.89619
G0 F9000 X85.965 Y87.025
G1 F1800 X84.973 Y86.034 E57.98363
G0 F9000 X84.372 Y86.140
G1 F1800 X85.364 Y87.131 E58.07108
G0 F9000 X84.763 Y87.237
G1 F1800 X83.771 Y86.246 E58.15852
G0 F9000 X83.170 Y86.352
G1 F1800 X84.161 Y87.343 E58.24592
G0 F9000 X83.560 Y87.450
G1 F1800 X82.568 Y86.457 E58.33346
G0 F9000 X81.967 Y86.564
G1 F1800 X82.959 Y87.556 E58.42095
G0 F9000 X82.358 Y87.662
G1 F1800 X81.366 Y86.670 E58.50843
G0 F9000 X80.765 Y86.776
G1 F1800 X81.757 Y87.768 E58.59592
G0 F9000 X81.156 Y87.874
G1 F1800 X80.164 Y86.882 E58.68341
G0 F9000 X79.563 Y86.988
G1 F1800 X80.555 Y87.979 E58.77086
G0 F9000 X57.832 Y92.276
G0 X58.882 Y98.271
G0 X80.511 Y98.543
G1 F1800 X80.939 Y98.618 E58.78408
G1 X81.647 Y98.618 E58.79724
G1 X82.354 Y98.618 E58.81038
G1 X83.061 Y98.618 E58.82352
G1 X83.768 Y98.618 E58.83665
G1 X84.475 Y98.618 E58.84979
G1 X85.182 Y98.618 E58.86293
G1 X85.889 Y98.618 E58.87607
G1 X86.596 Y98.618 E58.88921
G1 X87.303 Y98.618 E58.90235
G1 X88.011 Y98.618 E58.91551
G1 X88.718 Y98.618 E58.92865
G1 X89.425 Y98.618 E58.94178
G1 X90.132 Y98.618 E58.95492
G1 X90.839 Y98.618 E58.96806
G1 X91.547 Y98.618 E58.98122
G1 X92.254 Y98.618 E58.99436
G1 X92.961 Y98.618 E59.00750
G1 X93.668 Y98.618 E59.02064
G1 X94.375 Y98.618 E59.03378
G1 X95.082 Y98.618 E59.04691
G1 X95.789 Y98.618 E59.06005
G1 X96.496 Y98.618 E59.07319
G1 X97.203 Y98.618 E59.08633
G1 X97.911 Y98.618 E59.09949
G1 X98.618 Y98.618 E59.11263
G1 X99.325 Y98.618 E59.12577
G1 X99.754 Y98.693 E59.15293
G0 F9000 X58.882 Y98.271
G0 X57.832 Y92.276
G0 X100.993 Y84.376
G1 F1800 X100.001 Y83.384 E59.24042
G0 F9000 X100.602 Y83.278
G1 F1800 X101.594 Y84.270 E59.32790
G0 F9000 X102.195 Y84.164
G1 F1800 X101.203 Y83.172 E59.41539
G0 F9000 X101.804 Y83.066
G1 F1800 X102.796 Y84.058 E59.50288
G0 F9000 X103.397 Y83.951
G1 F1800 X102.406 Y82.960 E59.59028
G0 F9000 X103.007 Y82.854
G1 F1800 X103.998 Y83.845 E59.67768
G0 F9000 X104.599 Y83.739
G1 F1800 X103.608 Y82.748 E59.76508
G0 F9000 X104.209 Y82.642
G1 F1800 X105.200 Y83.633 E59.85248
G0 F9000 X105.802 Y83.528
G1 F1800 X104.810 Y82.536 E59.93997
G0 F9000 X105.411 Y82.430
G1 F1800 X106.403 Y83.422 E60.02746
G0 F9000 X107.004 Y83.316
G1 F1800 X106.012 Y82.324 E60.11495
G0 F9000 X106.613 Y82.218
G1 F1800 X107.605 Y83.210 E60.20244
G0 F9000 X108.206 Y83.104
G1 F1800 X107.214 Y82.112 E60.28993
G0 F9000 X107.816 Y82.006
G1 F1800 X108.807 Y82.998 E60.37737
G0 F9000 X109.408 Y82.892
G1 F1800 X108.417 Y81.900 E60.46482
G0 F9000 X109.018 Y81.794
G1 F1800 X110.009 Y82.785 E60.55222
G0 F9000 X110.610 Y82.679
G1 F1800 X109.619 Y81.688 E60.63962
G0 F9000 X110.220 Y81.582
G1 F1800 X111.211 Y82.573 E60.72702
G0 F9000 X111.812 Y82.467
G1 F1800 X110.821 Y81.476 E60.81442
G0 F9000 X111.422 Y81.370
G1 F1800 X112.414 Y82.362 E60.90191
G0 F9000 X113.015 Y82.256
G1 F1800 X112.023 Y81.264 E60.98940
G0 F9000 X112.624 Y81.158
G1 F1800 X113.616 Y82.150 E61.07688
G0 F9000 X114.217 Y82.044
G1 F1800 X113.225 Y81.052 E61.16437
G0 F9000 X113.827 Y80.946
G1 F1800 X114.818 Y81.938 E61.25182
G0 F9000 X115.419 Y81.832
G1 F1800 X114.428 Y80.840 E61.33926
G0 F9000 X115.029 Y80.734
G1 F1800 X116.020 Y81.725 E61.42666
G0 F9000 X116.621 Y81.619
G1 F1800 X115.630 Y80.628 E61.51406
G0 F9000 X116.231 Y80.522
G1 F1800 X117.222 Y81.513 E61.60146
G0 F9000 X117.823 Y81.407
G1 F1800 X116.832 Y80.416 E61.68886
G0 F9000 X117.433 Y80.310
G1 F1800 X118.425 Y81.302 E61.77635
G0 F9000 X119.026 Y81.196
G1 F1800 X118.034 Y80.204 E61.86384
G0 F9000 X118.635 Y80.098
G1 F1800 X119.627 Y81.090 E61.95133
G0 F9000 X120.228 Y80.984
G1 F1800 X119.236 Y79.992 E62.03882
G0 F9000 X119.837 Y79.886
G1 F1800 X120.829 Y80.878 E62.12631
G0 F9000 X121.430 Y80.772
G1 F1800 X120.439 Y79.780 E62.21375
G0 F9000 X121.040 Y79.674
G1 F1800 X122.031 Y80.666 E62.30120
G0 F9000 X122.466 Y80.393
G1 F1800 X121.641 Y79.568 E62.37396
G0 F9000 X122.242 Y79.462
G1 F1800 X122.314 Y79.534 E62.38031
G0 F9000 X79.953 Y88.085
G1 F1800 X78.962 Y87.094 E62.46771
G0 F9000 X78.361 Y87.200
G1 F1800 X79.352 Y88.191 E62.55511
G0 F9000 X78.751 Y88.297
G1 F1800 X77.760 Y87.306 E62.64251
G0 F9000 X77.159 Y87.412
G1 F1800 X78.150 Y88.403 E62.72991
G0 F9000 X77.549 Y88.509
G1 F1800 X76.557 Y87.517 E62.81740
G0 F9000 X75.956 Y87.623
G1 F1800 X76.948 Y88.616 E62.90493
G0 F9000 X76.347 Y88.722
G1 F1800 X75.355 Y87.730 E62.99242
G0 F9000 X74.754 Y87.836
G1 F1800 X75.746 Y88.828 E63.07991
G0 F9000 X75.145 Y88.934
G1 F1800 X74.153 Y87.942 E63.16740
G0 F9000 X73.552 Y88.048
G1 F1800 X74.543 Y89.039 E63.25480
G0 F9000 X73.942 Y89.145
G1 F1800 X72.951 Y88.154 E63.34220
G0 F9000 X72.350 Y88.260
G1 F1800 X73.341 Y89.251 E63.42960
G0 F9000 X72.740 Y89.357
G1 F1800 X71.749 Y88.366 E63.51700
G0 F9000 X71.148 Y88.472
G1 F1800 X72.139 Y89.463 E63.60440
G0 F9000 X71.538 Y89.569
G1 F1800 X70.546 Y88.577 E63.69189
G0 F9000 X69.945 Y88.683
G1 F1800 X70.937 Y89.675 E63.77938
G0 F9000 X70.336 Y89.782
G1 F1800 X69.344 Y88.789 E63.86691
G0 F9000 X68.743 Y88.896
G1 F1800 X69.735 Y89.888 E63.95440
G0 F9000 X69.134 Y89.994
G1 F1800 X68.142 Y89.002 E64.04189
G0 F9000 X67.541 Y89.108
G1 F1800 X68.532 Y90.099 E64.12929
G0 F9000 X67.931 Y90.205
G1 F1800 X66.940 Y89.214 E64.21669
G0 F9000 X66.339 Y89.320
G1 F1800 X67.330 Y90.311 E64.30409
G0 F9000 X66.729 Y90.417
G1 F1800 X65.738 Y89.426 E64.39149
G0 F9000 X65.137 Y89.532
G1 F1800 X66.128 Y90.523 E64.47889
G0 F9000 X65.527 Y90.629
G1 F1800 X64.535 Y89.637 E64.56638
G0 F9000 X63.934 Y89.743
G1 F1800 X64.926 Y90.735 E64.65387
G0 F9000 X64.325 Y90.842
G1 F1800 X63.333 Y89.849 E64.74140
G0 F9000 X62.732 Y89.956
G1 F1800 X63.724 Y90.948 E64.82889
G0 F9000 X63.123 Y91.054
G1 F1800 X62.131 Y90.062 E64.91638
G0 F9000 X61.530 Y90.168
G1 F1800 X62.522 Y91.160 E65.00387
G0 F9000 X61.920 Y91.265
G1 F1800 X60.929 Y90.274 E65.09127
G0 F9000 X60.328 Y90.380
G1 F1800 X61.319 Y91.371 E65.17867
G0 F9000 X60.718 Y91.477
G1 F1800 X59.727 Y90.486 E65.26607
G0 F9000 X59.126 Y90.592
G1 F1800 X60.117 Y91.583 E65.35347
G0 F9000 X57.832 Y92.276
G0 X58.882 Y98.271
G0 X60.005 Y98.543
G1 F1800 X60.433 Y98.617 E65.36652
G1 X61.141 Y98.617 E65.37968
G1 X61.848 Y98.617 E65.39273
G1 X62.555 Y98.617 E65.40578
G1 X63.262 Y98.617 E65.41883
G1 X63.969 Y98.617 E65.43188
G1 X64.676 Y98.617 E65.44494
G1 X65.383 Y98.617 E65.45799
G1 X66.090 Y98.617 E65.47104
G1 X66.797 Y98.617 E65.48409
G1 X67.504 Y98.617 E65.49723
G1 X68.212 Y98.617 E65.51038
G1 X68.919 Y98.617 E65.52343
G1 X69.626 Y98.617 E65.53649
G1 X70.333 Y98.617 E65.54954
G1 X71.040 Y98.617 E65.56259
G1 X71.747 Y98.617 E65.57564
G1 X72.454 Y98.617 E65.58869
G1 X73.161 Y98.618 E65.60183
G1 X73.868 Y98.618 E65.61497
G1 X74.576 Y98.618 E65.62812
G1 X75.283 Y98.618 E65.64126
G1 X75.990 Y98.618 E65.65440
G1 X76.697 Y98.618 E65.66754
G1 X77.404 Y98.618 E65.68068
G1 X78.111 Y98.618 E65.69382
G1 X78.818 Y98.618 E65.70696
G1 X79.525 Y98.618 E65.72010
G1 X79.954 Y98.693 E65.74726
G0 F9000 X59.447 Y98.692
G1 F1800 X59.298 Y98.543 E65.76040
G0 F9000 X58.740 Y98.692
G1 F1800 X56.585 Y96.537 E65.95046
G0 F9000 X56.736 Y97.395
G1 F1800 X58.033 Y98.692 E66.06484
G0 F9000 X57.326 Y98.692
G1 F1800 X56.888 Y98.253 E66.10352
G0 F9000 X58.517 Y97.761
G1 F1800 X56.434 Y95.678 E66.28723
G0 F9000 X56.282 Y94.819
G1 F1800 X58.364 Y96.901 E66.47085
G0 F9000 X58.211 Y96.042
G1 F1800 X56.130 Y93.961 E66.65438
G0 F9000 X55.979 Y93.102
G1 F1800 X58.059 Y95.182 E66.83782
G0 F9000 X57.906 Y94.322
G1 F1800 X55.828 Y92.244 E67.02109
G0 F9000 X55.676 Y91.385
G1 F1800 X57.753 Y93.462 E67.20427
G0 F9000 X57.600 Y92.602
G1 F1800 X56.120 Y91.122 E67.33480
G0 F9000 X56.721 Y91.015
G1 F1800 X57.713 Y92.008 E67.42233
G0 F9000 X58.314 Y91.901
G1 F1800 X57.322 Y90.909 E67.50982
G0 F9000 X57.923 Y90.803
G1 F1800 X58.915 Y91.795 E67.59731
G0 F9000 X59.516 Y91.689
G1 F1800 X58.524 Y90.697 E67.68480
;LAYER:1
M106 S63
G0 F9000 X57.705 Y92.188 Z0.500
;TYPE:WALL-INNER
G1 F2220 X58.664 Y97.620 E67.91412
G1 X58.797 Y98.368 E67.94571
G1 X116.393 Y98.368 E70.34027
G1 X116.465 Y98.374 E70.34328
G1 X116.540 Y98.398 E70.34655
G1 X116.566 Y98.415 E70.34784
G1 X116.631 Y98.481 E70.35169
G1 X116.672 Y98.613 E70.35744
G1 X116.695 Y98.897 E70.36929
G1 X116.760 Y99.164 E70.38071
G1 X116.867 Y99.421 E70.39229
G1 X117.014 Y99.657 E70.40385
G1 X117.197 Y99.868 E70.41546
G1 X117.411 Y100.047 E70.42706
G1 X117.673 Y100.203 E70.43973
G1 X118.013 Y100.311 E70.45457
G1 X117.798 Y100.359 E70.46372
