;Generated with Cura_SteamEngine 15.01
; Default start code
G28 ; Home extruder
G1 Z15 F100
M107 ; Turn off fan
G90 ; Absolute positioning
M82 ; Extruder in absolute mode
M190 S50
; Activate all used extruder
M104 T0 S210
G92 E0 ; Reset extruder position
; Wait for all used extruders to reach temperature
M109 T0 S210
;Layer count: 27
;LAYER:0
M107
G0 F9000 X90.200 Y91.942 Z0.300
G0 X90.200 Y93.020
;TYPE:SKIRT
G1 F1800 X90.200 Y91.942 E0.05378
G1 X92.355 Y90.864 E0.17400
G1 X93.183 Y90.040 E0.23228
G1 X93.843 Y89.820 E0.26698
G1 X95.450 Y89.018 E0.35659
G1 X96.999 Y88.500 E0.43807
G1 X103.415 Y88.500 E0.75817
G1 X106.945 Y90.265 E0.95507
G1 X111.049 Y94.369 E1.24463
G1 X110.877 Y94.796 E1.26759
G1 X110.900 Y94.819 E1.26922
G1 X110.900 Y95.019 E1.27920
G1 X111.100 Y95.219 E1.29331
G1 X111.100 Y95.419 E1.30328
G1 X111.300 Y95.619 E1.31740
G1 X111.300 Y96.219 E1.34733
G1 X111.500 Y96.419 E1.36144
G1 X111.500 Y97.820 E1.43134
G1 X113.577 Y99.900 E1.57799
G1 X111.500 Y101.980 E1.72464
G1 X111.500 Y103.381 E1.79453
G1 X111.300 Y103.581 E1.80864
G1 X111.300 Y104.181 E1.83858
G1 X111.100 Y104.381 E1.85269
G1 X111.100 Y104.581 E1.86267
G1 X110.900 Y104.781 E1.87678
G1 X110.900 Y104.981 E1.88676
G1 X110.877 Y105.004 E1.88838
G1 X111.049 Y105.431 E1.91135
G1 X106.944 Y109.536 E2.20097
G1 X103.904 Y111.056 E2.37054
G1 X102.396 Y111.434 E2.44810
G1 X100.266 Y111.700 E2.55520
G1 X99.633 Y111.700 E2.58678
G1 X97.341 Y111.413 E2.70202
G1 X95.451 Y110.784 E2.80140
G1 X93.846 Y109.981 E2.89093
G1 X93.183 Y109.760 E2.92580
G1 X92.355 Y108.936 E2.98408
G1 X90.200 Y107.858 E3.10429
G1 X90.200 Y106.780 E3.15807
G1 X89.400 Y105.979 E3.21455
G1 X89.400 Y105.578 E3.23456
G1 X89.000 Y105.177 E3.26282
G1 X89.000 Y104.981 E3.27260
G1 X88.800 Y104.781 E3.28671
G1 X88.800 Y104.581 E3.29668
G1 X88.600 Y104.381 E3.31080
G1 X88.600 Y103.981 E3.33075
G1 X88.400 Y103.781 E3.34486
G1 X88.400 Y96.019 E3.73211
G1 X88.600 Y95.819 E3.74622
G1 X88.600 Y95.419 E3.76618
G1 X88.800 Y95.219 E3.78029
G1 X88.800 Y95.019 E3.79027
G1 X89.000 Y94.819 E3.80438
G1 X89.000 Y94.623 E3.81416
G1 X89.400 Y94.222 E3.84241
G1 X89.400 Y93.821 E3.86242
G1 X90.200 Y93.020 E3.91890
G0 F9000 X90.600 Y93.186
G1 F1800 X90.600 Y92.189 E3.96864
G1 X92.593 Y91.193 E4.07980
G1 X93.399 Y90.389 E4.13659
G1 X93.999 Y90.189 E4.16815
G1 X95.604 Y89.389 E4.25762
G1 X97.064 Y88.900 E4.33443
G1 X103.320 Y88.900 E4.64655
G1 X106.709 Y90.594 E4.83557
G1 X110.580 Y94.465 E5.10869
G1 X110.408 Y94.893 E5.13170
G1 X110.500 Y94.985 E5.13819
G1 X110.500 Y95.185 E5.14817
G1 X110.700 Y95.385 E5.16228
G1 X110.700 Y95.585 E5.17226
G1 X110.900 Y95.785 E5.18637
G1 X110.900 Y96.385 E5.21631
G1 X111.100 Y96.585 E5.23042
G1 X111.100 Y97.985 E5.30026
G1 X113.012 Y99.900 E5.43527
G1 X111.100 Y101.815 E5.57028
G1 X111.100 Y103.215 E5.64012
G1 X110.900 Y103.415 E5.65424
G1 X110.900 Y104.015 E5.68417
G1 X110.700 Y104.215 E5.69828
G1 X110.700 Y104.415 E5.70826
G1 X110.500 Y104.615 E5.72237
G1 X110.500 Y104.815 E5.73235
G1 X110.408 Y104.907 E5.73884
G1 X110.580 Y105.335 E5.76185
G1 X106.708 Y109.207 E6.03504
G1 X103.764 Y110.679 E6.19926
G1 X102.323 Y111.040 E6.27337
G1 X100.241 Y111.300 E6.37805
G1 X99.658 Y111.300 E6.40713
G1 X97.430 Y111.021 E6.51916
G1 X95.605 Y110.413 E6.61513
G1 X94.002 Y109.612 E6.70453
G1 X93.399 Y109.411 E6.73624
G1 X92.593 Y108.607 E6.79304
G1 X90.600 Y107.611 E6.90419
G1 X90.600 Y106.614 E6.95393
G1 X89.800 Y105.813 E7.01041
G1 X89.800 Y105.412 E7.03042
G1 X89.400 Y105.011 E7.05868
G1 X89.400 Y104.815 E7.06846
G1 X89.200 Y104.615 E7.08257
G1 X89.200 Y104.415 E7.09254
G1 X89.000 Y104.215 E7.10666
G1 X89.000 Y103.815 E7.12661
G1 X88.800 Y103.615 E7.14072
G1 X88.800 Y96.185 E7.51141
G1 X89.000 Y95.985 E7.52552
G1 X89.000 Y95.585 E7.54547
G1 X89.200 Y95.385 E7.55959
G1 X89.200 Y95.185 E7.56956
G1 X89.400 Y94.985 E7.58367
G1 X89.400 Y94.789 E7.59345
G1 X89.800 Y94.388 E7.62171
G1 X89.800 Y93.987 E7.64172
G1 X90.600 Y93.186 E7.69820
G1 F2400 E3.69820
G0 F9000 X96.807 Y97.763
;TYPE:WALL-INNER
G1 F2400 E7.69820
G1 F1800 X97.126 Y97.364 E7.72368
G1 X97.500 Y97.008 E7.74944
G1 X97.913 Y96.705 E7.77500
G1 X98.362 Y96.462 E7.80047
G1 X98.849 Y96.275 E7.82649
G1 X99.184 Y96.187 E7.84378
G1 X99.686 Y96.114 E7.86908
G1 X100.045 Y96.101 E7.88701
G1 X100.535 Y96.137 E7.91152
G1 X101.033 Y96.241 E7.93690
G1 X101.529 Y96.414 E7.96311
G1 X101.986 Y96.645 E7.98865
G1 X102.415 Y96.938 E8.01457
G1 X102.908 Y97.403 E8.04838
G1 X103.224 Y97.807 E8.07397
G1 X103.406 Y98.103 E8.09131
G1 X103.621 Y98.558 E8.11641
G1 X103.781 Y99.052 E8.14232
G1 X103.874 Y99.566 E8.16838
G1 X103.897 Y100.078 E8.19395
G1 X103.854 Y100.584 E8.21929
G1 X103.786 Y100.930 E8.23688
G1 X103.637 Y101.401 E8.26152
G1 X103.417 Y101.876 E8.28764
G1 X103.147 Y102.299 E8.31268
G1 X102.811 Y102.699 E8.33874
G1 X102.433 Y103.045 E8.36430
G1 X102.011 Y103.338 E8.38993
G1 X101.556 Y103.573 E8.41548
G1 X101.072 Y103.748 E8.44116
G1 X100.571 Y103.856 E8.46673
G1 X100.208 Y103.894 E8.48494
G1 X100.050 Y103.898 E8.49282
G1 X99.534 Y103.871 E8.51860
G1 X98.883 Y103.735 E8.55178
G1 X98.393 Y103.551 E8.57790
G1 X97.941 Y103.312 E8.60340
G1 X97.527 Y103.014 E8.62885
G1 X97.148 Y102.658 E8.65479
G1 X96.909 Y102.378 E8.67316
G1 X96.817 Y102.253 E8.68090
G1 X96.559 Y101.832 E8.70554
G1 X96.344 Y101.352 E8.73178
G1 X96.235 Y101.014 E8.74950
G1 X96.161 Y100.682 E8.76647
G1 X96.106 Y100.183 E8.79151
G1 X96.100 Y99.995 E8.80090
G1 X96.114 Y99.667 E8.81728
G1 X96.194 Y99.151 E8.84333
G1 X96.231 Y98.997 E8.85123
G1 X96.395 Y98.513 E8.87672
G1 X96.546 Y98.190 E8.89451
G1 X96.807 Y97.763 E8.91948
G0 F9000 X98.395 Y98.979
G1 F1800 X98.241 Y99.274 E8.93608
G1 X98.124 Y99.680 E8.95716
G1 X98.096 Y100.032 E8.97478
G1 X98.156 Y100.471 E8.99688
G1 X98.266 Y100.785 E9.01348
G1 X98.499 Y101.171 E9.03598
G1 X98.807 Y101.483 E9.05785
G1 X99.090 Y101.669 E9.07474
G1 X99.382 Y101.798 E9.09067
G1 X99.785 Y101.890 E9.11129
G1 X100.007 Y101.901 E9.12238
G1 X100.432 Y101.852 E9.14373
G1 X100.738 Y101.752 E9.15979
G1 X101.012 Y101.609 E9.17521
G1 X101.259 Y101.424 E9.19060
G1 X101.456 Y101.222 E9.20468
G1 X101.723 Y100.808 E9.22926
G1 X101.862 Y100.395 E9.25100
G1 X101.900 Y100.075 E9.26708
G1 X101.885 Y99.749 E9.28336
G1 X101.816 Y99.430 E9.29964
G1 X101.642 Y99.044 E9.32076
G1 X101.353 Y98.667 E9.34446
G1 X101.240 Y98.558 E9.35230
G1 X100.844 Y98.293 E9.37607
G1 X100.434 Y98.147 E9.39778
G1 X100.127 Y98.103 E9.41325
G1 X99.929 Y98.099 E9.42313
G1 X99.619 Y98.135 E9.43870
G1 X99.202 Y98.272 E9.46060
G1 X98.935 Y98.423 E9.47591
G1 X98.672 Y98.637 E9.49282
G1 X98.395 Y98.979 E9.51478
G0 F9000 X98.731 Y99.200
;TYPE:WALL-OUTER
G1 F1800 X98.614 Y99.423 E9.52734
G1 X98.519 Y99.752 E9.54443
G1 X98.498 Y100.021 E9.55789
G1 X98.547 Y100.376 E9.57577
G1 X98.630 Y100.614 E9.58834
G1 X98.817 Y100.924 E9.60640
G1 X99.062 Y101.172 E9.62380
G1 X99.282 Y101.316 E9.63691
G1 X99.509 Y101.417 E9.64931
G1 X99.840 Y101.492 E9.66624
G1 X99.994 Y101.500 E9.67394
G1 X100.346 Y101.459 E9.69162
G1 X100.582 Y101.382 E9.70400
G1 X100.799 Y101.269 E9.71621
G1 X100.994 Y101.123 E9.72836
G1 X101.173 Y100.932 E9.74142
G1 X101.359 Y100.636 E9.75886
G1 X101.469 Y100.307 E9.77617
G1 X101.499 Y100.060 E9.78858
G1 X101.487 Y99.800 E9.80157
G1 X101.434 Y99.556 E9.81402
G1 X101.289 Y99.235 E9.83160
G1 X101.211 Y99.116 E9.83869
G1 X101.062 Y98.942 E9.85012
G1 X100.954 Y98.844 E9.85740
G1 X100.664 Y98.654 E9.87470
G1 X100.337 Y98.537 E9.89202
G1 X100.095 Y98.502 E9.90422
G1 X99.948 Y98.500 E9.91156
G1 X99.705 Y98.528 E9.92376
G1 X99.365 Y98.639 E9.94160
G1 X99.162 Y98.754 E9.95324
G1 X98.957 Y98.921 E9.96644
G1 X98.731 Y99.200 E9.98435
G0 F9000 X98.466 Y99.060
G0 X96.453 Y98.149
G0 X96.191 Y98.004
G1 F1800 X96.478 Y97.534 E10.01182
G1 X96.830 Y97.094 E10.03993
G1 X97.245 Y96.699 E10.06852
G1 X97.696 Y96.369 E10.09640
G1 X98.193 Y96.098 E10.12464
G1 X98.733 Y95.891 E10.15349
G1 X99.103 Y95.794 E10.17258
G1 X99.652 Y95.715 E10.20025
G1 X100.050 Y95.700 E10.22012
G1 X100.587 Y95.740 E10.24698
G1 X101.147 Y95.856 E10.27552
G1 X101.686 Y96.044 E10.30400
G1 X102.182 Y96.296 E10.33175
G1 X102.528 Y96.521 E10.35234
G1 X102.806 Y96.742 E10.37006
G1 X103.204 Y97.133 E10.39790
G1 X103.557 Y97.584 E10.42647
G1 X103.760 Y97.915 E10.44584
G1 X103.996 Y98.416 E10.47347
G1 X104.167 Y98.947 E10.50130
G1 X104.272 Y99.522 E10.53046
G1 X104.298 Y100.094 E10.55903
G1 X104.251 Y100.640 E10.58637
G1 X104.176 Y101.023 E10.60584
G1 X104.010 Y101.548 E10.63331
G1 X103.769 Y102.066 E10.66181
G1 X103.468 Y102.540 E10.68983
G1 X103.103 Y102.974 E10.71812
G1 X102.681 Y103.360 E10.74665
G1 X102.224 Y103.678 E10.77443
G1 X101.713 Y103.942 E10.80312
G1 X101.181 Y104.134 E10.83134
G1 X100.634 Y104.251 E10.85925
G1 X100.233 Y104.293 E10.87936
G1 X100.053 Y104.299 E10.88835
G1 X99.493 Y104.269 E10.91633
G1 X98.759 Y104.116 E10.95373
G1 X98.237 Y103.921 E10.98153
G1 X97.727 Y103.650 E11.01035
G1 X97.274 Y103.324 E11.03819
G1 X96.856 Y102.932 E11.06678
G1 X96.496 Y102.492 E11.09514
G1 X96.205 Y102.020 E11.12281
G1 X95.968 Y101.490 E11.15177
G1 X95.847 Y101.118 E11.17129
G1 X95.767 Y100.758 E11.18969
G1 X95.706 Y100.202 E11.21759
G1 X95.700 Y100.009 E11.22723
G1 X95.717 Y99.625 E11.24640
G1 X95.802 Y99.069 E11.27446
G1 X95.847 Y98.882 E11.28406
G1 X96.023 Y98.363 E11.31140
G1 X96.191 Y98.004 E11.33118
G0 F9000 X96.735 Y98.149
;TYPE:SKIN
G1 F1800 X98.042 Y99.456 E11.42339
G0 F9000 X98.200 Y99.048
G1 F1800 X96.954 Y97.802 E11.51130
G0 F9000 X97.205 Y97.488
G1 F1800 X98.430 Y98.713 E11.59774
G0 F9000 X98.709 Y98.426
G1 F1800 X97.491 Y97.208 E11.68367
G0 F9000 X97.805 Y96.957
G1 F1800 X99.046 Y98.198 E11.77123
G0 F9000 X99.454 Y98.040
G1 F1800 X98.150 Y96.736 E11.86324
G0 F9000 X98.528 Y96.548
G1 F1800 X99.938 Y97.959 E11.96275
G0 F9000 X100.605 Y98.060
G1 F1800 X98.941 Y96.396 E12.08016
G0 F9000 X99.407 Y96.296
G1 F1800 X103.709 Y100.597 E12.38365
G0 F9000 X103.598 Y101.053
G1 F1800 X101.952 Y99.407 E12.49979
G0 F9000 X103.524 Y98.716
G1 F1800 X101.286 Y96.478 E12.65769
G0 F9000 X100.520 Y96.278
G1 F1800 X103.714 Y99.471 E12.88301
G0 F9000 X103.755 Y100.078
G1 F1800 X99.922 Y96.245 E13.15345
G0 F9000 X96.543 Y98.523
G1 F1800 X97.963 Y99.943 E13.25364
G0 F9000 X98.054 Y100.600
G1 F1800 X96.395 Y98.941 E13.37069
G0 F9000 X96.295 Y99.406
G1 F1800 X100.594 Y103.705 E13.67400
G0 F9000 X101.057 Y103.603
G1 F1800 X99.399 Y101.944 E13.79102
G0 F9000 X98.712 Y103.520
G1 F1800 X96.464 Y101.273 E13.94959
G0 F9000 X96.285 Y100.527
G1 F1800 X99.471 Y103.714 E14.17442
G0 F9000 X100.078 Y103.755
G1 F1800 X96.242 Y99.919 E14.44507
G0 F9000 X100.056 Y102.036
G1 F1800 X101.473 Y103.453 E14.54505
G0 F9000 X101.848 Y103.262
G1 F1800 X100.547 Y101.961 E14.63684
G0 F9000 X100.950 Y101.798
G1 F1800 X102.191 Y103.040 E14.72443
G0 F9000 X102.504 Y102.787
G1 F1800 X101.291 Y101.574 E14.81002
G0 F9000 X101.575 Y101.292
G1 F1800 X102.789 Y102.506 E14.89567
G0 F9000 X103.045 Y102.196
G1 F1800 X101.797 Y100.948 E14.98372
G0 F9000 X101.957 Y100.543
G1 F1800 X103.265 Y101.851 E15.07601
G0 F9000 X103.450 Y101.470
G1 F1800 X102.039 Y100.059 E15.17556
G1 F2400 E11.17556
G0 F9000 X105.189 Y99.664
;TYPE:SUPPORT
G1 F2400 E15.17556
G1 F1800 X105.162 Y99.381 E15.18975
G1 X105.043 Y98.731 E15.22271
G1 X104.834 Y98.083 E15.25668
G1 X104.552 Y97.483 E15.28976
G1 X104.295 Y97.066 E15.31420
G1 X103.879 Y96.535 E15.34785
G1 X103.413 Y96.076 E15.38048
G1 X103.212 Y95.910 E15.39349
G1 X103.046 Y95.784 E15.40389
G1 X102.632 Y95.515 E15.42852
G1 X102.034 Y95.211 E15.46199
G1 X101.393 Y94.988 E15.49585
G1 X100.717 Y94.847 E15.53030
G1 X100.058 Y94.799 E15.56326
G1 X99.575 Y94.816 E15.58737
G1 X98.922 Y94.911 E15.62030
G1 X98.450 Y95.035 E15.64464
G1 X97.820 Y95.277 E15.67831
G1 X97.212 Y95.607 E15.71283
G1 X96.663 Y96.010 E15.74680
G1 X96.169 Y96.480 E15.78082
G1 X95.740 Y97.016 E15.81507
G1 X95.397 Y97.576 E15.84784
G1 X95.192 Y98.015 E15.87201
G1 X94.981 Y98.637 E15.90478
G1 X94.918 Y98.900 E15.91827
G1 X94.819 Y99.539 E15.95053
G1 X94.800 Y99.986 E15.97285
G1 X94.808 Y100.269 E15.98697
G1 X94.877 Y100.900 E16.01864
G1 X94.978 Y101.353 E16.04180
G1 X95.131 Y101.826 E16.06660
G1 X95.403 Y102.432 E16.09974
G1 X95.746 Y102.992 E16.13250
G1 X95.782 Y103.039 E16.13545
G1 X95.902 Y103.201 E16.14551
G1 X96.203 Y103.554 E16.16866
G1 X96.694 Y104.016 E16.20229
G1 X97.258 Y104.421 E16.23693
G1 X97.862 Y104.742 E16.27106
G1 X98.501 Y104.981 E16.30510
G1 X99.124 Y105.126 E16.33701
G1 X99.419 Y105.167 E16.35187
G1 X100.042 Y105.200 E16.38299
G1 X100.282 Y105.193 E16.39497
G1 X100.773 Y105.141 E16.41960
G1 X101.433 Y104.999 E16.45328
G1 X102.078 Y104.766 E16.48750
G1 X102.685 Y104.453 E16.52157
G1 X103.246 Y104.064 E16.55563
G1 X103.754 Y103.598 E16.59002
G1 X104.195 Y103.073 E16.62423
G1 X104.565 Y102.494 E16.65851
G1 X104.849 Y101.878 E16.69235
G1 X105.048 Y101.248 E16.72531
G1 X105.142 Y100.774 E16.74942
G1 X105.199 Y100.119 E16.78222
G1 X105.189 Y99.664 E16.80493
G0 F9000 X105.288 Y99.646
G0 X107.900 Y99.309
G1 F1800 X108.490 Y99.900 E16.84659
G1 X107.900 Y100.491 E16.88825
G1 X107.900 Y101.890 E16.95805
G1 X107.700 Y102.090 E16.97216
G1 X107.700 Y102.690 E17.00210
G1 X107.500 Y102.890 E17.01621
G1 X107.500 Y103.090 E17.02619
G1 X107.300 Y103.290 E17.04030
G1 X107.300 Y103.490 E17.05027
G1 X107.100 Y103.690 E17.06439
G1 X107.100 Y103.890 E17.07436
G1 X106.900 Y104.090 E17.08848
G1 X106.900 Y104.290 E17.09845
G1 X106.766 Y104.424 E17.10791
G1 X106.823 Y104.566 E17.11554
G1 X104.812 Y106.577 E17.25743
G1 X102.646 Y107.660 E17.37825
G1 X101.733 Y107.889 E17.42521
G1 X100.042 Y108.100 E17.51022
G1 X99.858 Y108.100 E17.51940
G1 X98.141 Y107.885 E17.60573
G1 X96.832 Y107.449 E17.67457
G1 X95.886 Y106.976 E17.72734
G1 X95.722 Y106.812 E17.73891
G1 X95.125 Y106.613 E17.77030
G1 X94.486 Y105.976 E17.81532
G1 X93.800 Y105.633 E17.85358
G1 X93.800 Y105.290 E17.87069
G1 X93.000 Y104.489 E17.92717
G1 X93.000 Y104.089 E17.94713
G1 X92.600 Y103.688 E17.97539
G1 X92.600 Y103.490 E17.98526
G1 X92.400 Y103.290 E17.99938
G1 X92.400 Y103.090 E18.00935
G1 X92.200 Y102.890 E18.02346
G1 X92.200 Y102.490 E18.04342
G1 X92.000 Y102.290 E18.05753
G1 X92.000 Y97.510 E18.29601
G1 X92.200 Y97.310 E18.31012
G1 X92.200 Y96.910 E18.33007
G1 X92.400 Y96.710 E18.34419
G1 X92.400 Y96.510 E18.35416
G1 X92.600 Y96.310 E18.36827
G1 X92.600 Y96.112 E18.37815
G1 X93.000 Y95.711 E18.40641
G1 X93.000 Y95.311 E18.42637
G1 X93.800 Y94.510 E18.48285
G1 X93.800 Y94.167 E18.49996
G1 X94.486 Y93.824 E18.53822
G1 X95.125 Y93.187 E18.58324
G1 X95.722 Y92.988 E18.61463
G1 X95.886 Y92.824 E18.62620
G1 X96.832 Y92.352 E18.67895
G1 X97.585 Y92.100 E18.71856
G1 X102.565 Y92.100 E18.96702
G1 X104.813 Y93.224 E19.09241
G1 X106.823 Y95.234 E19.23422
G1 X106.766 Y95.376 E19.24186
G1 X106.900 Y95.510 E19.25131
G1 X106.900 Y95.710 E19.26129
G1 X107.100 Y95.910 E19.27540
G1 X107.100 Y96.110 E19.28538
G1 X107.300 Y96.310 E19.29949
G1 X107.300 Y96.510 E19.30947
G1 X107.500 Y96.710 E19.32358
G1 X107.500 Y96.910 E19.33356
G1 X107.700 Y97.110 E19.34767
G1 X107.700 Y97.710 E19.37760
G1 X107.900 Y97.910 E19.39171
G1 X107.900 Y99.309 E19.46151
G0 F9000 X107.959 Y98.642
G1 F1800 X104.951 Y98.642 E19.61158
G0 F9000 X105.104 Y98.594
G0 X104.727 Y97.388
G0 X104.099 Y96.656
G0 X103.974 Y96.753
G1 F1800 X103.974 Y92.738 E19.81189
G0 F9000 X104.984 Y93.310
G1 F1800 X94.916 Y93.310 E20.31418
G0 F9000 X95.028 Y93.423
G0 X93.421 Y95.029
G0 X93.310 Y94.916
G1 F1800 X93.310 Y104.884 E20.81149
G0 F9000 X92.801 Y103.974
G1 F1800 X96.740 Y103.974 E21.00801
G0 F9000 X96.645 Y104.104
G0 X97.780 Y104.924
G0 X98.606 Y105.107
G0 X98.642 Y104.953
G1 F1800 X98.642 Y108.008 E21.16042
G0 F9000 X98.662 Y107.850
G0 X103.903 Y106.920
G0 X103.974 Y107.064
G1 F1800 X103.974 Y103.242 E21.35110
G0 F9000 X103.253 Y103.974
G1 F1800 X107.098 Y103.974 E21.54293
G0 F9000 X106.988 Y103.862
G0 X104.459 Y96.952
G0 X102.731 Y95.342
G0 X100.061 Y94.599
G0 X98.602 Y94.892
G0 X98.642 Y95.047
G1 F1800 X98.642 Y92.040 E21.69295
G0 F9000 X98.642 Y92.200
G0 X95.007 Y97.941
G0 X94.892 Y98.592
G0 X95.041 Y98.642
G1 F1800 X91.939 Y98.642 E21.84771
;LAYER:1
M106 S63
G1 F2400 E17.84771
G0 F9000 X96.131 Y99.518 Z0.500
