; Generated with Anisoprint Aura v2.4.8 on 04/09/2024 at 19:22 
; LAYER_COUNT:11 
M530 L11

M104 S245 T0
M140 S60 
G21 
G90 
M82 
G28
M530 S1
G1 Z10 F900
; Start change extruder 
M400
M109 S245 T0
T0 R ; switch extruder 
; End change extruder 
G92 E0 ; reset extrusion
M190 S60 
;MACROLAYER:1
;LAYER:1
M532 L1
G0 Z0.150 F1500
G0 X49.553 Y25.956 F7200
G1 X50.200 Y24.950 E0.04028 F1200
G1 X50.685 Y24.351 E0.06621 F1200
G1 X51.293 Y23.697 E0.09625 F1200
G1 X51.742 Y23.293 E0.11659 F1200
G1 X52.598 Y22.638 E0.15285 F1200
G1 X53.107 Y22.318 E0.17309 F1200
G1 X54.042 Y21.826 E0.20866 F1200
G1 X54.600 Y21.595 E0.22896 F1200
G1 X55.626 Y21.262 E0.26526 F1200
G1 X56.213 Y21.131 E0.28550 F1200
G1 X57.255 Y20.980 E0.32093 F1200
G1 X57.858 Y20.948 E0.34124 F1200
G1 X58.941 Y20.979 E0.37771 F1200
G1 X59.541 Y21.052 E0.39805 F1200
G1 X60.693 Y21.289 E0.43765 F1200
G1 X61.157 Y21.432 E0.45398 F1200
G1 X62.147 Y21.812 E0.48968 F1200
G1 X62.688 Y22.080 E0.50999 F1200
G1 X63.614 Y22.633 E0.54629 F1200
G1 X64.098 Y22.988 E0.56650 F1200
G1 X64.900 Y23.673 E0.60199 F1200
G1 X67.974 Y26.742 E0.74824 F1200
G1 X68.225 Y26.966 E0.75956 F1200
G1 X68.323 Y27.036 E0.76360 F1200
G1 X68.441 Y27.102 E0.76815 F1200
G1 X68.554 Y27.148 E0.77226 F1200
G1 X68.691 Y27.187 E0.77704 F1200
G1 X68.820 Y27.210 E0.78145 F1200
G1 X68.951 Y27.217 E0.78586 F1200
G1 X69.081 Y27.210 E0.79024 F1200
G1 X69.210 Y27.187 E0.79465 F1200
G1 X69.347 Y27.148 E0.79943 F1200
G1 X69.460 Y27.102 E0.80354 F1200
G1 X69.578 Y27.036 E0.80809 F1200
G1 X69.676 Y26.966 E0.81213 F1200
G1 X69.927 Y26.742 E0.82344 F1200
G1 X73.254 Y23.431 E0.98148 F1200
G1 X74.122 Y22.715 E1.01937 F1200
G1 X74.621 Y22.377 E1.03964 F1200
G1 X75.593 Y21.827 E1.07722 F1200
G1 X76.319 Y21.514 E1.10383 F1200
G1 X77.291 Y21.181 E1.13841 F1200
G1 X77.954 Y21.029 E1.16131 F1200
G1 X78.844 Y20.883 E1.19165 F1200
G1 X79.336 Y20.843 E1.20826 F1200
G1 X80.561 Y20.847 E1.24951 F1200
G1 X81.162 Y20.908 E1.26985 F1200
G1 X82.253 Y21.109 E1.30720 F1200
G1 X82.834 Y21.274 E1.32750 F1200
G1 X83.879 Y21.665 E1.36505 F1200
G1 X84.583 Y22.017 E1.39155 F1200
G1 X85.362 Y22.480 E1.42207 F1200
G1 X85.852 Y22.832 E1.44237 F1200
G1 X86.693 Y23.547 E1.47952 F1200
G1 X128.896 Y65.761 E3.48966 F1200
G1 X129.282 Y66.236 E3.51027 F1200
G1 X129.682 Y66.839 E3.53462 F1200
G1 X129.967 Y67.377 E3.55510 F1200
G1 X130.203 Y67.941 E3.57567 F1200
G1 X130.419 Y68.639 E3.60026 F1200
G1 X130.558 Y69.356 E3.62484 F1200
G1 X130.619 Y70.077 E3.64919 F1200
G1 X130.611 Y70.685 E3.66966 F1200
G1 X130.549 Y71.290 E3.69014 F1200
G1 X130.432 Y71.890 E3.71071 F1200
G1 X130.226 Y72.586 E3.73513 F1200
G1 X129.993 Y73.153 E3.75577 F1200
G1 X129.655 Y73.792 E3.78008 F1200
G1 X129.316 Y74.303 E3.80073 F1200
G1 X128.866 Y74.858 E3.82477 F1200
G1 X128.629 Y75.109 E3.83639 F1200
G1 X126.380 Y77.358 E3.94348 F1200
G1 Y78.668 E3.98760 F1200
G1 X126.848 Y79.156 E4.01036 F1200
G1 X127.489 Y79.938 E4.04441 F1200
G1 X127.827 Y80.437 E4.06468 F1200
G1 X128.377 Y81.409 E4.10226 F1200
G1 X128.690 Y82.135 E4.12887 F1200
G1 X129.023 Y83.107 E4.16345 F1200
G1 X129.175 Y83.770 E4.18635 F1200
G1 X129.321 Y84.665 E4.21686 F1200
G1 X129.366 Y85.267 E4.23717 F1200
G1 X129.357 Y86.377 E4.27455 F1200
G1 X129.296 Y86.978 E4.29489 F1200
G1 X129.095 Y88.069 E4.33223 F1200
G1 X128.930 Y88.650 E4.35254 F1200
G1 X128.539 Y89.695 E4.39009 F1200
G1 X128.187 Y90.399 E4.41659 F1200
G1 X127.724 Y91.178 E4.44710 F1200
G1 X127.372 Y91.668 E4.46741 F1200
G1 X126.657 Y92.509 E4.50455 F1200
G1 X118.887 Y100.283 E4.87469 F1200
G1 X126.226 Y107.622 E5.22417 F1200
G1 X134.127 Y99.737 E5.60006 F1200
G1 X134.995 Y99.021 E5.63795 F1200
G1 X135.494 Y98.683 E5.65822 F1200
G1 X136.466 Y98.133 E5.69580 F1200
G1 X137.192 Y97.820 E5.72241 F1200
G1 X138.164 Y97.487 E5.75699 F1200
G1 X138.827 Y97.335 E5.77989 F1200
G1 X139.722 Y97.189 E5.81040 F1200
G1 X140.324 Y97.144 E5.83071 F1200
G1 X141.434 Y97.153 E5.86809 F1200
G1 X142.035 Y97.214 E5.88843 F1200
G1 X143.126 Y97.415 E5.92578 F1200
G1 X143.707 Y97.580 E5.94608 F1200
G1 X144.752 Y97.971 E5.98363 F1200
G1 X145.456 Y98.323 E6.01014 F1200
G1 X146.235 Y98.786 E6.04065 F1200
G1 X146.725 Y99.138 E6.06095 F1200
G1 X147.564 Y99.851 E6.09803 F1200
G1 X147.846 Y100.130 E6.11137 F1200
G1 X149.157 E6.15551 F1200
G1 X149.558 Y99.739 E6.17437 F1200
G1 X150.428 Y99.021 E6.21236 F1200
G1 X150.927 Y98.683 E6.23263 F1200
G1 X151.899 Y98.133 E6.27021 F1200
G1 X152.625 Y97.820 E6.29682 F1200
G1 X153.597 Y97.487 E6.33140 F1200
G1 X154.260 Y97.335 E6.35430 F1200
G1 X155.155 Y97.189 E6.38481 F1200
G1 X155.757 Y97.144 E6.40512 F1200
G1 X156.867 Y97.153 E6.44250 F1200
G1 X157.468 Y97.214 E6.46284 F1200
G1 X158.559 Y97.415 E6.50019 F1200
G1 X159.140 Y97.580 E6.52049 F1200
G1 X160.185 Y97.971 E6.55804 F1200
G1 X160.889 Y98.323 E6.58455 F1200
G1 X161.668 Y98.786 E6.61506 F1200
G1 X162.158 Y99.138 E6.63536 F1200
G1 X162.999 Y99.853 E6.67251 F1200
G1 X170.774 Y107.622 E7.04264 F1200
G1 X178.113 Y100.283 E7.39213 F1200
G1 X170.314 Y92.478 E7.76367 F1200
G1 X170.085 Y92.218 E7.77532 F1200
G1 X169.511 Y91.515 E7.80587 F1200
G1 X169.173 Y91.016 E7.82614 F1200
G1 X168.623 Y90.044 E7.86372 F1200
G1 X168.310 Y89.318 E7.89033 F1200
G1 X167.977 Y88.346 E7.92491 F1200
G1 X167.825 Y87.683 E7.94781 F1200
G1 X167.679 Y86.788 E7.97832 F1200
G1 X167.634 Y86.186 E7.99863 F1200
G1 X167.643 Y85.076 E8.03601 F1200
G1 X167.704 Y84.475 E8.05635 F1200
G1 X167.905 Y83.384 E8.09370 F1200
G1 X168.070 Y82.803 E8.11400 F1200
G1 X168.461 Y81.758 E8.15155 F1200
G1 X168.813 Y81.054 E8.17805 F1200
G1 X169.276 Y80.275 E8.20856 F1200
G1 X169.628 Y79.785 E8.22887 F1200
G1 X170.341 Y78.947 E8.26591 F1200
G1 X170.620 Y78.664 E8.27928 F1200
G1 Y77.353 E8.32343 F1200
G1 X170.229 Y76.952 E8.34229 F1200
G1 X169.511 Y76.082 E8.38028 F1200
G1 X169.173 Y75.583 E8.40055 F1200
G1 X168.623 Y74.611 E8.43813 F1200
G1 X168.310 Y73.885 E8.46474 F1200
G1 X167.977 Y72.913 E8.49932 F1200
G1 X167.825 Y72.250 E8.52222 F1200
G1 X167.679 Y71.355 E8.55273 F1200
G1 X167.634 Y70.753 E8.57304 F1200
G1 X167.643 Y69.643 E8.61042 F1200
G1 X167.704 Y69.042 E8.63076 F1200
G1 X167.905 Y67.951 E8.66811 F1200
G1 X168.070 Y67.371 E8.68841 F1200
G1 X168.455 Y66.336 E8.72559 F1200
G1 X168.718 Y65.791 E8.74596 F1200
G1 X169.279 Y64.836 E8.78324 F1200
G1 X169.632 Y64.347 E8.80355 F1200
G1 X170.343 Y63.511 E8.84049 F1200
G1 X210.433 Y23.431 E10.74951 F1200
G1 X211.301 Y22.715 E10.78740 F1200
G1 X211.800 Y22.377 E10.80767 F1200
G1 X212.772 Y21.827 E10.84525 F1200
G1 X213.498 Y21.514 E10.87186 F1200
G1 X214.470 Y21.181 E10.90644 F1200
G1 X215.133 Y21.029 E10.92934 F1200
G1 X216.028 Y20.883 E10.95985 F1200
G1 X216.586 Y20.840 E10.97868 F1200
G1 X217.740 Y20.847 E11.01754 F1200
G1 X218.341 Y20.908 E11.03788 F1200
G1 X219.432 Y21.109 E11.07522 F1200
G1 X220.013 Y21.274 E11.09553 F1200
G1 X221.058 Y21.665 E11.13308 F1200
G1 X221.762 Y22.017 E11.15958 F1200
G1 X222.541 Y22.480 E11.19009 F1200
G1 X223.031 Y22.832 E11.21040 F1200
G1 X223.871 Y23.547 E11.24754 F1200
G1 X227.064 Y26.734 E11.39946 F1200
G1 X227.324 Y26.966 E11.41118 F1200
G1 X227.422 Y27.036 E11.41522 F1200
G1 X227.540 Y27.102 E11.41976 F1200
G1 X227.653 Y27.148 E11.42387 F1200
G1 X227.790 Y27.187 E11.42865 F1200
G1 X227.919 Y27.210 E11.43306 F1200
G1 X228.049 Y27.217 E11.43744 F1200
G1 X228.180 Y27.210 E11.44185 F1200
G1 X228.309 Y27.187 E11.44627 F1200
G1 X228.446 Y27.148 E11.45105 F1200
G1 X228.559 Y27.102 E11.45516 F1200
G1 X228.677 Y27.036 E11.45970 F1200
G1 X228.775 Y26.966 E11.46374 F1200
G1 X229.026 Y26.742 E11.47506 F1200
G1 X232.235 Y23.550 E11.62748 F1200
G1 X233.081 Y22.849 E11.66445 F1200
G1 X233.578 Y22.509 E11.68472 F1200
G1 X234.505 Y21.978 E11.72069 F1200
G1 X235.221 Y21.662 E11.74702 F1200
G1 X236.171 Y21.327 E11.78094 F1200
G1 X236.641 Y21.208 E11.79724 F1200
G1 X237.687 Y21.017 E11.83303 F1200
G1 X238.288 Y20.965 E11.85334 F1200
G1 X239.471 Y20.959 E11.89318 F1200
G1 X240.137 Y21.028 E11.91571 F1200
G1 X241.018 Y21.177 E11.94578 F1200
G1 X241.600 Y21.328 E11.96602 F1200
G1 X242.602 Y21.672 E12.00168 F1200
G1 X243.311 Y22.002 E12.02802 F1200
G1 X244.092 Y22.436 E12.05809 F1200
G1 X244.591 Y22.773 E12.07836 F1200
G1 X245.418 Y23.429 E12.11389 F1200
G1 X245.854 Y23.846 E12.13420 F1200
G1 X246.576 Y24.656 E12.17073 F1200
G1 X247.026 Y25.282 E12.19667 F1200
G1 X247.491 Y26.032 E12.22637 F1200
G1 X247.634 Y26.301 E12.23660 F1200
G1 X249.192 Y29.406 E12.35356 F1200
G1 X250.656 Y32.560 E12.47065 F1200
G1 X252.017 Y35.756 E12.58761 F1200
G1 X253.280 Y38.992 E12.70457 F1200
G1 X254.441 Y42.267 E12.82156 F1200
G1 X255.501 Y45.576 E12.93855 F1200
G1 X256.457 Y48.918 E13.05560 F1200
G1 X257.309 Y52.285 E13.17256 F1200
G1 X258.057 Y55.680 E13.28962 F1200
G1 X258.698 Y59.096 E13.40664 F1200
G1 X259.233 Y62.531 E13.52370 F1200
G1 X259.660 Y65.977 E13.64062 F1200
G1 X259.980 Y69.437 E13.75761 F1200
G1 X260.193 Y72.907 E13.87467 F1200
G1 X260.297 Y76.378 E13.99159 F1200
G1 X260.294 Y79.852 E14.10858 F1200
G1 X260.183 Y83.327 E14.22564 F1200
G1 X259.964 Y86.795 E14.34263 F1200
G1 X259.637 Y90.252 E14.45955 F1200
G1 X259.202 Y93.701 E14.57661 F1200
G1 X258.662 Y97.133 E14.69360 F1200
G1 X258.014 Y100.550 E14.81069 F1200
G1 X257.260 Y103.940 E14.92761 F1200
G1 X256.402 Y107.307 E15.04460 F1200
G1 X255.440 Y110.646 E15.16159 F1200
G1 X254.374 Y113.954 E15.27862 F1200
G1 X253.206 Y117.225 E15.39557 F1200
G1 X251.937 Y120.459 E15.51256 F1200
G1 X250.567 Y123.656 E15.62969 F1200
G1 X249.100 Y126.806 E15.74668 F1200
G1 X247.447 Y130.064 E15.86969 F1200
G1 X246.800 Y131.070 E15.90997 F1200
G1 X246.315 Y131.669 E15.93590 F1200
G1 X245.707 Y132.323 E15.96594 F1200
G1 X245.258 Y132.727 E15.98628 F1200
G1 X244.395 Y133.387 E16.02285 F1200
G1 X243.727 Y133.794 E16.04919 F1200
G1 X242.830 Y134.251 E16.08306 F1200
G1 X242.382 Y134.430 E16.09930 F1200
G1 X241.389 Y134.753 E16.13445 F1200
G1 X240.617 Y134.917 E16.16102 F1200
G1 X239.732 Y135.040 E16.19110 F1200
G1 X239.131 Y135.071 E16.21134 F1200
G1 X238.065 Y135.041 E16.24723 F1200
G1 X237.293 Y134.939 E16.27343 F1200
G1 X236.300 Y134.729 E16.30758 F1200
G1 X235.673 Y134.527 E16.32974 F1200
G1 X234.841 Y134.201 E16.35981 F1200
G1 X234.302 Y133.933 E16.38005 F1200
G1 X233.386 Y133.386 E16.41595 F1200
G1 X232.902 Y133.031 E16.43616 F1200
G1 X232.100 Y132.346 E16.47165 F1200
G1 X229.011 Y129.262 E16.61861 F1200
G1 X228.782 Y129.058 E16.62892 F1200
G1 X228.678 Y128.984 E16.63319 F1200
G1 X228.559 Y128.919 E16.63774 F1200
G1 X228.443 Y128.870 E16.64195 F1200
G1 X228.313 Y128.833 E16.64650 F1200
G1 X228.180 Y128.810 E16.65101 F1200
G1 X228.049 Y128.803 E16.65542 F1200
G1 X227.919 Y128.810 E16.65980 F1200
G1 X227.786 Y128.833 E16.66431 F1200
G1 X227.656 Y128.870 E16.66886 F1200
G1 X227.540 Y128.919 E16.67307 F1200
G1 X227.421 Y128.984 E16.67761 F1200
G1 X227.317 Y129.058 E16.68189 F1200
G1 X227.088 Y129.262 E16.69219 F1200
G1 X199.759 Y156.591 E17.99373 F1200
G1 X199.550 Y156.824 E18.00427 F1200
G1 X199.473 Y156.934 E18.00879 F1200
G1 X199.408 Y157.050 E18.01323 F1200
G1 X199.362 Y157.163 E18.01734 F1200
G1 X199.323 Y157.300 E18.02212 F1200
G1 X199.300 Y157.429 E18.02653 F1200
G1 X199.293 Y157.559 E18.03091 F1200
G1 X199.300 Y157.690 E18.03532 F1200
G1 X199.323 Y157.819 E18.03973 F1200
G1 X199.360 Y157.949 E18.04428 F1200
G1 X199.410 Y158.071 E18.04869 F1200
G1 X199.475 Y158.188 E18.05317 F1200
G1 X199.548 Y158.292 E18.05745 F1200
G1 X199.780 Y158.551 E18.06913 F1200
G1 X202.959 Y161.744 E18.22084 F1200
G1 X203.661 Y162.591 E18.25789 F1200
G1 X204.001 Y163.088 E18.27816 F1200
G1 X204.532 Y164.015 E18.31413 F1200
G1 X204.848 Y164.731 E18.34046 F1200
G1 X205.183 Y165.681 E18.37437 F1200
G1 X205.302 Y166.151 E18.39067 F1200
G1 X205.493 Y167.197 E18.42647 F1200
G1 X205.545 Y167.798 E18.44678 F1200
G1 X205.551 Y168.981 E18.48661 F1200
G1 X205.482 Y169.647 E18.50914 F1200
G1 X205.333 Y170.528 E18.53922 F1200
G1 X205.182 Y171.110 E18.55945 F1200
G1 X204.838 Y172.112 E18.59512 F1200
G1 X204.508 Y172.821 E18.62145 F1200
G1 X204.074 Y173.602 E18.65152 F1200
G1 X203.737 Y174.101 E18.67180 F1200
G1 X203.081 Y174.928 E18.70733 F1200
G1 X202.664 Y175.364 E18.72763 F1200
G1 X201.854 Y176.086 E18.76417 F1200
G1 X201.228 Y176.536 E18.79010 F1200
G1 X200.477 Y177.001 E18.81984 F1200
G1 X200.210 Y177.143 E18.83001 F1200
G1 X197.138 Y178.686 E18.94575 F1200
G1 X194.023 Y180.131 E19.06136 F1200
G1 X190.866 Y181.482 E19.17697 F1200
G1 X187.665 Y182.736 E19.29271 F1200
G1 X184.431 Y183.889 E19.40832 F1200
G1 X181.160 Y184.943 E19.52403 F1200
G1 X177.859 Y185.896 E19.63971 F1200
G1 X174.531 Y186.747 E19.75539 F1200
G1 X171.175 Y187.496 E19.87116 F1200
G1 X167.802 Y188.140 E19.98677 F1200
G1 X164.410 Y188.681 E20.10242 F1200
G1 X160.951 Y189.122 E20.21981 F1200
G1 X160.532 Y189.147 E20.23392 F1200
G1 X159.531 Y189.158 E20.26763 F1200
G1 X159.047 Y189.119 E20.28396 F1200
G1 X158.006 Y188.964 E20.31939 F1200
G1 X157.422 Y188.821 E20.33963 F1200
G1 X156.415 Y188.490 E20.37533 F1200
G1 X155.714 Y188.175 E20.40119 F1200
G1 X154.829 Y187.695 E20.43507 F1200
G1 X154.308 Y187.340 E20.45628 F1200
G1 X153.605 Y186.797 E20.48619 F1200
G1 X153.165 Y186.390 E20.50636 F1200
G1 X152.449 Y185.620 E20.54175 F1200
G1 X151.986 Y185.004 E20.56768 F1200
G1 X151.502 Y184.259 E20.59759 F1200
G1 X151.220 Y183.725 E20.61789 F1200
G1 X150.764 Y182.665 E20.65672 F1200
G1 X150.616 Y182.202 E20.67309 F1200
G1 X150.341 Y181.072 E20.71222 F1200
G1 X150.255 Y180.420 E20.73434 F1200
G1 X150.190 Y179.433 E20.76765 F1200
G1 Y173.820 E20.95667 F1200
G1 X146.809 E21.07053 F1200
G1 X146.799 Y179.743 E21.26999 F1200
G1 X146.699 Y180.822 E21.30646 F1200
G1 X146.548 Y181.579 E21.33243 F1200
G1 X146.314 Y182.437 E21.36237 F1200
G1 X146.104 Y182.999 E21.38254 F1200
G1 X145.671 Y183.944 E21.41753 F1200
G1 X145.371 Y184.465 E21.43777 F1200
G1 X144.786 Y185.325 E21.47279 F1200
G1 X144.403 Y185.790 E21.49306 F1200
G1 X143.664 Y186.556 E21.52889 F1200
G1 X143.206 Y186.951 E21.54923 F1200
G1 X142.272 Y187.632 E21.58813 F1200
G1 X141.856 Y187.878 E21.60439 F1200
G1 X140.929 Y188.347 E21.63935 F1200
G1 X140.368 Y188.570 E21.65966 F1200
G1 X139.357 Y188.881 E21.69525 F1200
G1 X138.767 Y189.005 E21.71553 F1200
G1 X137.724 Y189.142 E21.75092 F1200
G1 X137.122 Y189.165 E21.77119 F1200
G1 X136.083 Y189.125 E21.80618 F1200
G1 X135.789 Y189.094 E21.81611 F1200
G1 X132.383 Y188.651 E21.93176 F1200
G1 X128.992 Y188.104 E22.04740 F1200
G1 X125.617 Y187.453 E22.16315 F1200
G1 X122.265 Y186.698 E22.27882 F1200
G1 X118.938 Y185.841 E22.39450 F1200
G1 X115.638 Y184.882 E22.51021 F1200
G1 X112.372 Y183.821 E22.62585 F1200
G1 X109.136 Y182.661 E22.74160 F1200
G1 X105.941 Y181.402 E22.85724 F1200
G1 X102.786 Y180.046 E22.97288 F1200
G1 X99.671 Y178.593 E23.08863 F1200
G1 X96.559 Y177.021 E23.20602 F1200
G1 X96.194 Y176.804 E23.22030 F1200
G1 X95.440 Y176.310 E23.25064 F1200
G1 X94.841 Y175.825 E23.27657 F1200
G1 X94.187 Y175.217 E23.30661 F1200
G1 X93.783 Y174.768 E23.32695 F1200
G1 X93.128 Y173.912 E23.36322 F1200
G1 X92.808 Y173.403 E23.38346 F1200
G1 X92.316 Y172.468 E23.41902 F1200
G1 X92.085 Y171.910 E23.43933 F1200
G1 X91.752 Y170.884 E23.47563 F1200
G1 X91.621 Y170.297 E23.49587 F1200
G1 X91.470 Y169.255 E23.53130 F1200
G1 X91.438 Y168.652 E23.55160 F1200
G1 X91.469 Y167.569 E23.58807 F1200
G1 X91.542 Y166.969 E23.60841 F1200
G1 X91.779 Y165.817 E23.64802 F1200
G1 X91.922 Y165.353 E23.66435 F1200
G1 X92.302 Y164.363 E23.70005 F1200
G1 X92.570 Y163.822 E23.72035 F1200
G1 X93.123 Y162.896 E23.75665 F1200
G1 X93.478 Y162.412 E23.77686 F1200
G1 X94.163 Y161.610 E23.81235 F1200
G1 X97.228 Y158.542 E23.95837 F1200
G1 X97.452 Y158.292 E23.96965 F1200
G1 X97.525 Y158.188 E23.97393 F1200
G1 X97.590 Y158.071 E23.97841 F1200
G1 X97.640 Y157.949 E23.98282 F1200
G1 X97.677 Y157.819 E23.98737 F1200
G1 X97.700 Y157.690 E23.99178 F1200
G1 X97.707 Y157.559 E23.99619 F1200
G1 X97.700 Y157.429 E24.00057 F1200
G1 X97.677 Y157.300 E24.00498 F1200
G1 X97.638 Y157.163 E24.00976 F1200
G1 X97.592 Y157.050 E24.01387 F1200
G1 X97.527 Y156.934 E24.01832 F1200
G1 X97.450 Y156.824 E24.02283 F1200
G1 X97.241 Y156.591 E24.03337 F1200
G1 X69.912 Y129.262 E25.33491 F1200
G1 X69.683 Y129.058 E25.34521 F1200
G1 X69.579 Y128.984 E25.34949 F1200
G1 X69.460 Y128.919 E25.35404 F1200
G1 X69.344 Y128.870 E25.35825 F1200
G1 X69.214 Y128.833 E25.36279 F1200
G1 X69.081 Y128.810 E25.36730 F1200
G1 X68.951 Y128.803 E25.37168 F1200
G1 X68.820 Y128.810 E25.37609 F1200
G1 X68.687 Y128.833 E25.38061 F1200
G1 X68.557 Y128.870 E25.38515 F1200
G1 X68.441 Y128.919 E25.38936 F1200
G1 X68.322 Y128.984 E25.39391 F1200
G1 X68.218 Y129.058 E25.39819 F1200
G1 X67.989 Y129.262 E25.40849 F1200
G1 X64.765 Y132.469 E25.56161 F1200
G1 X63.919 Y133.170 E25.59859 F1200
G1 X63.422 Y133.510 E25.61886 F1200
G1 X62.496 Y134.040 E25.65476 F1200
G1 X61.791 Y134.352 E25.68069 F1200
G1 X60.833 Y134.692 E25.71491 F1200
G1 X60.195 Y134.845 E25.73700 F1200
G1 X59.306 Y135.003 E25.76737 F1200
G1 X58.534 Y135.061 E25.79344 F1200
G1 X57.641 Y135.065 E25.82351 F1200
G1 X57.041 Y135.015 E25.84378 F1200
G1 X55.995 Y134.846 E25.87945 F1200
G1 X55.410 Y134.696 E25.89975 F1200
G1 X54.382 Y134.340 E25.93636 F1200
G1 X53.833 Y134.091 E25.95663 F1200
G1 X52.822 Y133.531 E25.99553 F1200
G1 X52.277 Y133.147 E26.01796 F1200
G1 X51.489 Y132.507 E26.05214 F1200
G1 X51.020 Y132.039 E26.07443 F1200
G1 X50.424 Y131.364 E26.10474 F1200
G1 X49.974 Y130.738 E26.13067 F1200
G1 X49.509 Y129.988 E26.16037 F1200
G1 X49.366 Y129.719 E26.17061 F1200
G1 X47.808 Y126.614 E26.28757 F1200
G1 X46.344 Y123.459 E26.40469 F1200
G1 X44.983 Y120.263 E26.52165 F1200
G1 X43.720 Y117.027 E26.63860 F1200
G1 X42.558 Y113.752 E26.75563 F1200
G1 X41.499 Y110.443 E26.87262 F1200
G1 X40.543 Y107.102 E26.98964 F1200
G1 X39.691 Y103.735 E27.10660 F1200
G1 X38.943 Y100.340 E27.22365 F1200
G1 X38.302 Y96.924 E27.34068 F1200
G1 X37.767 Y93.489 E27.45774 F1200
G1 X37.340 Y90.043 E27.57466 F1200
G1 X37.020 Y86.583 E27.69165 F1200
G1 X36.807 Y83.113 E27.80871 F1200
G1 X36.703 Y79.641 E27.92566 F1200
G1 X36.706 Y76.167 E28.04265 F1200
G1 X36.817 Y72.693 E28.15968 F1200
G1 X37.036 Y69.225 E28.27667 F1200
G1 X37.363 Y65.768 E28.39359 F1200
G1 X37.798 Y62.319 E28.51065 F1200
G1 X38.338 Y58.887 E28.62764 F1200
G1 X38.986 Y55.470 E28.74473 F1200
G1 X39.740 Y52.080 E28.86165 F1200
G1 X40.598 Y48.712 E28.97867 F1200
G1 X41.561 Y45.372 E29.09573 F1200
G1 X42.626 Y42.067 E29.21265 F1200
G1 X43.794 Y38.794 E29.32968 F1200
G1 X45.063 Y35.559 E29.44667 F1200
G1 X46.433 Y32.364 E29.56372 F1200
G1 X47.900 Y29.214 E29.68071 F1200
G1 X49.553 Y25.956 E29.80373 F1200
G0 X50.008 Y26.247 F7200
G1 X50.620 Y25.289 E29.84199 F1200
G1 X51.081 Y24.718 E29.86667 F1200
G1 X51.656 Y24.097 E29.89516 F1200
G1 X52.071 Y23.721 E29.91402 F1200
G1 X52.887 Y23.094 E29.94867 F1200
G1 X53.360 Y22.795 E29.96750 F1200
G1 X54.250 Y22.324 E30.00138 F1200
G1 X54.767 Y22.108 E30.02023 F1200
G1 X55.746 Y21.789 E30.05489 F1200
G1 X56.292 Y21.665 E30.07371 F1200
G1 X57.285 Y21.519 E30.10749 F1200
G1 X57.844 Y21.488 E30.12631 F1200
G1 X58.877 Y21.515 E30.16110 F1200
G1 X59.433 Y21.581 E30.17993 F1200
G1 X60.535 Y21.805 E30.21778 F1200
G1 X60.964 Y21.936 E30.23286 F1200
G1 X61.909 Y22.297 E30.26691 F1200
G1 X62.412 Y22.544 E30.28577 F1200
G1 X63.296 Y23.070 E30.32039 F1200
G1 X63.748 Y23.399 E30.33921 F1200
G1 X64.518 Y24.055 E30.37326 F1200
G1 X67.605 Y27.137 E30.52015 F1200
G1 X67.885 Y27.387 E30.53278 F1200
G1 X68.034 Y27.493 E30.53891 F1200
G1 X68.207 Y27.589 E30.54554 F1200
G1 X68.377 Y27.659 E30.55171 F1200
G1 X68.568 Y27.714 E30.55838 F1200
G1 X68.760 Y27.747 E30.56491 F1200
G1 X68.951 Y27.758 E30.57134 F1200
G1 X69.141 Y27.747 E30.57774 F1200
G1 X69.333 Y27.714 E30.58427 F1200
G1 X69.524 Y27.659 E30.59094 F1200
G1 X69.694 Y27.589 E30.59710 F1200
G1 X69.867 Y27.493 E30.60374 F1200
G1 X70.016 Y27.387 E30.60987 F1200
G1 X70.296 Y27.137 E30.62249 F1200
G1 X73.599 Y23.847 E30.77946 F1200
G1 X74.426 Y23.161 E30.81563 F1200
G1 X74.888 Y22.846 E30.83445 F1200
G1 X75.808 Y22.322 E30.87008 F1200
G1 X76.495 Y22.024 E30.89527 F1200
G1 X77.412 Y21.707 E30.92793 F1200
G1 X78.043 Y21.562 E30.94972 F1200
G1 X78.890 Y21.421 E30.97862 F1200
G1 X79.336 Y21.383 E30.99367 F1200
G1 X80.508 Y21.384 E31.03314 F1200
G1 X81.065 Y21.439 E31.05196 F1200
G1 X82.107 Y21.629 E31.08763 F1200
G1 X82.646 Y21.780 E31.10645 F1200
G1 X83.638 Y22.148 E31.14208 F1200
G1 X84.308 Y22.482 E31.16727 F1200
G1 X85.048 Y22.919 E31.19620 F1200
G1 X85.503 Y23.244 E31.21502 F1200
G1 X86.311 Y23.929 E31.25068 F1200
G1 X128.478 Y66.103 E33.25905 F1200
G1 X128.833 Y66.536 E33.27787 F1200
G1 X129.206 Y67.094 E33.30047 F1200
G1 X129.470 Y67.588 E33.31933 F1200
G1 X129.688 Y68.103 E33.33815 F1200
G1 X129.889 Y68.744 E33.36075 F1200
G1 X130.020 Y69.403 E33.38334 F1200
G1 X130.079 Y70.072 E33.40594 F1200
G1 X130.074 Y70.632 E33.42480 F1200
G1 X130.019 Y71.189 E33.44362 F1200
G1 X129.914 Y71.738 E33.46242 F1200
G1 X129.725 Y72.383 E33.48505 F1200
G1 X129.515 Y72.902 E33.50387 F1200
G1 X129.203 Y73.496 E33.52643 F1200
G1 X128.896 Y73.964 E33.54526 F1200
G1 X128.474 Y74.487 E33.56789 F1200
G1 X128.247 Y74.727 E33.57900 F1200
G1 X125.840 Y77.134 E33.69363 F1200
G1 Y78.885 E33.75260 F1200
G1 X126.431 Y79.499 E33.78129 F1200
G1 X127.043 Y80.242 E33.81369 F1200
G1 X127.358 Y80.704 E33.83251 F1200
G1 X127.882 Y81.624 E33.86814 F1200
G1 X128.180 Y82.311 E33.89333 F1200
G1 X128.497 Y83.228 E33.92600 F1200
G1 X128.642 Y83.859 E33.94779 F1200
G1 X128.783 Y84.706 E33.97668 F1200
G1 X128.826 Y85.264 E33.99550 F1200
G1 X128.820 Y86.324 E34.03120 F1200
G1 X128.765 Y86.881 E34.05003 F1200
G1 X128.575 Y87.923 E34.08569 F1200
G1 X128.424 Y88.462 E34.10451 F1200
G1 X128.056 Y89.454 E34.14014 F1200
G1 X127.722 Y90.124 E34.16533 F1200
G1 X127.285 Y90.864 E34.19426 F1200
G1 X126.960 Y91.319 E34.21308 F1200
G1 X126.275 Y92.127 E34.24875 F1200
G1 X118.123 Y100.283 E34.63706 F1200
G1 X126.226 Y108.386 E35.02296 F1200
G1 X134.472 Y100.153 E35.41535 F1200
G1 X135.299 Y99.467 E35.45152 F1200
G1 X135.761 Y99.152 E35.47034 F1200
G1 X136.681 Y98.628 E35.50597 F1200
G1 X137.368 Y98.330 E35.53116 F1200
G1 X138.285 Y98.013 E35.56382 F1200
G1 X138.916 Y97.868 E35.58561 F1200
G1 X139.763 Y97.727 E35.61451 F1200
G1 X140.321 Y97.684 E35.63333 F1200
G1 X141.381 Y97.690 E35.66903 F1200
G1 X141.938 Y97.745 E35.68785 F1200
G1 X142.980 Y97.935 E35.72352 F1200
G1 X143.519 Y98.086 E35.74234 F1200
G1 X144.511 Y98.454 E35.77797 F1200
G1 X145.181 Y98.788 E35.80316 F1200
G1 X145.921 Y99.225 E35.83209 F1200
G1 X146.376 Y99.550 E35.85091 F1200
G1 X147.184 Y100.235 E35.88657 F1200
G1 X147.624 Y100.670 E35.90739 F1200
G1 X149.376 E35.96639 F1200
G1 X149.903 Y100.155 E35.99117 F1200
G1 X150.732 Y99.467 E36.02744 F1200
G1 X151.194 Y99.152 E36.04627 F1200
G1 X152.114 Y98.628 E36.08189 F1200
G1 X152.801 Y98.330 E36.10708 F1200
G1 X153.718 Y98.013 E36.13975 F1200
G1 X154.349 Y97.868 E36.16154 F1200
G1 X155.196 Y97.727 E36.19043 F1200
G1 X155.754 Y97.684 E36.20926 F1200
G1 X156.814 Y97.690 E36.24495 F1200
G1 X157.371 Y97.745 E36.26378 F1200
G1 X158.413 Y97.935 E36.29944 F1200
G1 X158.952 Y98.086 E36.31827 F1200
G1 X159.944 Y98.454 E36.35389 F1200
G1 X160.614 Y98.788 E36.37908 F1200
G1 X161.354 Y99.225 E36.40801 F1200
G1 X161.809 Y99.550 E36.42684 F1200
G1 X162.617 Y100.235 E36.46250 F1200
G1 X170.774 Y108.386 E36.85082 F1200
G1 X178.877 Y100.283 E37.23671 F1200
G1 X170.719 Y92.121 E37.62529 F1200
G1 X170.502 Y91.875 E37.63634 F1200
G1 X169.957 Y91.211 E37.66527 F1200
G1 X169.642 Y90.749 E37.68409 F1200
G1 X169.118 Y89.829 E37.71972 F1200
G1 X168.820 Y89.142 E37.74491 F1200
G1 X168.503 Y88.225 E37.77758 F1200
G1 X168.358 Y87.594 E37.79936 F1200
G1 X168.217 Y86.747 E37.82826 F1200
G1 X168.174 Y86.189 E37.84708 F1200
G1 X168.180 Y85.129 E37.88278 F1200
G1 X168.235 Y84.572 E37.90160 F1200
G1 X168.425 Y83.530 E37.93727 F1200
G1 X168.576 Y82.991 E37.95609 F1200
G1 X168.944 Y81.999 E37.99172 F1200
G1 X169.278 Y81.329 E38.01691 F1200
G1 X169.715 Y80.589 E38.04584 F1200
G1 X170.040 Y80.134 E38.06466 F1200
G1 X170.725 Y79.326 E38.10033 F1200
G1 X171.160 Y78.885 E38.12117 F1200
G1 Y77.134 E38.18014 F1200
G1 X170.645 Y76.607 E38.20492 F1200
G1 X169.957 Y75.778 E38.24119 F1200
G1 X169.642 Y75.316 E38.26002 F1200
G1 X169.118 Y74.396 E38.29565 F1200
G1 X168.820 Y73.709 E38.32084 F1200
G1 X168.503 Y72.792 E38.35350 F1200
G1 X168.358 Y72.161 E38.37529 F1200
G1 X168.217 Y71.314 E38.40418 F1200
G1 X168.174 Y70.756 E38.42301 F1200
G1 X168.180 Y69.696 E38.45870 F1200
G1 X168.235 Y69.139 E38.47753 F1200
G1 X168.425 Y68.097 E38.51319 F1200
G1 X168.576 Y67.558 E38.53202 F1200
G1 X168.942 Y66.569 E38.56751 F1200
G1 X169.184 Y66.064 E38.58634 F1200
G1 X169.718 Y65.151 E38.62193 F1200
G1 X170.044 Y64.696 E38.64076 F1200
G1 X170.725 Y63.893 E38.67618 F1200
G1 X210.778 Y23.847 E40.58352 F1200
G1 X211.605 Y23.161 E40.61969 F1200
G1 X212.067 Y22.846 E40.63851 F1200
G1 X212.987 Y22.322 E40.67414 F1200
G1 X213.674 Y22.024 E40.69933 F1200
G1 X214.591 Y21.707 E40.73200 F1200
G1 X215.222 Y21.562 E40.75378 F1200
G1 X216.069 Y21.421 E40.78268 F1200
G1 X216.627 Y21.378 E40.80150 F1200
G1 X217.687 Y21.384 E40.83720 F1200
G1 X218.244 Y21.439 E40.85602 F1200
G1 X219.286 Y21.629 E40.89169 F1200
G1 X219.825 Y21.780 E40.91051 F1200
G1 X220.817 Y22.148 E40.94614 F1200
G1 X221.487 Y22.482 E40.97133 F1200
G1 X222.227 Y22.919 E41.00026 F1200
G1 X222.682 Y23.244 E41.01908 F1200
G1 X223.490 Y23.929 E41.05474 F1200
G1 X226.704 Y27.137 E41.20767 F1200
G1 X226.984 Y27.387 E41.22030 F1200
G1 X227.133 Y27.493 E41.22642 F1200
G1 X227.306 Y27.589 E41.23306 F1200
G1 X227.476 Y27.659 E41.23922 F1200
G1 X227.667 Y27.714 E41.24589 F1200
G1 X227.859 Y27.747 E41.25242 F1200
G1 X228.049 Y27.758 E41.25882 F1200
G1 X228.240 Y27.747 E41.26525 F1200
G1 X228.432 Y27.714 E41.27179 F1200
G1 X228.623 Y27.659 E41.27845 F1200
G1 X228.793 Y27.589 E41.28462 F1200
G1 X228.966 Y27.493 E41.29125 F1200
G1 X229.115 Y27.387 E41.29738 F1200
G1 X229.395 Y27.137 E41.31001 F1200
G1 X232.580 Y23.965 E41.46138 F1200
G1 X233.387 Y23.294 E41.49671 F1200
G1 X233.848 Y22.977 E41.51553 F1200
G1 X234.724 Y22.472 E41.54958 F1200
G1 X235.402 Y22.171 E41.57453 F1200
G1 X236.305 Y21.850 E41.60679 F1200
G1 X236.739 Y21.739 E41.62185 F1200
G1 X237.735 Y21.555 E41.65593 F1200
G1 X238.292 Y21.505 E41.67475 F1200
G1 X239.416 Y21.496 E41.71260 F1200
G1 X240.048 Y21.561 E41.73399 F1200
G1 X240.884 Y21.700 E41.76251 F1200
G1 X241.426 Y21.839 E41.78134 F1200
G1 X242.375 Y22.162 E41.81508 F1200
G1 X243.050 Y22.475 E41.84013 F1200
G1 X243.791 Y22.884 E41.86862 F1200
G1 X244.256 Y23.196 E41.88745 F1200
G1 X245.046 Y23.821 E41.92136 F1200
G1 X245.452 Y24.206 E41.94019 F1200
G1 X246.138 Y24.972 E41.97480 F1200
G1 X246.567 Y25.567 E41.99949 F1200
G1 X247.014 Y26.286 E42.02798 F1200
G1 X247.151 Y26.543 E42.03778 F1200
G1 X248.702 Y29.633 E42.15420 F1200
G1 X250.159 Y32.772 E42.27071 F1200
G1 X251.514 Y35.952 E42.38710 F1200
G1 X252.771 Y39.173 E42.50352 F1200
G1 X253.927 Y42.432 E42.61993 F1200
G1 X254.982 Y45.725 E42.73635 F1200
G1 X255.934 Y49.050 E42.85280 F1200
G1 X256.782 Y52.401 E42.96919 F1200
G1 X257.526 Y55.780 E43.08567 F1200
G1 X258.164 Y59.179 E43.20212 F1200
G1 X258.697 Y62.597 E43.31861 F1200
G1 X259.122 Y66.027 E43.43499 F1200
G1 X259.441 Y69.470 E43.55141 F1200
G1 X259.653 Y72.923 E43.66789 F1200
G1 X259.757 Y76.378 E43.78428 F1200
G1 X259.754 Y79.835 E43.90069 F1200
G1 X259.644 Y83.293 E44.01718 F1200
G1 X259.426 Y86.744 E44.13360 F1200
G1 X259.101 Y90.185 E44.24998 F1200
G1 X258.669 Y93.617 E44.36647 F1200
G1 X258.131 Y97.033 E44.48292 F1200
G1 X257.487 Y100.433 E44.59944 F1200
G1 X256.737 Y103.807 E44.71582 F1200
G1 X255.883 Y107.158 E44.83227 F1200
G1 X254.926 Y110.480 E44.94869 F1200
G1 X253.865 Y113.772 E45.06514 F1200
G1 X252.703 Y117.028 E45.18156 F1200
G1 X251.441 Y120.246 E45.29794 F1200
G1 X250.078 Y123.428 E45.41449 F1200
G1 X248.618 Y126.562 E45.53091 F1200
G1 X246.992 Y129.773 E45.65211 F1200
G1 X246.380 Y130.731 E45.69037 F1200
G1 X245.919 Y131.302 E45.71505 F1200
G1 X245.344 Y131.923 E45.74354 F1200
G1 X244.929 Y132.299 E45.76240 F1200
G1 X244.113 Y132.926 E45.79705 F1200
G1 X243.481 Y133.313 E45.82200 F1200
G1 X242.628 Y133.750 E45.85427 F1200
G1 X242.213 Y133.917 E45.86932 F1200
G1 X241.276 Y134.225 E45.90252 F1200
G1 X240.541 Y134.382 E45.92781 F1200
G1 X239.703 Y134.501 E45.95630 F1200
G1 X239.144 Y134.531 E45.97513 F1200
G1 X238.135 Y134.506 E46.00911 F1200
G1 X237.403 Y134.410 E46.03396 F1200
G1 X236.465 Y134.215 E46.06622 F1200
G1 X235.869 Y134.024 E46.08727 F1200
G1 X235.080 Y133.717 E46.11576 F1200
G1 X234.578 Y133.469 E46.13458 F1200
G1 X233.704 Y132.949 E46.16880 F1200
G1 X233.252 Y132.620 E46.18762 F1200
G1 X232.482 Y131.964 E46.22167 F1200
G1 X229.392 Y128.879 E46.36870 F1200
G1 X229.117 Y128.634 E46.38109 F1200
G1 X228.964 Y128.525 E46.38739 F1200
G1 X228.799 Y128.434 E46.39372 F1200
G1 X228.622 Y128.360 E46.40015 F1200
G1 X228.432 Y128.306 E46.40679 F1200
G1 X228.240 Y128.273 E46.41332 F1200
G1 X228.049 Y128.262 E46.41975 F1200
G1 X227.859 Y128.273 E46.42615 F1200
G1 X227.667 Y128.306 E46.43268 F1200
G1 X227.477 Y128.360 E46.43932 F1200
G1 X227.300 Y128.434 E46.44575 F1200
G1 X227.135 Y128.525 E46.45208 F1200
G1 X226.982 Y128.634 E46.45838 F1200
G1 X226.707 Y128.879 E46.47077 F1200
G1 X199.364 Y156.222 E47.77295 F1200
G1 X199.128 Y156.486 E47.78487 F1200
G1 X199.017 Y156.643 E47.79134 F1200
G1 X198.921 Y156.816 E47.79797 F1200
G1 X198.851 Y156.986 E47.80413 F1200
G1 X198.796 Y157.177 E47.81080 F1200
G1 X198.763 Y157.369 E47.81733 F1200
G1 X198.752 Y157.559 E47.82373 F1200
G1 X198.763 Y157.750 E47.83017 F1200
G1 X198.796 Y157.942 E47.83670 F1200
G1 X198.850 Y158.130 E47.84326 F1200
G1 X198.921 Y158.301 E47.84949 F1200
G1 X199.019 Y158.479 E47.85633 F1200
G1 X199.126 Y158.630 E47.86256 F1200
G1 X199.377 Y158.911 E47.87522 F1200
G1 X202.544 Y162.089 E48.02629 F1200
G1 X203.216 Y162.897 E48.06165 F1200
G1 X203.533 Y163.358 E48.08048 F1200
G1 X204.038 Y164.234 E48.11452 F1200
G1 X204.339 Y164.912 E48.13948 F1200
G1 X204.660 Y165.815 E48.17174 F1200
G1 X204.771 Y166.249 E48.18679 F1200
G1 X204.955 Y167.245 E48.22087 F1200
G1 X205.005 Y167.802 E48.23970 F1200
G1 X205.014 Y168.926 E48.27755 F1200
G1 X204.949 Y169.558 E48.29893 F1200
G1 X204.810 Y170.394 E48.32746 F1200
G1 X204.671 Y170.936 E48.34628 F1200
G1 X204.348 Y171.885 E48.38002 F1200
G1 X204.035 Y172.560 E48.40508 F1200
G1 X203.626 Y173.301 E48.43357 F1200
G1 X203.314 Y173.766 E48.45239 F1200
G1 X202.689 Y174.556 E48.48631 F1200
G1 X202.304 Y174.962 E48.50513 F1200
G1 X201.538 Y175.648 E48.53975 F1200
G1 X200.943 Y176.077 E48.56443 F1200
G1 X200.224 Y176.524 E48.59292 F1200
G1 X199.968 Y176.660 E48.60266 F1200
G1 X196.911 Y178.196 E48.71786 F1200
G1 X193.811 Y179.635 E48.83293 F1200
G1 X190.669 Y180.979 E48.94800 F1200
G1 X187.484 Y182.227 E49.06317 F1200
G1 X184.265 Y183.375 E49.17824 F1200
G1 X181.010 Y184.424 E49.29338 F1200
G1 X177.725 Y185.373 E49.40852 F1200
G1 X174.413 Y186.220 E49.52362 F1200
G1 X171.074 Y186.966 E49.63883 F1200
G1 X167.717 Y187.607 E49.75390 F1200
G1 X164.341 Y188.145 E49.86900 F1200
G1 X160.918 Y188.583 E49.98519 F1200
G1 X160.525 Y188.607 E49.99842 F1200
G1 X159.573 Y188.620 E50.03048 F1200
G1 X159.126 Y188.585 E50.04557 F1200
G1 X158.133 Y188.439 E50.07934 F1200
G1 X157.589 Y188.307 E50.09817 F1200
G1 X156.635 Y187.997 E50.13195 F1200
G1 X155.970 Y187.700 E50.15646 F1200
G1 X155.132 Y187.248 E50.18852 F1200
G1 X154.637 Y186.912 E50.20866 F1200
G1 X153.971 Y186.400 E50.23695 F1200
G1 X153.559 Y186.021 E50.25577 F1200
G1 X152.880 Y185.295 E50.28925 F1200
G1 X152.438 Y184.709 E50.31396 F1200
G1 X151.979 Y184.005 E50.34225 F1200
G1 X151.716 Y183.511 E50.36108 F1200
G1 X151.278 Y182.499 E50.39819 F1200
G1 X151.140 Y182.073 E50.41324 F1200
G1 X150.876 Y181.001 E50.45042 F1200
G1 X150.794 Y180.384 E50.47136 F1200
G1 X150.730 Y179.433 E50.50346 F1200
G1 Y173.280 E50.71067 F1200
G1 X146.270 E50.86086 F1200
G1 X146.261 Y179.695 E51.07689 F1200
G1 X146.169 Y180.718 E51.11148 F1200
G1 X146.027 Y181.438 E51.13616 F1200
G1 X145.807 Y182.250 E51.16448 F1200
G1 X145.613 Y182.775 E51.18331 F1200
G1 X145.202 Y183.676 E51.21665 F1200
G1 X144.924 Y184.162 E51.23547 F1200
G1 X144.368 Y184.983 E51.26884 F1200
G1 X144.014 Y185.416 E51.28767 F1200
G1 X143.311 Y186.148 E51.32182 F1200
G1 X142.887 Y186.515 E51.34067 F1200
G1 X141.996 Y187.168 E51.37785 F1200
G1 X141.611 Y187.397 E51.39291 F1200
G1 X140.728 Y187.846 E51.42624 F1200
G1 X140.208 Y188.054 E51.44510 F1200
G1 X139.244 Y188.353 E51.47908 F1200
G1 X138.696 Y188.470 E51.49794 F1200
G1 X137.702 Y188.602 E51.53168 F1200
G1 X137.142 Y188.625 E51.55054 F1200
G1 X136.140 Y188.588 E51.58429 F1200
G1 X135.859 Y188.558 E51.59378 F1200
G1 X132.469 Y188.118 E51.70889 F1200
G1 X129.094 Y187.574 E51.82399 F1200
G1 X125.736 Y186.926 E51.93913 F1200
G1 X122.400 Y186.175 E52.05427 F1200
G1 X119.089 Y185.322 E52.16940 F1200
G1 X115.805 Y184.368 E52.28454 F1200
G1 X112.554 Y183.313 E52.39961 F1200
G1 X109.334 Y182.159 E52.51478 F1200
G1 X106.154 Y180.906 E52.62985 F1200
G1 X103.014 Y179.557 E52.74492 F1200
G1 X99.914 Y178.111 E52.86010 F1200
G1 X96.834 Y176.556 E52.97628 F1200
G1 X96.488 Y176.351 E52.98982 F1200
G1 X95.779 Y175.890 E53.01827 F1200
G1 X95.208 Y175.429 E53.04296 F1200
G1 X94.587 Y174.854 E53.07145 F1200
G1 X94.211 Y174.439 E53.09030 F1200
G1 X93.584 Y173.623 E53.12496 F1200
G1 X93.285 Y173.150 E53.14378 F1200
G1 X92.814 Y172.260 E53.17766 F1200
G1 X92.598 Y171.743 E53.19652 F1200
G1 X92.279 Y170.764 E53.23117 F1200
G1 X92.155 Y170.218 E53.25000 F1200
G1 X92.009 Y169.225 E53.28377 F1200
G1 X91.978 Y168.666 E53.30260 F1200
G1 X92.005 Y167.633 E53.33738 F1200
G1 X92.071 Y167.077 E53.35621 F1200
G1 X92.295 Y165.975 E53.39406 F1200
G1 X92.426 Y165.546 E53.40915 F1200
G1 X92.787 Y164.601 E53.44319 F1200
G1 X93.034 Y164.098 E53.46205 F1200
G1 X93.560 Y163.214 E53.49667 F1200
G1 X93.889 Y162.762 E53.51550 F1200
G1 X94.545 Y161.992 E53.54954 F1200
G1 X97.623 Y158.911 E53.69620 F1200
G1 X97.874 Y158.630 E53.70886 F1200
G1 X97.981 Y158.479 E53.71509 F1200
G1 X98.079 Y158.301 E53.72193 F1200
G1 X98.150 Y158.130 E53.72816 F1200
G1 X98.204 Y157.942 E53.73473 F1200
G1 X98.237 Y157.750 E53.74126 F1200
G1 X98.248 Y157.559 E53.74769 F1200
G1 X98.237 Y157.369 E53.75409 F1200
G1 X98.204 Y157.177 E53.76062 F1200
G1 X98.149 Y156.986 E53.76729 F1200
G1 X98.079 Y156.816 E53.77345 F1200
G1 X97.983 Y156.643 E53.78009 F1200
G1 X97.872 Y156.486 E53.78655 F1200
G1 X97.636 Y156.222 E53.79848 F1200
G1 X70.293 Y128.879 E55.10065 F1200
G1 X70.018 Y128.634 E55.11305 F1200
G1 X69.865 Y128.525 E55.11934 F1200
G1 X69.700 Y128.434 E55.12568 F1200
G1 X69.523 Y128.360 E55.13211 F1200
G1 X69.333 Y128.306 E55.13874 F1200
G1 X69.141 Y128.273 E55.14527 F1200
G1 X68.951 Y128.262 E55.15167 F1200
G1 X68.760 Y128.273 E55.15811 F1200
G1 X68.568 Y128.306 E55.16464 F1200
G1 X68.378 Y128.360 E55.17127 F1200
G1 X68.201 Y128.434 E55.17770 F1200
G1 X68.036 Y128.525 E55.18404 F1200
G1 X67.883 Y128.634 E55.19033 F1200
G1 X67.608 Y128.879 E55.20273 F1200
G1 X64.420 Y132.054 E55.35423 F1200
G1 X63.613 Y132.725 E55.38956 F1200
G1 X63.152 Y133.042 E55.40838 F1200
G1 X62.276 Y133.547 E55.44243 F1200
G1 X61.609 Y133.844 E55.46701 F1200
G1 X60.706 Y134.167 E55.49931 F1200
G1 X60.099 Y134.314 E55.52032 F1200
G1 X59.265 Y134.465 E55.54885 F1200
G1 X58.530 Y134.521 E55.57367 F1200
G1 X57.684 Y134.527 E55.60216 F1200
G1 X57.126 Y134.482 E55.62098 F1200
G1 X56.128 Y134.323 E55.65499 F1200
G1 X55.586 Y134.185 E55.67382 F1200
G1 X54.603 Y133.847 E55.70881 F1200
G1 X54.093 Y133.618 E55.72763 F1200
G1 X53.132 Y133.089 E55.76454 F1200
G1 X52.616 Y132.727 E55.78576 F1200
G1 X51.870 Y132.125 E55.81802 F1200
G1 X51.424 Y131.680 E55.83923 F1200
G1 X50.862 Y131.048 E55.86769 F1200
G1 X50.433 Y130.453 E55.89237 F1200
G1 X49.986 Y129.734 E55.92086 F1200
G1 X49.849 Y129.477 E55.93066 F1200
G1 X48.298 Y126.387 E56.04708 F1200
G1 X46.841 Y123.247 E56.16363 F1200
G1 X45.486 Y120.067 E56.28002 F1200
G1 X44.229 Y116.846 E56.39644 F1200
G1 X43.072 Y113.587 E56.51289 F1200
G1 X42.018 Y110.294 E56.62930 F1200
G1 X41.066 Y106.970 E56.74572 F1200
G1 X40.218 Y103.619 E56.86211 F1200
G1 X39.474 Y100.240 E56.97859 F1200
G1 X38.836 Y96.841 E57.09504 F1200
G1 X38.303 Y93.423 E57.21153 F1200
G1 X37.878 Y89.993 E57.32791 F1200
G1 X37.559 Y86.550 E57.44433 F1200
G1 X37.347 Y83.097 E57.56081 F1200
G1 X37.243 Y79.641 E57.67723 F1200
G1 X37.246 Y76.184 E57.79365 F1200
G1 X37.356 Y72.727 E57.91010 F1200
G1 X37.574 Y69.276 E58.02652 F1200
G1 X37.899 Y65.835 E58.14290 F1200
G1 X38.331 Y62.403 E58.25939 F1200
G1 X38.869 Y58.987 E58.37584 F1200
G1 X39.513 Y55.587 E58.49235 F1200
G1 X40.263 Y52.213 E58.60874 F1200
G1 X41.117 Y48.862 E58.72519 F1200
G1 X42.075 Y45.538 E58.84167 F1200
G1 X43.135 Y42.248 E58.95806 F1200
G1 X44.297 Y38.991 E59.07451 F1200
G1 X45.559 Y35.772 E59.19093 F1200
G1 X46.922 Y32.592 E59.30741 F1200
G1 X48.382 Y29.458 E59.42383 F1200
G1 X50.008 Y26.247 E59.54503 F1200
; Inset XP 
G1 F1500 E51.54503
G0 X71.916 Y40.096 F7200
G1 F1500 E59.54503
G1 X71.857 Y39.585 E59.56349 F1200
G1 X71.708 Y39.083 E59.58228 F1200
G1 X71.477 Y38.625 E59.60067 F1200
G1 X71.169 Y38.208 E59.61928 F1200
G1 X70.792 Y37.853 E59.63785 F1200
G1 X70.362 Y37.570 E59.65631 F1200
G1 X69.886 Y37.363 E59.67496 F1200
G1 X69.391 Y37.245 E59.69320 F1200
G1 X69.025 Y37.213 E59.70639 F1200
G1 X68.355 Y37.273 E59.73053 F1200
G1 X67.856 Y37.421 E59.74920 F1200
G1 X67.395 Y37.653 E59.76774 F1200
G1 X66.978 Y37.962 E59.78638 F1200
G1 X66.624 Y38.338 E59.80492 F1200
G1 X66.341 Y38.768 E59.82338 F1200
G1 X66.134 Y39.244 E59.84202 F1200
G1 X66.016 Y39.745 E59.86049 F1200
G1 X65.984 Y40.267 E59.87924 F1200
G1 X66.044 Y40.775 E59.89759 F1200
G1 X66.192 Y41.273 E59.91624 F1200
G1 X66.423 Y41.735 E59.93477 F1200
G1 X66.733 Y42.152 E59.95341 F1200
G1 X67.109 Y42.506 E59.97195 F1200
G1 X67.540 Y42.789 E59.99045 F1200
G1 X68.017 Y42.996 E60.00909 F1200
G1 X68.516 Y43.114 E60.02748 F1200
G1 X69.037 Y43.146 E60.04620 F1200
G1 X69.545 Y43.086 E60.06455 F1200
G1 X70.046 Y42.937 E60.08330 F1200
G1 X70.507 Y42.706 E60.10180 F1200
G1 X70.919 Y42.399 E60.12023 F1200
G1 X71.277 Y42.021 E60.13891 F1200
G1 X71.560 Y41.590 E60.15741 F1200
G1 X71.767 Y41.113 E60.17605 F1200
G1 X71.885 Y40.612 E60.19452 F1200
G1 X71.916 Y40.096 E60.21305 F1200
G0 X71.343 Y40.155 F7200
G1 X71.302 Y39.740 E60.22803 F1200
G1 X71.191 Y39.336 E60.24305 F1200
G1 X71.010 Y38.961 E60.25799 F1200
G1 X70.768 Y38.622 E60.27293 F1200
G1 X70.469 Y38.330 E60.28791 F1200
G1 X70.126 Y38.095 E60.30282 F1200
G1 X69.746 Y37.922 E60.31780 F1200
G1 X69.341 Y37.819 E60.33278 F1200
G1 X68.975 Y37.787 E60.34596 F1200
G1 X68.511 Y37.828 E60.36266 F1200
G1 X68.109 Y37.939 E60.37764 F1200
G1 X67.732 Y38.120 E60.39266 F1200
G1 X67.392 Y38.363 E60.40763 F1200
G1 X67.101 Y38.661 E60.42258 F1200
G1 X66.866 Y39.004 E60.43749 F1200
G1 X66.693 Y39.384 E60.45246 F1200
G1 X66.590 Y39.788 E60.46741 F1200
G1 X66.557 Y40.206 E60.48246 F1200
G1 X66.599 Y40.619 E60.49737 F1200
G1 X66.710 Y41.021 E60.51234 F1200
G1 X66.891 Y41.398 E60.52736 F1200
G1 X67.133 Y41.738 E60.54234 F1200
G1 X67.431 Y42.029 E60.55728 F1200
G1 X67.775 Y42.264 E60.57222 F1200
G1 X68.157 Y42.437 E60.58728 F1200
G1 X68.559 Y42.540 E60.60215 F1200
G1 X68.976 Y42.573 E60.61716 F1200
G1 X69.390 Y42.531 E60.63210 F1200
G1 X69.794 Y42.420 E60.64712 F1200
G1 X70.169 Y42.239 E60.66206 F1200
G1 X70.507 Y41.997 E60.67697 F1200
G1 X70.800 Y41.699 E60.69195 F1200
G1 X71.035 Y41.355 E60.70689 F1200
G1 X71.208 Y40.973 E60.72194 F1200
G1 X71.311 Y40.570 E60.73685 F1200
G1 X71.343 Y40.155 E60.75179 F1200
G1 F1500 E52.75179
G0 X71.916 Y115.756 F7200
G1 F1500 E60.75179
G1 X71.857 Y115.243 E60.77033 F1200
G1 X71.709 Y114.747 E60.78890 F1200
G1 X71.476 Y114.282 E60.80758 F1200
G1 X71.172 Y113.874 E60.82583 F1200
G1 X70.790 Y113.511 E60.84472 F1200
G1 X70.360 Y113.230 E60.86315 F1200
G1 X69.887 Y113.024 E60.88165 F1200
G1 X69.391 Y112.905 E60.89997 F1200
G1 X69.025 Y112.873 E60.91315 F1200
G1 X68.353 Y112.934 E60.93736 F1200
G1 X67.857 Y113.082 E60.95593 F1200
G1 X67.398 Y113.312 E60.97436 F1200
G1 X66.975 Y113.624 E60.99322 F1200
G1 X66.626 Y113.997 E61.01154 F1200
G1 X66.341 Y114.429 E61.03011 F1200
G1 X66.134 Y114.906 E61.04875 F1200
G1 X66.016 Y115.405 E61.06714 F1200
G1 X65.984 Y115.927 E61.08589 F1200
G1 X66.044 Y116.437 E61.10432 F1200
G1 X66.193 Y116.934 E61.12293 F1200
G1 X66.423 Y117.392 E61.14132 F1200
G1 X66.731 Y117.809 E61.15993 F1200
G1 X67.109 Y118.167 E61.17861 F1200
G1 X67.540 Y118.450 E61.19711 F1200
G1 X68.017 Y118.657 E61.21575 F1200
G1 X68.518 Y118.775 E61.23421 F1200
G1 X69.034 Y118.806 E61.25275 F1200
G1 X69.545 Y118.747 E61.27121 F1200
G1 X70.047 Y118.598 E61.29000 F1200
G1 X70.505 Y118.367 E61.30839 F1200
G1 X70.922 Y118.058 E61.32703 F1200
G1 X71.277 Y117.680 E61.34564 F1200
G1 X71.560 Y117.250 E61.36410 F1200
G1 X71.767 Y116.774 E61.38274 F1200
G1 X71.885 Y116.273 E61.40121 F1200
G1 X71.916 Y115.756 E61.41978 F1200
G0 X71.343 Y115.815 F7200
G1 X71.302 Y115.400 E61.43476 F1200
G1 X71.191 Y114.999 E61.44970 F1200
G1 X71.009 Y114.620 E61.46479 F1200
G1 X70.769 Y114.286 E61.47955 F1200
G1 X70.469 Y113.989 E61.49471 F1200
G1 X70.124 Y113.755 E61.50965 F1200
G1 X69.746 Y113.583 E61.52456 F1200
G1 X69.341 Y113.479 E61.53958 F1200
G1 X68.975 Y113.447 E61.55276 F1200
G1 X68.510 Y113.488 E61.56950 F1200
G1 X68.109 Y113.600 E61.58444 F1200
G1 X67.734 Y113.780 E61.59935 F1200
G1 X67.391 Y114.024 E61.61444 F1200
G1 X67.102 Y114.322 E61.62934 F1200
G1 X66.866 Y114.664 E61.64425 F1200
G1 X66.693 Y115.047 E61.65934 F1200
G1 X66.590 Y115.448 E61.67421 F1200
G1 X66.557 Y115.866 E61.68926 F1200
G1 X66.599 Y116.280 E61.70420 F1200
G1 X66.710 Y116.682 E61.71918 F1200
G1 X66.891 Y117.056 E61.73409 F1200
G1 X67.133 Y117.397 E61.74910 F1200
G1 X67.431 Y117.690 E61.76408 F1200
G1 X67.775 Y117.925 E61.77902 F1200
G1 X68.157 Y118.098 E61.79408 F1200
G1 X68.560 Y118.201 E61.80898 F1200
G1 X68.975 Y118.233 E61.82393 F1200
G1 X69.390 Y118.192 E61.83891 F1200
G1 X69.794 Y118.081 E61.85392 F1200
G1 X70.169 Y117.900 E61.86886 F1200
G1 X70.508 Y117.658 E61.88381 F1200
G1 X70.800 Y117.358 E61.89882 F1200
G1 X71.035 Y117.014 E61.91376 F1200
G1 X71.208 Y116.634 E61.92874 F1200
G1 X71.311 Y116.231 E61.94365 F1200
G1 X71.343 Y115.815 E61.95863 F1200
G1 F1500 E53.95863
G0 X123.223 Y121.001 F7200
G1 F1500 E61.95863
G1 X123.209 Y120.412 E61.97979 F1200
G1 X123.092 Y119.835 E62.00091 F1200
G1 X122.877 Y119.293 E62.02185 F1200
G1 X122.575 Y118.796 E62.04272 F1200
G1 X122.260 Y118.424 E62.06021 F1200
G1 X108.023 Y104.193 E62.78327 F1200
G1 X107.583 Y103.844 E62.80342 F1200
G1 X107.069 Y103.563 E62.82443 F1200
G1 X106.523 Y103.376 E62.84516 F1200
G1 X106.091 Y103.299 E62.86089 F1200
G1 X105.343 Y103.301 E62.88776 F1200
G1 X104.765 Y103.418 E62.90892 F1200
G1 X104.223 Y103.633 E62.92986 F1200
G1 X103.726 Y103.934 E62.95073 F1200
G1 X103.354 Y104.249 E62.96822 F1200
G1 X83.404 Y124.238 E63.98267 F1200
G1 X83.350 Y124.361 E63.98748 F1200
G1 X83.284 Y124.660 E63.99847 F1200
G1 X83.301 Y124.806 E64.00372 F1200
G1 X83.383 Y125.079 E64.01395 F1200
G1 X83.537 Y125.291 E64.02337 F1200
G1 X101.390 Y143.105 E64.92929 F1200
G1 X101.513 Y143.159 E64.93411 F1200
G1 X101.812 Y143.225 E64.94510 F1200
G1 X101.958 Y143.208 E64.95034 F1200
G1 X102.231 Y143.126 E64.96058 F1200
G1 X102.443 Y142.973 E64.96995 F1200
G1 X122.316 Y123.093 E65.97966 F1200
G1 X122.665 Y122.653 E65.99981 F1200
G1 X122.947 Y122.137 E66.02093 F1200
G1 X123.134 Y121.583 E66.04191 F1200
G1 X123.223 Y121.001 E66.06303 F1200
G0 X123.614 Y121.227 F7200
G1 X123.673 Y121.738 E66.08149 F1200
G1 X123.822 Y122.240 E66.10028 F1200
G1 X124.053 Y122.698 E66.11867 F1200
G1 X124.361 Y123.115 E66.13728 F1200
G1 X124.738 Y123.470 E66.15585 F1200
G1 X125.168 Y123.753 E66.17431 F1200
G1 X125.645 Y123.960 E66.19295 F1200
G1 X125.987 Y124.044 E66.20560 F1200
G1 X104.618 Y145.451 E67.29210 F1200
G1 X104.564 Y145.574 E67.29691 F1200
G1 X104.498 Y145.873 E67.30791 F1200
G1 X104.515 Y146.019 E67.31315 F1200
G1 X104.597 Y146.292 E67.32339 F1200
G1 X104.750 Y146.504 E67.33276 F1200
G1 X113.201 Y154.956 E67.76209 F1200
G1 X113.579 Y155.393 E67.78282 F1200
G1 X113.852 Y155.816 E67.80088 F1200
G1 X114.074 Y156.300 E67.81999 F1200
G1 X114.217 Y156.785 E67.83813 F1200
G1 X114.289 Y157.293 E67.85656 F1200
G1 Y157.826 E67.87571 F1200
G1 X114.218 Y158.329 E67.89392 F1200
G1 X114.074 Y158.819 E67.91224 F1200
G1 X113.852 Y159.303 E67.93135 F1200
G1 X113.579 Y159.727 E67.94945 F1200
G1 X113.206 Y160.158 E67.96989 F1200
G1 X109.074 Y164.295 E68.17992 F1200
G1 X108.744 Y164.706 E68.19885 F1200
G1 X108.472 Y165.183 E68.21857 F1200
G1 X108.283 Y165.695 E68.23815 F1200
G1 X108.176 Y166.241 E68.25812 F1200
G1 X108.163 Y166.789 E68.27781 F1200
G1 X108.238 Y167.331 E68.29746 F1200
G1 X108.400 Y167.858 E68.31725 F1200
G1 X108.645 Y168.348 E68.33690 F1200
G1 X108.968 Y168.794 E68.35665 F1200
G1 X109.360 Y169.182 E68.37645 F1200
G1 X109.803 Y169.496 E68.39591 F1200
G1 X110.224 Y169.708 E68.41283 F1200
G1 X113.009 Y170.821 E68.52056 F1200
G1 X115.810 Y171.846 E68.62768 F1200
G1 X118.641 Y172.785 E68.73479 F1200
G1 X121.500 Y173.639 E68.84194 F1200
G1 X124.381 Y174.404 E68.94899 F1200
G1 X127.286 Y175.086 E69.05614 F1200
G1 X130.283 Y175.690 E69.16595 F1200
G1 X130.962 Y175.751 E69.19041 F1200
G1 X131.658 Y175.702 E69.21545 F1200
G1 X132.334 Y175.542 E69.24038 F1200
G1 X132.978 Y175.278 E69.26538 F1200
G1 X133.576 Y174.912 E69.29056 F1200
G1 X134.101 Y174.459 E69.31545 F1200
G1 X134.552 Y173.925 E69.34053 F1200
G1 X134.907 Y173.331 E69.36535 F1200
G1 X135.169 Y172.686 E69.39035 F1200
G1 X135.323 Y172.007 E69.41535 F1200
G1 X135.368 Y171.404 E69.43705 F1200
G1 Y165.071 E69.66453 F1200
G1 X135.399 Y164.717 E69.67729 F1200
G1 X135.468 Y164.460 E69.68684 F1200
G1 X135.590 Y164.200 E69.69715 F1200
G1 X135.758 Y163.958 E69.70771 F1200
G1 X135.947 Y163.770 E69.71727 F1200
G1 X136.202 Y163.591 E69.72844 F1200
G1 X136.435 Y163.483 E69.73763 F1200
G1 X136.713 Y163.408 E69.74794 F1200
G1 X137.059 Y163.378 E69.76041 F1200
G1 X159.941 E70.58235 F1200
G1 X160.287 Y163.408 E70.59482 F1200
G1 X160.565 Y163.483 E70.60512 F1200
G1 X160.798 Y163.591 E70.61432 F1200
G1 X161.053 Y163.770 E70.62549 F1200
G1 X161.242 Y163.958 E70.63505 F1200
G1 X161.410 Y164.200 E70.64561 F1200
G1 X161.532 Y164.460 E70.65592 F1200
G1 X161.601 Y164.717 E70.66547 F1200
G1 X161.632 Y165.071 E70.67822 F1200
G1 X161.635 Y171.476 E70.90830 F1200
G1 X161.700 Y172.153 E70.93272 F1200
G1 X161.878 Y172.826 E70.95772 F1200
G1 X162.158 Y173.459 E70.98258 F1200
G1 X162.539 Y174.047 E71.00773 F1200
G1 X163.003 Y174.561 E71.03258 F1200
G1 X163.549 Y174.999 E71.05769 F1200
G1 X164.153 Y175.341 E71.08262 F1200
G1 X164.807 Y175.585 E71.10769 F1200
G1 X165.491 Y175.723 E71.13273 F1200
G1 X166.184 Y175.747 E71.15762 F1200
G1 X166.800 Y175.677 E71.17986 F1200
G1 X169.741 Y175.080 E71.28762 F1200
G1 X172.643 Y174.398 E71.39470 F1200
G1 X175.527 Y173.633 E71.50186 F1200
G1 X178.385 Y172.776 E71.60901 F1200
G1 X181.214 Y171.837 E71.71605 F1200
G1 X184.015 Y170.812 E71.82317 F1200
G1 X186.859 Y169.671 E71.93323 F1200
G1 X187.322 Y169.417 E71.95220 F1200
G1 X187.757 Y169.079 E71.97195 F1200
G1 X188.132 Y168.672 E71.99182 F1200
G1 X188.430 Y168.216 E72.01136 F1200
G1 X188.655 Y167.711 E72.03119 F1200
G1 X188.792 Y167.182 E72.05080 F1200
G1 X188.842 Y166.633 E72.07059 F1200
G1 X188.802 Y166.083 E72.09038 F1200
G1 X188.673 Y165.550 E72.11007 F1200
G1 X188.460 Y165.044 E72.12979 F1200
G1 X188.171 Y164.585 E72.14926 F1200
G1 X187.873 Y164.235 E72.16575 F1200
G1 X183.794 Y160.158 E72.37290 F1200
G1 X183.421 Y159.727 E72.39334 F1200
G1 X183.148 Y159.303 E72.41145 F1200
G1 X182.926 Y158.819 E72.43056 F1200
G1 X182.782 Y158.329 E72.44887 F1200
G1 X182.711 Y157.826 E72.46709 F1200
G1 Y157.293 E72.48623 F1200
G1 X182.783 Y156.785 E72.50466 F1200
G1 X182.926 Y156.300 E72.52280 F1200
G1 X183.148 Y155.816 E72.54191 F1200
G1 X183.421 Y155.393 E72.55998 F1200
G1 X183.811 Y154.942 E72.58139 F1200
G1 X192.382 Y146.333 E73.01775 F1200
G1 X192.436 Y146.210 E73.02257 F1200
G1 X192.502 Y145.911 E73.03356 F1200
G1 X192.485 Y145.765 E73.03880 F1200
G1 X192.403 Y145.492 E73.04904 F1200
G1 X192.250 Y145.280 E73.05842 F1200
G1 X170.998 Y124.054 E74.13734 F1200
G1 X171.517 Y123.901 E74.15677 F1200
G1 X171.975 Y123.670 E74.17516 F1200
G1 X172.392 Y123.362 E74.19377 F1200
G1 X172.747 Y122.985 E74.21234 F1200
G1 X173.030 Y122.555 E74.23081 F1200
G1 X173.237 Y122.078 E74.24945 F1200
G1 X173.355 Y121.576 E74.26795 F1200
G1 X173.386 Y121.059 E74.28652 F1200
G1 X173.327 Y120.548 E74.30498 F1200
G1 X173.179 Y120.049 E74.32366 F1200
G1 X172.947 Y119.588 E74.34220 F1200
G1 X172.638 Y119.171 E74.36084 F1200
G1 X172.262 Y118.817 E74.37937 F1200
G1 X171.832 Y118.534 E74.39784 F1200
G1 X171.356 Y118.327 E74.41648 F1200
G1 X170.864 Y118.209 E74.43462 F1200
G1 X170.446 Y118.176 E74.44967 F1200
G1 X169.823 Y118.237 E74.47212 F1200
G1 X169.327 Y118.385 E74.49069 F1200
G1 X168.865 Y118.616 E74.50923 F1200
G1 X168.448 Y118.926 E74.52787 F1200
G1 X168.094 Y119.302 E74.54641 F1200
G1 X167.811 Y119.733 E74.56491 F1200
G1 X167.604 Y120.210 E74.58355 F1200
G1 X167.520 Y120.551 E74.59616 F1200
G1 X157.115 Y110.183 E75.12376 F1200
G1 X156.874 Y110.087 E75.13307 F1200
G1 X140.113 Y110.090 E75.73514 F1200
G1 X140.048 Y110.115 E75.73762 F1200
G1 X139.740 Y110.294 E75.75040 F1200
G1 X129.491 Y120.566 E76.27162 F1200
G1 X129.338 Y120.050 E76.29094 F1200
G1 X129.107 Y119.588 E76.30948 F1200
G1 X128.797 Y119.171 E76.32812 F1200
G1 X128.421 Y118.817 E76.34666 F1200
G1 X127.991 Y118.534 E76.36512 F1200
G1 X127.514 Y118.327 E76.38376 F1200
G1 X127.024 Y118.209 E76.40187 F1200
G1 X126.606 Y118.176 E76.41692 F1200
G1 X125.985 Y118.237 E76.43930 F1200
G1 X125.484 Y118.386 E76.45805 F1200
G1 X125.023 Y118.617 E76.47655 F1200
G1 X124.611 Y118.924 E76.49497 F1200
G1 X124.253 Y119.302 E76.51365 F1200
G1 X123.970 Y119.733 E76.53215 F1200
G1 X123.763 Y120.210 E76.55080 F1200
G1 X123.645 Y120.711 E76.56926 F1200
G1 X123.614 Y121.227 E76.58779 F1200
G0 X124.187 Y121.168 F7200
G1 X124.228 Y121.583 E76.60277 F1200
G1 X124.339 Y121.987 E76.61779 F1200
G1 X124.520 Y122.362 E76.63273 F1200
G1 X124.762 Y122.701 E76.64767 F1200
G1 X125.061 Y122.993 E76.66265 F1200
G1 X125.404 Y123.228 E76.67756 F1200
G1 X125.784 Y123.401 E76.69254 F1200
G1 X126.189 Y123.504 E76.70752 F1200
G1 X126.605 Y123.536 E76.72250 F1200
G1 X127.020 Y123.495 E76.73748 F1200
G1 X127.421 Y123.384 E76.75242 F1200
G1 X127.798 Y123.203 E76.76743 F1200
G1 X128.138 Y122.960 E76.78241 F1200
G1 X128.429 Y122.662 E76.79736 F1200
G1 X128.664 Y122.319 E76.81226 F1200
G1 X128.837 Y121.939 E76.82724 F1200
G1 X128.940 Y121.535 E76.84219 F1200
G1 X128.973 Y121.117 E76.85724 F1200
G1 X128.931 Y120.704 E76.87214 F1200
G1 X128.820 Y120.302 E76.88712 F1200
G1 X128.639 Y119.925 E76.90214 F1200
G1 X128.397 Y119.585 E76.91712 F1200
G1 X128.099 Y119.294 E76.93206 F1200
G1 X127.755 Y119.059 E76.94700 F1200
G1 X127.373 Y118.886 E76.96205 F1200
G1 X126.972 Y118.783 E76.97693 F1200
G1 X126.606 Y118.750 E76.99011 F1200
G1 X126.140 Y118.792 E77.00688 F1200
G1 X125.736 Y118.903 E77.02190 F1200
G1 X125.361 Y119.084 E77.03684 F1200
G1 X125.023 Y119.326 E77.05175 F1200
G1 X124.730 Y119.624 E77.06673 F1200
G1 X124.495 Y119.968 E77.08167 F1200
G1 X124.322 Y120.350 E77.09672 F1200
G1 X124.219 Y120.753 E77.11163 F1200
G1 X124.187 Y121.168 E77.12657 F1200
G1 F1500 E69.12657
G0 X113.636 Y157.472 F7200
G1 F1500 E77.12657
G1 X113.576 Y156.964 E77.14493 F1200
G1 X113.428 Y156.466 E77.16357 F1200
G1 X113.197 Y156.004 E77.18211 F1200
G1 X112.887 Y155.587 E77.20075 F1200
G1 X112.511 Y155.233 E77.21928 F1200
G1 X112.081 Y154.950 E77.23775 F1200
G1 X111.604 Y154.743 E77.25639 F1200
G1 X111.114 Y154.625 E77.27449 F1200
G1 X110.748 Y154.592 E77.28768 F1200
G1 X110.073 Y154.653 E77.31200 F1200
G1 X109.576 Y154.802 E77.33060 F1200
G1 X109.118 Y155.032 E77.34899 F1200
G1 X108.701 Y155.340 E77.36760 F1200
G1 X108.343 Y155.718 E77.38628 F1200
G1 X108.060 Y156.149 E77.40478 F1200
G1 X107.853 Y156.626 E77.42342 F1200
G1 X107.735 Y157.127 E77.44189 F1200
G1 X107.704 Y157.643 E77.46042 F1200
G1 X107.763 Y158.154 E77.47888 F1200
G1 X107.912 Y158.656 E77.49767 F1200
G1 X108.143 Y159.114 E77.51606 F1200
G1 X108.452 Y159.531 E77.53471 F1200
G1 X108.830 Y159.886 E77.55331 F1200
G1 X109.260 Y160.169 E77.57178 F1200
G1 X109.736 Y160.376 E77.59042 F1200
G1 X110.237 Y160.494 E77.60888 F1200
G1 X110.754 Y160.525 E77.62745 F1200
G1 X111.267 Y160.466 E77.64599 F1200
G1 X111.764 Y160.318 E77.66460 F1200
G1 X112.225 Y160.086 E77.68313 F1200
G1 X112.642 Y159.777 E77.70177 F1200
G1 X112.996 Y159.401 E77.72031 F1200
G1 X113.279 Y158.971 E77.73877 F1200
G1 X113.486 Y158.495 E77.75742 F1200
G1 X113.604 Y157.994 E77.77588 F1200
G1 X113.636 Y157.472 E77.79463 F1200
G0 X113.063 Y157.533 F7200
G1 X113.021 Y157.120 E77.80954 F1200
G1 X112.910 Y156.718 E77.82452 F1200
G1 X112.729 Y156.341 E77.83953 F1200
G1 X112.487 Y156.001 E77.85451 F1200
G1 X112.189 Y155.710 E77.86945 F1200
G1 X111.845 Y155.475 E77.88440 F1200
G1 X111.463 Y155.302 E77.89945 F1200
G1 X111.062 Y155.199 E77.91432 F1200
G1 X110.696 Y155.166 E77.92750 F1200
G1 X110.230 Y155.208 E77.94428 F1200
G1 X109.828 Y155.319 E77.95926 F1200
G1 X109.454 Y155.500 E77.97416 F1200
G1 X109.113 Y155.742 E77.98918 F1200
G1 X108.820 Y156.040 E78.00416 F1200
G1 X108.585 Y156.384 E78.01910 F1200
G1 X108.412 Y156.766 E78.03415 F1200
G1 X108.309 Y157.169 E78.04906 F1200
G1 X108.277 Y157.584 E78.06400 F1200
G1 X108.318 Y157.999 E78.07898 F1200
G1 X108.429 Y158.403 E78.09400 F1200
G1 X108.610 Y158.778 E78.10894 F1200
G1 X108.852 Y159.117 E78.12388 F1200
G1 X109.152 Y159.409 E78.13890 F1200
G1 X109.496 Y159.644 E78.15384 F1200
G1 X109.876 Y159.817 E78.16882 F1200
G1 X110.279 Y159.920 E78.18373 F1200
G1 X110.695 Y159.952 E78.19870 F1200
G1 X111.110 Y159.911 E78.21368 F1200
G1 X111.511 Y159.800 E78.22863 F1200
G1 X111.888 Y159.619 E78.24364 F1200
G1 X112.228 Y159.376 E78.25862 F1200
G1 X112.519 Y159.078 E78.27356 F1200
G1 X112.754 Y158.735 E78.28847 F1200
G1 X112.927 Y158.355 E78.30345 F1200
G1 X113.030 Y157.951 E78.31839 F1200
G1 X113.063 Y157.533 E78.33344 F1200
G1 F1500 E70.33344
G0 X189.296 Y157.475 F7200
G1 F1500 E78.33344
G1 X189.237 Y156.964 E78.35191 F1200
G1 X189.089 Y156.465 E78.37059 F1200
G1 X188.857 Y156.004 E78.38912 F1200
G1 X188.547 Y155.587 E78.40776 F1200
G1 X188.170 Y155.233 E78.42634 F1200
G1 X187.740 Y154.950 E78.44480 F1200
G1 X187.264 Y154.743 E78.46344 F1200
G1 X186.774 Y154.625 E78.48155 F1200
G1 X186.408 Y154.592 E78.49473 F1200
G1 X185.733 Y154.653 E78.51905 F1200
G1 X185.237 Y154.801 E78.53762 F1200
G1 X184.775 Y155.032 E78.55615 F1200
G1 X184.358 Y155.342 E78.57480 F1200
G1 X184.004 Y155.718 E78.59333 F1200
G1 X183.721 Y156.149 E78.61183 F1200
G1 X183.514 Y156.626 E78.63047 F1200
G1 X183.396 Y157.125 E78.64887 F1200
G1 X183.364 Y157.646 E78.66758 F1200
G1 X183.424 Y158.154 E78.68594 F1200
G1 X183.573 Y158.655 E78.70469 F1200
G1 X183.804 Y159.116 E78.72319 F1200
G1 X184.111 Y159.528 E78.74161 F1200
G1 X184.489 Y159.886 E78.76029 F1200
G1 X184.920 Y160.169 E78.77879 F1200
G1 X185.397 Y160.376 E78.79744 F1200
G1 X185.897 Y160.494 E78.81586 F1200
G1 X186.414 Y160.525 E78.83443 F1200
G1 X186.927 Y160.466 E78.85297 F1200
G1 X187.425 Y160.317 E78.87161 F1200
G1 X187.881 Y160.087 E78.88993 F1200
G1 X188.302 Y159.778 E78.90868 F1200
G1 X188.657 Y159.401 E78.92725 F1200
G1 X188.940 Y158.971 E78.94572 F1200
G1 X189.147 Y158.494 E78.96436 F1200
G1 X189.265 Y157.992 E78.98286 F1200
G1 X189.296 Y157.475 E79.00143 F1200
G0 X188.723 Y157.534 F7200
G1 X188.682 Y157.120 E79.01637 F1200
G1 X188.571 Y156.718 E79.03135 F1200
G1 X188.390 Y156.341 E79.04637 F1200
G1 X188.147 Y156.001 E79.06135 F1200
G1 X187.848 Y155.710 E79.07633 F1200
G1 X187.504 Y155.475 E79.09127 F1200
G1 X187.124 Y155.302 E79.10625 F1200
G1 X186.722 Y155.199 E79.12112 F1200
G1 X186.356 Y155.166 E79.13430 F1200
G1 X185.890 Y155.208 E79.15108 F1200
G1 X185.489 Y155.319 E79.16602 F1200
G1 X185.112 Y155.500 E79.18103 F1200
G1 X184.772 Y155.742 E79.19601 F1200
G1 X184.481 Y156.040 E79.21096 F1200
G1 X184.246 Y156.384 E79.22590 F1200
G1 X184.073 Y156.766 E79.24095 F1200
G1 X183.970 Y157.168 E79.25582 F1200
G1 X183.937 Y157.585 E79.27084 F1200
G1 X183.979 Y157.999 E79.28578 F1200
G1 X184.090 Y158.403 E79.30080 F1200
G1 X184.271 Y158.778 E79.31574 F1200
G1 X184.513 Y159.116 E79.33065 F1200
G1 X184.811 Y159.409 E79.34562 F1200
G1 X185.155 Y159.644 E79.36057 F1200
G1 X185.537 Y159.817 E79.37562 F1200
G1 X185.939 Y159.920 E79.39049 F1200
G1 X186.355 Y159.952 E79.40547 F1200
G1 X186.770 Y159.911 E79.42045 F1200
G1 X187.172 Y159.800 E79.43543 F1200
G1 X187.546 Y159.619 E79.45033 F1200
G1 X187.888 Y159.377 E79.46535 F1200
G1 X188.180 Y159.078 E79.48033 F1200
G1 X188.415 Y158.735 E79.49524 F1200
G1 X188.588 Y158.355 E79.51021 F1200
G1 X188.691 Y157.950 E79.52519 F1200
G1 X188.723 Y157.534 E79.54017 F1200
G1 F1500 E71.54017
G0 X213.716 Y124.698 F7200
G1 F1500 E79.54017
G1 X213.699 Y124.552 E79.54542 F1200
G1 X213.617 Y124.279 E79.55565 F1200
G1 X213.464 Y124.067 E79.56503 F1200
G1 X193.583 Y104.193 E80.57480 F1200
G1 X193.143 Y103.844 E80.59496 F1200
G1 X192.629 Y103.563 E80.61597 F1200
G1 X192.083 Y103.376 E80.63670 F1200
G1 X191.651 Y103.299 E80.65243 F1200
G1 X190.903 Y103.301 E80.67930 F1200
G1 X190.325 Y103.418 E80.70045 F1200
G1 X189.783 Y103.633 E80.72140 F1200
G1 X189.286 Y103.934 E80.74227 F1200
G1 X188.914 Y104.249 E80.75976 F1200
G1 X174.684 Y118.487 E81.48281 F1200
G1 X174.335 Y118.926 E81.50293 F1200
G1 X174.053 Y119.442 E81.52405 F1200
G1 X173.866 Y119.996 E81.54503 F1200
G1 X173.777 Y120.578 E81.56615 F1200
G1 X173.791 Y121.167 E81.58731 F1200
G1 X173.908 Y121.742 E81.60836 F1200
G1 X174.123 Y122.287 E81.62937 F1200
G1 X174.425 Y122.784 E81.65024 F1200
G1 X174.740 Y123.156 E81.66773 F1200
G1 X194.728 Y143.105 E82.68211 F1200
G1 X194.851 Y143.159 E82.68692 F1200
G1 X195.150 Y143.225 E82.69791 F1200
G1 X195.296 Y143.208 E82.70316 F1200
G1 X195.569 Y143.126 E82.71339 F1200
G1 X195.781 Y142.973 E82.72277 F1200
G1 X213.596 Y125.120 E83.62873 F1200
G1 X213.650 Y124.997 E83.63354 F1200
G1 X213.716 Y124.698 E83.64454 F1200
G0 X213.140 Y124.689 F7200
G1 X213.109 Y124.550 E83.64964 F1200
G1 X213.056 Y124.475 E83.65291 F1200
G1 X193.219 Y104.640 E84.66056 F1200
G1 X192.861 Y104.346 E84.67719 F1200
G1 X192.438 Y104.106 E84.69465 F1200
G1 X191.981 Y103.944 E84.71203 F1200
G1 X191.549 Y103.867 E84.72777 F1200
G1 X191.011 E84.74709 F1200
G1 X190.531 Y103.957 E84.76462 F1200
G1 X190.077 Y104.128 E84.78204 F1200
G1 X189.658 Y104.374 E84.79947 F1200
G1 X189.322 Y104.657 E84.81524 F1200
G1 X175.131 Y118.851 E85.53620 F1200
G1 X174.837 Y119.209 E85.55284 F1200
G1 X174.596 Y119.632 E85.57029 F1200
G1 X174.434 Y120.089 E85.58768 F1200
G1 X174.353 Y120.571 E85.60521 F1200
G1 X174.357 Y121.059 E85.62274 F1200
G1 X174.447 Y121.537 E85.64020 F1200
G1 X174.618 Y121.993 E85.65769 F1200
G1 X174.865 Y122.412 E85.67515 F1200
G1 X175.148 Y122.748 E85.69092 F1200
G1 X195.022 Y142.609 E86.70015 F1200
G1 X195.159 Y142.649 E86.70525 F1200
G1 X195.298 Y142.618 E86.71035 F1200
G1 X195.373 Y142.565 E86.71362 F1200
G1 X213.100 Y124.826 E87.61445 F1200
G1 X213.140 Y124.689 E87.61955 F1200
G1 F1500 E79.61955
G0 X231.016 Y115.753 F7200
G1 F1500 E87.61955
G1 X230.956 Y115.243 E87.63797 F1200
G1 X230.808 Y114.747 E87.65655 F1200
G1 X230.574 Y114.282 E87.67522 F1200
G1 X230.270 Y113.874 E87.69347 F1200
G1 X229.890 Y113.513 E87.71230 F1200
G1 X229.460 Y113.230 E87.73076 F1200
G1 X228.985 Y113.024 E87.74933 F1200
G1 X228.490 Y112.905 E87.76761 F1200
G1 X228.125 Y112.873 E87.78076 F1200
G1 X227.453 Y112.933 E87.80497 F1200
G1 X226.954 Y113.082 E87.82365 F1200
G1 X226.498 Y113.311 E87.84197 F1200
G1 X226.074 Y113.624 E87.86090 F1200
G1 X225.725 Y113.997 E87.87922 F1200
G1 X225.439 Y114.429 E87.89783 F1200
G1 X225.233 Y114.907 E87.91651 F1200
G1 X225.115 Y115.407 E87.93493 F1200
G1 X225.084 Y115.924 E87.95350 F1200
G1 X225.143 Y116.437 E87.97204 F1200
G1 X225.292 Y116.935 E87.99068 F1200
G1 X225.522 Y117.391 E88.00900 F1200
G1 X225.831 Y117.812 E88.02775 F1200
G1 X226.208 Y118.167 E88.04632 F1200
G1 X226.638 Y118.450 E88.06479 F1200
G1 X227.115 Y118.657 E88.08343 F1200
G1 X227.617 Y118.775 E88.10193 F1200
G1 X228.134 Y118.806 E88.12050 F1200
G1 X228.645 Y118.747 E88.13896 F1200
G1 X229.144 Y118.599 E88.15764 F1200
G1 X229.605 Y118.367 E88.17618 F1200
G1 X230.022 Y118.057 E88.19482 F1200
G1 X230.376 Y117.680 E88.21339 F1200
G1 X230.659 Y117.250 E88.23186 F1200
G1 X230.866 Y116.774 E88.25050 F1200
G1 X230.984 Y116.275 E88.26889 F1200
G1 X231.016 Y115.753 E88.28764 F1200
G0 X230.443 Y115.814 F7200
G1 X230.401 Y115.400 E88.30258 F1200
G1 X230.290 Y114.999 E88.31753 F1200
G1 X230.108 Y114.620 E88.33261 F1200
G1 X229.868 Y114.286 E88.34738 F1200
G1 X229.568 Y113.990 E88.36250 F1200
G1 X229.224 Y113.755 E88.37744 F1200
G1 X228.844 Y113.583 E88.39242 F1200
G1 X228.440 Y113.479 E88.40740 F1200
G1 X228.075 Y113.447 E88.42055 F1200
G1 X227.610 Y113.488 E88.43729 F1200
G1 X227.206 Y113.600 E88.45234 F1200
G1 X226.834 Y113.779 E88.46714 F1200
G1 X226.490 Y114.024 E88.48230 F1200
G1 X226.201 Y114.322 E88.49720 F1200
G1 X225.965 Y114.664 E88.51211 F1200
G1 X225.792 Y115.047 E88.52720 F1200
G1 X225.689 Y115.449 E88.54207 F1200
G1 X225.657 Y115.865 E88.55705 F1200
G1 X225.698 Y116.280 E88.57203 F1200
G1 X225.809 Y116.682 E88.58701 F1200
G1 X225.990 Y117.056 E88.60191 F1200
G1 X226.232 Y117.398 E88.61693 F1200
G1 X226.531 Y117.690 E88.63191 F1200
G1 X226.874 Y117.925 E88.64681 F1200
G1 X227.254 Y118.098 E88.66179 F1200
G1 X227.659 Y118.201 E88.67677 F1200
G1 X228.075 Y118.233 E88.69175 F1200
G1 X228.489 Y118.192 E88.70669 F1200
G1 X228.891 Y118.081 E88.72167 F1200
G1 X229.268 Y117.900 E88.73669 F1200
G1 X229.608 Y117.657 E88.75167 F1200
G1 X229.899 Y117.358 E88.76665 F1200
G1 X230.134 Y117.014 E88.78159 F1200
G1 X230.307 Y116.634 E88.79657 F1200
G1 X230.410 Y116.232 E88.81144 F1200
G1 X230.443 Y115.814 E88.82649 F1200
G1 F1500 E80.82649
G0 X231.016 Y40.093 F7200
G1 F1500 E88.82649
G1 X230.956 Y39.585 E88.84485 F1200
G1 X230.807 Y39.084 E88.86360 F1200
G1 X230.576 Y38.623 E88.88210 F1200
G1 X230.269 Y38.211 E88.90052 F1200
G1 X229.891 Y37.853 E88.91920 F1200
G1 X229.460 Y37.570 E88.93770 F1200
G1 X228.983 Y37.363 E88.95635 F1200
G1 X228.490 Y37.245 E88.97452 F1200
G1 X228.125 Y37.213 E88.98767 F1200
G1 X227.455 Y37.273 E89.01181 F1200
G1 X226.953 Y37.422 E89.03059 F1200
G1 X226.495 Y37.653 E89.04899 F1200
G1 X226.078 Y37.961 E89.06759 F1200
G1 X225.723 Y38.338 E89.08616 F1200
G1 X225.440 Y38.768 E89.10463 F1200
G1 X225.233 Y39.245 E89.12327 F1200
G1 X225.115 Y39.747 E89.14177 F1200
G1 X225.084 Y40.264 E89.16034 F1200
G1 X225.143 Y40.775 E89.17880 F1200
G1 X225.291 Y41.274 E89.19748 F1200
G1 X225.523 Y41.735 E89.21602 F1200
G1 X225.832 Y42.152 E89.23466 F1200
G1 X226.208 Y42.506 E89.25320 F1200
G1 X226.638 Y42.789 E89.27166 F1200
G1 X227.114 Y42.996 E89.29030 F1200
G1 X227.615 Y43.114 E89.30877 F1200
G1 X228.137 Y43.146 E89.32752 F1200
G1 X228.645 Y43.086 E89.34587 F1200
G1 X229.143 Y42.938 E89.36452 F1200
G1 X229.605 Y42.707 E89.38305 F1200
G1 X230.022 Y42.397 E89.40169 F1200
G1 X230.376 Y42.021 E89.42023 F1200
G1 X230.659 Y41.590 E89.43873 F1200
G1 X230.866 Y41.113 E89.45737 F1200
G1 X230.984 Y40.614 E89.47576 F1200
G1 X231.016 Y40.093 E89.49448 F1200
G0 X230.443 Y40.154 F7200
G1 X230.401 Y39.740 E89.50942 F1200
G1 X230.290 Y39.336 E89.52444 F1200
G1 X230.109 Y38.961 E89.53938 F1200
G1 X229.867 Y38.623 E89.55429 F1200
G1 X229.569 Y38.330 E89.56926 F1200
G1 X229.225 Y38.095 E89.58421 F1200
G1 X228.843 Y37.922 E89.59926 F1200
G1 X228.440 Y37.819 E89.61417 F1200
G1 X228.075 Y37.787 E89.62731 F1200
G1 X227.610 Y37.828 E89.64405 F1200
G1 X227.206 Y37.939 E89.65907 F1200
G1 X226.831 Y38.120 E89.67401 F1200
G1 X226.492 Y38.362 E89.68895 F1200
G1 X226.200 Y38.661 E89.70393 F1200
G1 X225.965 Y39.004 E89.71884 F1200
G1 X225.792 Y39.384 E89.73382 F1200
G1 X225.689 Y39.789 E89.74880 F1200
G1 X225.657 Y40.205 E89.76378 F1200
G1 X225.698 Y40.619 E89.77872 F1200
G1 X225.809 Y41.021 E89.79370 F1200
G1 X225.990 Y41.398 E89.80871 F1200
G1 X226.233 Y41.738 E89.82369 F1200
G1 X226.531 Y42.029 E89.83864 F1200
G1 X226.874 Y42.264 E89.85354 F1200
G1 X227.254 Y42.437 E89.86852 F1200
G1 X227.658 Y42.540 E89.88347 F1200
G1 X228.076 Y42.573 E89.89852 F1200
G1 X228.489 Y42.531 E89.91342 F1200
G1 X228.891 Y42.420 E89.92840 F1200
G1 X229.268 Y42.239 E89.94342 F1200
G1 X229.608 Y41.997 E89.95840 F1200
G1 X229.899 Y41.699 E89.97334 F1200
G1 X230.134 Y41.355 E89.98828 F1200
G1 X230.307 Y40.973 E90.00333 F1200
G1 X230.410 Y40.571 E90.01820 F1200
G1 X230.443 Y40.154 E90.03322 F1200
G1 F1500 E82.03322
G0 X241.259 Y32.874 F7200
G1 F1500 E90.03322
G1 X241.218 Y32.458 E90.04823 F1200
G1 X241.105 Y32.055 E90.06325 F1200
G1 X240.918 Y31.666 E90.07873 F1200
G1 X240.682 Y31.340 E90.09317 F1200
G1 X240.385 Y31.049 E90.10808 F1200
G1 X240.042 Y30.814 E90.12299 F1200
G1 X239.659 Y30.641 E90.13807 F1200
G1 X239.257 Y30.538 E90.15294 F1200
G1 X238.891 Y30.506 E90.16613 F1200
G1 X238.426 Y30.547 E90.18287 F1200
G1 X238.024 Y30.658 E90.19785 F1200
G1 X237.650 Y30.839 E90.21275 F1200
G1 X237.309 Y31.081 E90.22777 F1200
G1 X237.016 Y31.379 E90.24275 F1200
G1 X236.781 Y31.723 E90.25769 F1200
G1 X236.608 Y32.105 E90.27274 F1200
G1 X236.505 Y32.508 E90.28765 F1200
G1 X236.473 Y32.924 E90.30263 F1200
G1 X236.514 Y33.339 E90.31761 F1200
G1 X236.625 Y33.740 E90.33255 F1200
G1 X236.806 Y34.117 E90.34756 F1200
G1 X237.049 Y34.457 E90.36254 F1200
G1 X237.348 Y34.748 E90.37752 F1200
G1 X237.692 Y34.983 E90.39246 F1200
G1 X238.072 Y35.156 E90.40744 F1200
G1 X238.474 Y35.259 E90.42232 F1200
G1 X238.892 Y35.292 E90.43737 F1200
G1 X239.306 Y35.250 E90.45231 F1200
G1 X239.712 Y35.138 E90.46743 F1200
G1 X240.096 Y34.949 E90.48277 F1200
G1 X240.422 Y34.716 E90.49714 F1200
G1 X240.716 Y34.417 E90.51219 F1200
G1 X240.951 Y34.073 E90.52713 F1200
G1 X241.123 Y33.694 E90.54208 F1200
G1 X241.227 Y33.290 E90.55705 F1200
G1 X241.259 Y32.874 E90.57203 F1200
G1 F1500 E82.57203
G0 X247.263 Y75.546 F7200
G1 F1500 E90.57203
G1 X247.130 Y72.346 E90.68705 F1200
G1 X246.908 Y69.317 E90.79614 F1200
G1 X246.594 Y66.298 E90.90516 F1200
G1 X246.189 Y63.288 E91.01426 F1200
G1 X245.691 Y60.295 E91.12324 F1200
G1 X245.100 Y57.315 E91.23237 F1200
G1 X244.420 Y54.359 E91.34132 F1200
G1 X243.647 Y51.421 E91.45041 F1200
G1 X242.785 Y48.511 E91.55939 F1200
G1 X241.834 Y45.626 E91.66848 F1200
G1 X240.794 Y42.774 E91.77750 F1200
G1 X239.654 Y39.923 E91.88778 F1200
G1 X239.449 Y39.535 E91.90352 F1200
G1 X239.174 Y39.172 E91.91986 F1200
G1 X238.842 Y38.857 E91.93628 F1200
G1 X238.466 Y38.603 E91.95255 F1200
G1 X238.051 Y38.411 E91.96896 F1200
G1 X237.612 Y38.291 E91.98531 F1200
G1 X237.159 Y38.242 E92.00165 F1200
G1 X236.704 Y38.269 E92.01800 F1200
G1 X236.258 Y38.369 E92.03441 F1200
G1 X235.836 Y38.541 E92.05076 F1200
G1 X235.446 Y38.780 E92.06717 F1200
G1 X235.134 Y39.047 E92.08190 F1200
G1 X231.045 Y43.135 E92.28959 F1200
G1 X230.570 Y43.547 E92.31215 F1200
G1 X230.067 Y43.870 E92.33360 F1200
G1 X229.525 Y44.119 E92.35501 F1200
G1 X228.932 Y44.291 E92.37717 F1200
G1 X228.356 Y44.375 E92.39808 F1200
G1 X227.743 E92.42009 F1200
G1 X227.167 Y44.291 E92.44100 F1200
G1 X226.574 Y44.119 E92.46316 F1200
G1 X226.032 Y43.870 E92.48457 F1200
G1 X225.529 Y43.547 E92.50602 F1200
G1 X225.054 Y43.135 E92.52858 F1200
G1 X216.529 Y34.623 E92.96128 F1200
G1 X216.486 Y34.602 E92.96297 F1200
G1 X216.344 Y34.585 E92.96810 F1200
G1 X216.232 Y34.625 E92.97234 F1200
G1 X216.178 Y34.667 E92.97479 F1200
G1 X194.904 Y55.955 E94.05583 F1200
G1 X194.867 Y56.061 E94.05985 F1200
G1 X194.760 Y56.800 E94.08665 F1200
G1 X194.607 Y57.290 E94.10507 F1200
G1 X194.378 Y57.747 E94.12343 F1200
G1 X194.075 Y58.167 E94.14200 F1200
G1 X193.711 Y58.531 E94.16046 F1200
G1 X193.291 Y58.834 E94.17904 F1200
G1 X192.834 Y59.063 E94.19739 F1200
G1 X192.344 Y59.216 E94.21582 F1200
G1 X191.536 Y59.342 E94.24517 F1200
G1 X191.442 Y59.404 E94.24919 F1200
G1 X181.170 Y69.689 E94.77130 F1200
G1 X181.132 Y69.802 E94.77557 F1200
G1 X181.139 Y86.255 E95.36658 F1200
G1 X181.192 Y86.362 E95.37086 F1200
G1 X191.499 Y96.662 E95.89426 F1200
G1 X191.606 Y96.699 E95.89832 F1200
G1 X192.348 Y96.804 E95.92522 F1200
G1 X192.830 Y96.955 E95.94336 F1200
G1 X193.287 Y97.186 E95.96176 F1200
G1 X193.715 Y97.493 E95.98065 F1200
G1 X194.079 Y97.857 E95.99911 F1200
G1 X194.376 Y98.268 E96.01733 F1200
G1 X194.607 Y98.730 E96.03586 F1200
G1 X194.760 Y99.219 E96.05425 F1200
G1 X194.886 Y100.028 E96.08364 F1200
G1 X194.948 Y100.122 E96.08766 F1200
G1 X216.235 Y121.396 E97.16870 F1200
G1 X216.372 Y121.436 E97.17380 F1200
G1 X216.511 Y121.405 E97.17890 F1200
G1 X216.586 Y121.352 E97.18217 F1200
G1 X225.064 Y112.875 E97.61279 F1200
G1 X225.523 Y112.476 E97.63463 F1200
G1 X226.034 Y112.149 E97.65640 F1200
G1 X226.580 Y111.898 E97.67795 F1200
G1 X227.162 Y111.728 E97.69972 F1200
G1 X227.743 Y111.645 E97.72077 F1200
G1 X228.356 E97.74279 F1200
G1 X228.937 Y111.728 E97.76384 F1200
G1 X229.519 Y111.898 E97.78561 F1200
G1 X230.065 Y112.149 E97.80716 F1200
G1 X230.576 Y112.476 E97.82893 F1200
G1 X231.035 Y112.875 E97.85077 F1200
G1 X235.151 Y116.988 E98.05975 F1200
G1 X235.484 Y117.267 E98.07534 F1200
G1 X235.879 Y117.500 E98.09180 F1200
G1 X236.305 Y117.663 E98.10818 F1200
G1 X236.750 Y117.757 E98.12448 F1200
G1 X237.206 Y117.776 E98.14086 F1200
G1 X237.657 Y117.720 E98.15717 F1200
G1 X238.096 Y117.592 E98.17359 F1200
G1 X238.507 Y117.394 E98.18997 F1200
G1 X238.879 Y117.132 E98.20631 F1200
G1 X239.204 Y116.813 E98.22266 F1200
G1 X239.474 Y116.445 E98.23904 F1200
G1 X239.665 Y116.072 E98.25409 F1200
G1 X240.798 Y113.237 E98.36375 F1200
G1 X241.836 Y110.385 E98.47277 F1200
G1 X242.788 Y107.501 E98.58187 F1200
G1 X243.650 Y104.590 E98.69089 F1200
G1 X244.422 Y101.653 E98.79994 F1200
G1 X245.101 Y98.695 E98.90893 F1200
G1 X245.692 Y95.716 E99.01802 F1200
G1 X246.190 Y92.722 E99.12704 F1200
G1 X246.595 Y89.714 E99.23606 F1200
G1 X246.909 Y86.693 E99.34515 F1200
G1 X247.131 Y83.665 E99.45421 F1200
G1 X247.257 Y80.402 E99.57149 F1200
G1 X247.208 Y80.293 E99.57576 F1200
G1 X246.771 Y79.690 E99.60249 F1200
G1 X246.541 Y79.242 E99.62056 F1200
G1 X246.384 Y78.762 E99.63870 F1200
G1 X246.304 Y78.262 E99.65687 F1200
G1 Y77.758 E99.67498 F1200
G1 X246.384 Y77.258 E99.69315 F1200
G1 X246.541 Y76.778 E99.71129 F1200
G1 X246.771 Y76.330 E99.72936 F1200
G1 X247.243 Y75.664 E99.75867 F1200
G1 X247.263 Y75.546 E99.76295 F1200
G1 F1500 E91.76295
G0 X251.893 Y77.985 F7200
G1 F1500 E99.76295
G1 X251.852 Y77.570 E99.77793 F1200
G1 X251.740 Y77.165 E99.79301 F1200
G1 X251.552 Y76.779 E99.80842 F1200
G1 X251.316 Y76.451 E99.82293 F1200
G1 X251.019 Y76.160 E99.83784 F1200
G1 X250.676 Y75.925 E99.85275 F1200
G1 X250.293 Y75.752 E99.86784 F1200
G1 X249.891 Y75.649 E99.88271 F1200
G1 X249.525 Y75.617 E99.89589 F1200
G1 X249.060 Y75.658 E99.91263 F1200
G1 X248.659 Y75.769 E99.92757 F1200
G1 X248.280 Y75.951 E99.94266 F1200
G1 X247.946 Y76.191 E99.95742 F1200
G1 X247.649 Y76.491 E99.97258 F1200
G1 X247.415 Y76.836 E99.98752 F1200
G1 X247.242 Y77.216 E100.00250 F1200
G1 X247.139 Y77.619 E100.01741 F1200
G1 X247.107 Y78.035 E100.03239 F1200
G1 X247.148 Y78.450 E100.04737 F1200
G1 X247.259 Y78.851 E100.06231 F1200
G1 X247.440 Y79.228 E100.07733 F1200
G1 X247.683 Y79.568 E100.09231 F1200
G1 X247.983 Y79.860 E100.10732 F1200
G1 X248.325 Y80.094 E100.12219 F1200
G1 X248.705 Y80.267 E100.13717 F1200
G1 X249.109 Y80.371 E100.15215 F1200
G1 X249.528 Y80.403 E100.16724 F1200
G1 X249.957 Y80.359 E100.18272 F1200
G1 X250.346 Y80.248 E100.19723 F1200
G1 X250.730 Y80.062 E100.21253 F1200
G1 X251.058 Y79.828 E100.22697 F1200
G1 X251.350 Y79.529 E100.24195 F1200
G1 X251.585 Y79.185 E100.25690 F1200
G1 X251.758 Y78.803 E100.27195 F1200
G1 X251.861 Y78.401 E100.28682 F1200
G1 X251.893 Y77.985 E100.30180 F1200
G1 F1500 E92.30180
G0 X241.259 Y123.093 F7200
G1 F1500 E100.30180
G1 X241.215 Y122.663 E100.31731 F1200
G1 X241.104 Y122.279 E100.33165 F1200
G1 X240.918 Y121.890 E100.34713 F1200
G1 X240.682 Y121.562 E100.36164 F1200
G1 X240.385 Y121.271 E100.37655 F1200
G1 X240.042 Y121.036 E100.39146 F1200
G1 X239.659 Y120.863 E100.40654 F1200
G1 X239.257 Y120.760 E100.42141 F1200
G1 X238.891 Y120.728 E100.43460 F1200
G1 X238.426 Y120.769 E100.45134 F1200
G1 X238.024 Y120.880 E100.46631 F1200
G1 X237.650 Y121.061 E100.48122 F1200
G1 X237.308 Y121.303 E100.49624 F1200
G1 X237.016 Y121.603 E100.51125 F1200
G1 X236.781 Y121.947 E100.52619 F1200
G1 X236.608 Y122.327 E100.54117 F1200
G1 X236.505 Y122.730 E100.55608 F1200
G1 X236.473 Y123.146 E100.57106 F1200
G1 X236.514 Y123.561 E100.58604 F1200
G1 X236.625 Y123.962 E100.60098 F1200
G1 X236.807 Y124.341 E100.61607 F1200
G1 X237.047 Y124.675 E100.63083 F1200
G1 X237.347 Y124.972 E100.64599 F1200
G1 X237.692 Y125.206 E100.66093 F1200
G1 X238.071 Y125.378 E100.67588 F1200
G1 X238.475 Y125.482 E100.69086 F1200
G1 X238.894 Y125.514 E100.70594 F1200
G1 X239.324 Y125.470 E100.72146 F1200
G1 X239.708 Y125.359 E100.73579 F1200
G1 X240.097 Y125.173 E100.75128 F1200
G1 X240.423 Y124.938 E100.76568 F1200
G1 X240.716 Y124.639 E100.78069 F1200
G1 X240.951 Y124.295 E100.79564 F1200
G1 X241.123 Y123.916 E100.81058 F1200
G1 X241.227 Y123.512 E100.82556 F1200
G1 X241.259 Y123.093 E100.84065 F1200
G1 F1500 E92.84065
G0 X194.027 Y99.904 F7200
G1 F1500 E100.84065
G1 X193.985 Y99.490 E100.85559 F1200
G1 X193.874 Y99.089 E100.87053 F1200
G1 X193.692 Y98.710 E100.88562 F1200
G1 X193.452 Y98.376 E100.90038 F1200
G1 X193.152 Y98.079 E100.91554 F1200
G1 X192.809 Y97.846 E100.93041 F1200
G1 X192.429 Y97.673 E100.94539 F1200
G1 X192.024 Y97.569 E100.96041 F1200
G1 X191.659 Y97.537 E100.97355 F1200
G1 X191.194 Y97.578 E100.99029 F1200
G1 X190.789 Y97.691 E101.00538 F1200
G1 X190.418 Y97.870 E101.02014 F1200
G1 X190.074 Y98.114 E101.03527 F1200
G1 X189.785 Y98.412 E101.05017 F1200
G1 X189.549 Y98.754 E101.06508 F1200
G1 X189.376 Y99.137 E101.08017 F1200
G1 X189.273 Y99.539 E101.09504 F1200
G1 X189.241 Y99.955 E101.11002 F1200
G1 X189.282 Y100.370 E101.12500 F1200
G1 X189.393 Y100.772 E101.13998 F1200
G1 X189.574 Y101.146 E101.15488 F1200
G1 X189.816 Y101.488 E101.16990 F1200
G1 X190.115 Y101.780 E101.18488 F1200
G1 X190.458 Y102.015 E101.19978 F1200
G1 X190.838 Y102.188 E101.21476 F1200
G1 X191.243 Y102.291 E101.22974 F1200
G1 X191.659 Y102.323 E101.24472 F1200
G1 X192.073 Y102.282 E101.25966 F1200
G1 X192.475 Y102.171 E101.27464 F1200
G1 X192.852 Y101.990 E101.28966 F1200
G1 X193.192 Y101.747 E101.30464 F1200
G1 X193.483 Y101.448 E101.31962 F1200
G1 X193.718 Y101.104 E101.33456 F1200
G1 X193.891 Y100.724 E101.34954 F1200
G1 X193.994 Y100.322 E101.36441 F1200
G1 X194.027 Y99.904 E101.37946 F1200
G1 F1500 E93.37946
G0 X172.813 Y121.118 F7200
G1 F1500 E101.37946
G1 X172.772 Y120.704 E101.39440 F1200
G1 X172.661 Y120.302 E101.40938 F1200
G1 X172.480 Y119.925 E101.42440 F1200
G1 X172.237 Y119.585 E101.43938 F1200
G1 X171.939 Y119.294 E101.45432 F1200
G1 X171.596 Y119.059 E101.46923 F1200
G1 X171.216 Y118.886 E101.48421 F1200
G1 X170.812 Y118.783 E101.49915 F1200
G1 X170.446 Y118.750 E101.51233 F1200
G1 X169.980 Y118.792 E101.52911 F1200
G1 X169.579 Y118.903 E101.54405 F1200
G1 X169.202 Y119.084 E101.55907 F1200
G1 X168.862 Y119.326 E101.57404 F1200
G1 X168.571 Y119.624 E101.58899 F1200
G1 X168.336 Y119.968 E101.60393 F1200
G1 X168.163 Y120.350 E101.61898 F1200
G1 X168.060 Y120.752 E101.63385 F1200
G1 X168.027 Y121.169 E101.64887 F1200
G1 X168.069 Y121.583 E101.66381 F1200
G1 X168.180 Y121.987 E101.67883 F1200
G1 X168.361 Y122.362 E101.69377 F1200
G1 X168.603 Y122.700 E101.70868 F1200
G1 X168.901 Y122.993 E101.72366 F1200
G1 X169.245 Y123.228 E101.73860 F1200
G1 X169.627 Y123.401 E101.75365 F1200
G1 X170.029 Y123.504 E101.76852 F1200
G1 X170.445 Y123.536 E101.78350 F1200
G1 X170.860 Y123.495 E101.79848 F1200
G1 X171.264 Y123.384 E101.81349 F1200
G1 X171.639 Y123.203 E101.82844 F1200
G1 X171.978 Y122.961 E101.84338 F1200
G1 X172.270 Y122.662 E101.85836 F1200
G1 X172.505 Y122.319 E101.87327 F1200
G1 X172.678 Y121.939 E101.88825 F1200
G1 X172.781 Y121.534 E101.90322 F1200
G1 X172.813 Y121.118 E101.91820 F1200
G1 F1500 E93.91820
G0 X191.926 Y145.902 F7200
G1 F1500 E101.91820
G1 X191.895 Y145.763 E101.92330 F1200
G1 X191.842 Y145.688 E101.92657 F1200
G1 X170.555 Y124.414 E103.00761 F1200
G1 X170.449 Y124.377 E103.01164 F1200
G1 X169.710 Y124.270 E103.03843 F1200
G1 X169.219 Y124.117 E103.05690 F1200
G1 X168.758 Y123.886 E103.07540 F1200
G1 X168.348 Y123.590 E103.09354 F1200
G1 X167.983 Y123.225 E103.11207 F1200
G1 X167.674 Y122.796 E103.13104 F1200
G1 X167.451 Y122.351 E103.14889 F1200
G1 X167.292 Y121.842 E103.16804 F1200
G1 X167.168 Y121.046 E103.19695 F1200
G1 X167.106 Y120.952 E103.20098 F1200
G1 X156.821 Y110.679 E103.72312 F1200
G1 X156.732 Y110.645 E103.72654 F1200
G1 X140.255 Y110.648 E104.31840 F1200
G1 X140.148 Y110.701 E104.32268 F1200
G1 X129.850 Y121.009 E104.84605 F1200
G1 X129.813 Y121.114 E104.85003 F1200
G1 X129.705 Y121.844 E104.87651 F1200
G1 X129.548 Y122.349 E104.89547 F1200
G1 X129.320 Y122.805 E104.91376 F1200
G1 X129.021 Y123.221 E104.93215 F1200
G1 X128.657 Y123.585 E104.95061 F1200
G1 X128.237 Y123.888 E104.96918 F1200
G1 X127.780 Y124.117 E104.98754 F1200
G1 X127.290 Y124.270 E105.00597 F1200
G1 X126.482 Y124.396 E105.03532 F1200
G1 X126.388 Y124.458 E105.03934 F1200
G1 X105.114 Y145.745 E106.12038 F1200
G1 X105.074 Y145.882 E106.12548 F1200
G1 X105.105 Y146.021 E106.13058 F1200
G1 X105.158 Y146.096 E106.13385 F1200
G1 X113.625 Y154.564 E106.56397 F1200
G1 X114.037 Y155.039 E106.58653 F1200
G1 X114.360 Y155.542 E106.60797 F1200
G1 X114.612 Y156.090 E106.62963 F1200
G1 X114.781 Y156.667 E106.65122 F1200
G1 X114.865 Y157.253 E106.67245 F1200
G1 Y157.866 E106.69447 F1200
G1 X114.782 Y158.447 E106.71552 F1200
G1 X114.612 Y159.029 E106.73729 F1200
G1 X114.360 Y159.577 E106.75895 F1200
G1 X114.037 Y160.080 E106.78039 F1200
G1 X113.627 Y160.553 E106.80284 F1200
G1 X109.519 Y164.661 E107.01151 F1200
G1 X109.241 Y164.996 E107.02713 F1200
G1 X109.010 Y165.388 E107.04348 F1200
G1 X108.847 Y165.812 E107.05978 F1200
G1 X108.752 Y166.261 E107.07624 F1200
G1 X108.734 Y166.716 E107.09258 F1200
G1 X108.790 Y167.167 E107.10889 F1200
G1 X108.918 Y167.606 E107.12530 F1200
G1 X109.116 Y168.016 E107.14165 F1200
G1 X109.377 Y168.389 E107.15799 F1200
G1 X109.698 Y168.715 E107.17441 F1200
G1 X110.065 Y168.983 E107.19072 F1200
G1 X110.438 Y169.174 E107.20577 F1200
G1 X113.207 Y170.281 E107.31288 F1200
G1 X115.992 Y171.300 E107.41939 F1200
G1 X118.805 Y172.233 E107.52582 F1200
G1 X121.648 Y173.083 E107.63240 F1200
G1 X124.513 Y173.844 E107.73887 F1200
G1 X127.400 Y174.522 E107.84537 F1200
G1 X130.340 Y175.117 E107.95310 F1200
G1 X130.925 Y175.177 E107.97422 F1200
G1 X131.530 Y175.140 E107.99599 F1200
G1 X132.119 Y175.008 E108.01765 F1200
G1 X132.682 Y174.783 E108.03942 F1200
G1 X133.203 Y174.473 E108.06119 F1200
G1 X133.664 Y174.084 E108.08285 F1200
G1 X134.060 Y173.626 E108.10458 F1200
G1 X134.375 Y173.111 E108.12624 F1200
G1 X134.608 Y172.554 E108.14790 F1200
G1 X134.749 Y171.963 E108.16971 F1200
G1 X134.792 Y171.404 E108.18982 F1200
G1 Y165.043 E108.41831 F1200
G1 X134.829 Y164.621 E108.43351 F1200
G1 X134.926 Y164.258 E108.44698 F1200
G1 X135.088 Y163.912 E108.46070 F1200
G1 X135.314 Y163.588 E108.47489 F1200
G1 X135.581 Y163.322 E108.48840 F1200
G1 X135.904 Y163.095 E108.50255 F1200
G1 X136.241 Y162.939 E108.51588 F1200
G1 X136.614 Y162.838 E108.52974 F1200
G1 X137.033 Y162.802 E108.54483 F1200
G1 X159.967 E109.36864 F1200
G1 X160.386 Y162.838 E109.38373 F1200
G1 X160.759 Y162.939 E109.39759 F1200
G1 X161.096 Y163.095 E109.41092 F1200
G1 X161.419 Y163.322 E109.42507 F1200
G1 X161.686 Y163.588 E109.43858 F1200
G1 X161.912 Y163.912 E109.45277 F1200
G1 X162.074 Y164.258 E109.46649 F1200
G1 X162.171 Y164.621 E109.47996 F1200
G1 X162.208 Y165.043 E109.49515 F1200
G1 X162.209 Y171.426 E109.72444 F1200
G1 X162.258 Y172.010 E109.74549 F1200
G1 X162.407 Y172.597 E109.76722 F1200
G1 X162.645 Y173.151 E109.78884 F1200
G1 X162.968 Y173.664 E109.81061 F1200
G1 X163.368 Y174.115 E109.83223 F1200
G1 X163.836 Y174.500 E109.85400 F1200
G1 X164.359 Y174.803 E109.87570 F1200
G1 X164.925 Y175.021 E109.89747 F1200
G1 X165.516 Y175.147 E109.91916 F1200
G1 X166.121 Y175.175 E109.94090 F1200
G1 X166.686 Y175.113 E109.96130 F1200
G1 X169.609 Y174.520 E110.06841 F1200
G1 X172.495 Y173.842 E110.17488 F1200
G1 X175.361 Y173.081 E110.28139 F1200
G1 X178.203 Y172.230 E110.38793 F1200
G1 X181.016 Y171.297 E110.49437 F1200
G1 X183.801 Y170.278 E110.60087 F1200
G1 X186.587 Y169.163 E110.70863 F1200
G1 X186.974 Y168.958 E110.72433 F1200
G1 X187.338 Y168.684 E110.74067 F1200
G1 X187.653 Y168.352 E110.75709 F1200
G1 X187.907 Y167.976 E110.77336 F1200
G1 X188.099 Y167.561 E110.78978 F1200
G1 X188.219 Y167.122 E110.80612 F1200
G1 X188.268 Y166.669 E110.82247 F1200
G1 X188.241 Y166.213 E110.83885 F1200
G1 X188.140 Y165.768 E110.85523 F1200
G1 X187.969 Y165.346 E110.87157 F1200
G1 X187.732 Y164.958 E110.88788 F1200
G1 X187.465 Y164.643 E110.90268 F1200
G1 X183.373 Y160.553 E111.11048 F1200
G1 X182.963 Y160.080 E111.13293 F1200
G1 X182.640 Y159.577 E111.15438 F1200
G1 X182.388 Y159.029 E111.17604 F1200
G1 X182.218 Y158.447 E111.19780 F1200
G1 X182.135 Y157.866 E111.21885 F1200
G1 Y157.253 E111.24087 F1200
G1 X182.219 Y156.667 E111.26210 F1200
G1 X182.388 Y156.090 E111.28369 F1200
G1 X182.640 Y155.542 E111.30535 F1200
G1 X182.963 Y155.039 E111.32680 F1200
G1 X183.375 Y154.564 E111.34936 F1200
G1 X191.886 Y146.039 E111.78206 F1200
G1 X191.926 Y145.902 E111.78716 F1200
G1 F1500 E103.78716
G0 X196.004 Y168.351 F7200
G1 F1500 E111.78716
G1 X195.963 Y167.936 E111.80214 F1200
G1 X195.851 Y167.529 E111.81730 F1200
G1 X195.662 Y167.147 E111.83260 F1200
G1 X195.429 Y166.818 E111.84708 F1200
G1 X195.129 Y166.526 E111.86209 F1200
G1 X194.785 Y166.291 E111.87703 F1200
G1 X194.405 Y166.118 E111.89201 F1200
G1 X194.002 Y166.015 E111.90692 F1200
G1 X193.636 Y165.983 E111.92010 F1200
G1 X193.171 Y166.024 E111.93684 F1200
G1 X192.770 Y166.135 E111.95179 F1200
G1 X192.391 Y166.317 E111.96687 F1200
G1 X192.057 Y166.557 E111.98164 F1200
G1 X191.760 Y166.857 E111.99679 F1200
G1 X191.526 Y167.202 E112.01174 F1200
G1 X191.354 Y167.580 E112.02664 F1200
G1 X191.250 Y167.985 E112.04166 F1200
G1 X191.218 Y168.404 E112.05675 F1200
G1 X191.262 Y168.832 E112.07219 F1200
G1 X191.371 Y169.219 E112.08663 F1200
G1 X191.551 Y169.592 E112.10150 F1200
G1 X191.795 Y169.935 E112.11659 F1200
G1 X192.093 Y170.224 E112.13150 F1200
G1 X192.435 Y170.460 E112.14641 F1200
G1 X192.818 Y170.633 E112.16149 F1200
G1 X193.219 Y170.736 E112.17636 F1200
G1 X193.637 Y170.769 E112.19141 F1200
G1 X194.051 Y170.727 E112.20636 F1200
G1 X194.455 Y170.615 E112.22141 F1200
G1 X194.841 Y170.428 E112.23678 F1200
G1 X195.170 Y170.193 E112.25129 F1200
G1 X195.461 Y169.895 E112.26624 F1200
G1 X195.696 Y169.551 E112.28118 F1200
G1 X195.869 Y169.169 E112.29623 F1200
G1 X195.972 Y168.767 E112.31110 F1200
G1 X196.004 Y168.351 E112.32608 F1200
G1 F1500 E104.32608
G0 X122.647 Y121.008 F7200
G1 F1500 E112.32608
G1 X122.643 Y120.520 E112.34361 F1200
G1 X122.553 Y120.041 E112.36110 F1200
G1 X122.382 Y119.587 E112.37853 F1200
G1 X122.135 Y119.168 E112.39598 F1200
G1 X121.852 Y118.832 E112.41175 F1200
G1 X107.659 Y104.640 E113.13272 F1200
G1 X107.301 Y104.346 E113.14935 F1200
G1 X106.878 Y104.106 E113.16681 F1200
G1 X106.421 Y103.944 E113.18420 F1200
G1 X105.989 Y103.867 E113.19993 F1200
G1 X105.451 E113.21926 F1200
G1 X104.971 Y103.957 E113.23679 F1200
G1 X104.517 Y104.128 E113.25421 F1200
G1 X104.098 Y104.374 E113.27163 F1200
G1 X103.762 Y104.657 E113.28740 F1200
G1 X83.900 Y124.532 E114.29670 F1200
G1 X83.860 Y124.669 E114.30181 F1200
G1 X83.891 Y124.808 E114.30691 F1200
G1 X83.944 Y124.883 E114.31018 F1200
G1 X101.684 Y142.609 E115.21100 F1200
G1 X101.821 Y142.649 E115.21610 F1200
G1 X101.960 Y142.618 E115.22120 F1200
G1 X102.035 Y142.565 E115.22447 F1200
G1 X121.869 Y122.729 E116.23205 F1200
G1 X122.163 Y122.371 E116.24869 F1200
G1 X122.404 Y121.947 E116.26618 F1200
G1 X122.566 Y121.490 E116.28356 F1200
G1 X122.647 Y121.008 E116.30109 F1200
G1 F1500 E108.30109
G0 X107.759 Y99.905 F7200
G1 F1500 E116.30109
G1 X107.718 Y99.490 E116.31607 F1200
G1 X107.607 Y99.089 E116.33102 F1200
G1 X107.425 Y98.710 E116.34610 F1200
G1 X107.185 Y98.376 E116.36087 F1200
G1 X106.885 Y98.079 E116.37602 F1200
G1 X106.541 Y97.847 E116.39090 F1200
G1 X106.162 Y97.673 E116.40588 F1200
G1 X105.757 Y97.569 E116.42089 F1200
G1 X105.391 Y97.537 E116.43407 F1200
G1 X104.927 Y97.578 E116.45078 F1200
G1 X104.522 Y97.690 E116.46586 F1200
G1 X104.150 Y97.870 E116.48070 F1200
G1 X103.807 Y98.114 E116.49579 F1200
G1 X103.518 Y98.412 E116.51069 F1200
G1 X103.282 Y98.754 E116.52560 F1200
G1 X103.109 Y99.137 E116.54069 F1200
G1 X103.006 Y99.538 E116.55556 F1200
G1 X102.973 Y99.956 E116.57061 F1200
G1 X103.015 Y100.370 E116.58555 F1200
G1 X103.126 Y100.772 E116.60053 F1200
G1 X103.307 Y101.146 E116.61544 F1200
G1 X103.549 Y101.487 E116.63045 F1200
G1 X103.847 Y101.780 E116.64543 F1200
G1 X104.191 Y102.015 E116.66038 F1200
G1 X104.573 Y102.188 E116.67543 F1200
G1 X104.976 Y102.291 E116.69033 F1200
G1 X105.391 Y102.323 E116.70528 F1200
G1 X105.806 Y102.282 E116.72026 F1200
G1 X106.210 Y102.171 E116.73527 F1200
G1 X106.585 Y101.990 E116.75021 F1200
G1 X106.924 Y101.748 E116.76516 F1200
G1 X107.216 Y101.448 E116.78017 F1200
G1 X107.451 Y101.104 E116.79511 F1200
G1 X107.624 Y100.724 E116.81009 F1200
G1 X107.727 Y100.321 E116.82500 F1200
G1 X107.759 Y99.905 E116.83998 F1200
G0 X115.868 Y86.218 F7200
G1 X115.861 Y69.765 E117.43099 F1200
G1 X115.808 Y69.658 E117.43526 F1200
G1 X105.501 Y59.360 E117.95859 F1200
G1 X105.395 Y59.323 E117.96262 F1200
G1 X104.656 Y59.216 E117.98941 F1200
G1 X104.166 Y59.063 E118.00784 F1200
G1 X103.709 Y58.834 E118.02620 F1200
G1 X103.289 Y58.531 E118.04477 F1200
G1 X102.925 Y58.167 E118.06323 F1200
G1 X102.622 Y57.747 E118.08180 F1200
G1 X102.393 Y57.290 E118.10016 F1200
G1 X102.240 Y56.800 E118.11859 F1200
G1 X102.114 Y55.992 E118.14793 F1200
G1 X102.052 Y55.898 E118.15196 F1200
G1 X80.765 Y34.623 E119.23300 F1200
G1 X80.722 Y34.602 E119.23469 F1200
G1 X80.580 Y34.585 E119.23982 F1200
G1 X80.468 Y34.625 E119.24406 F1200
G1 X80.414 Y34.667 E119.24650 F1200
G1 X71.946 Y43.136 E119.67669 F1200
G1 X71.471 Y43.547 E119.69925 F1200
G1 X70.968 Y43.870 E119.72070 F1200
G1 X70.426 Y44.119 E119.74210 F1200
G1 X69.833 Y44.291 E119.76427 F1200
G1 X69.257 Y44.375 E119.78517 F1200
G1 X68.644 E119.80719 F1200
G1 X68.068 Y44.291 E119.82810 F1200
G1 X67.475 Y44.119 E119.85026 F1200
G1 X66.933 Y43.870 E119.87167 F1200
G1 X66.430 Y43.547 E119.89312 F1200
G1 X65.955 Y43.135 E119.91567 F1200
G1 X61.849 Y39.032 E120.12416 F1200
G1 X61.515 Y38.752 E120.13979 F1200
G1 X61.122 Y38.520 E120.15617 F1200
G1 X60.697 Y38.356 E120.17251 F1200
G1 X60.249 Y38.262 E120.18893 F1200
G1 X59.794 Y38.244 E120.20527 F1200
G1 X59.343 Y38.300 E120.22158 F1200
G1 X58.904 Y38.428 E120.23799 F1200
G1 X58.494 Y38.626 E120.25434 F1200
G1 X58.121 Y38.887 E120.27068 F1200
G1 X57.795 Y39.207 E120.28706 F1200
G1 X57.526 Y39.575 E120.30341 F1200
G1 X57.335 Y39.948 E120.31846 F1200
G1 X56.202 Y42.782 E120.42809 F1200
G1 X55.164 Y45.635 E120.53711 F1200
G1 X54.212 Y48.519 E120.64620 F1200
G1 X53.350 Y51.430 E120.75522 F1200
G1 X52.578 Y54.367 E120.86428 F1200
G1 X51.898 Y57.324 E120.97326 F1200
G1 X51.308 Y60.304 E121.08235 F1200
G1 X50.810 Y63.297 E121.19134 F1200
G1 X50.405 Y66.306 E121.30039 F1200
G1 X50.091 Y69.326 E121.40945 F1200
G1 X49.869 Y72.355 E121.51854 F1200
G1 X49.743 Y75.618 E121.63582 F1200
G1 X49.792 Y75.727 E121.64010 F1200
G1 X50.229 Y76.330 E121.66682 F1200
G1 X50.459 Y76.778 E121.68489 F1200
G1 X50.616 Y77.258 E121.70303 F1200
G1 X50.696 Y77.758 E121.72121 F1200
G1 Y78.262 E121.73931 F1200
G1 X50.616 Y78.762 E121.75749 F1200
G1 X50.459 Y79.242 E121.77563 F1200
G1 X50.229 Y79.690 E121.79369 F1200
G1 X49.757 Y80.356 E121.82301 F1200
G1 X49.737 Y80.474 E121.82728 F1200
G1 X49.870 Y83.674 E121.94230 F1200
G1 X50.092 Y86.702 E122.05135 F1200
G1 X50.406 Y89.722 E122.16041 F1200
G1 X50.811 Y92.731 E122.26947 F1200
G1 X51.310 Y95.725 E122.37849 F1200
G1 X51.900 Y98.704 E122.48754 F1200
G1 X52.580 Y101.661 E122.59653 F1200
G1 X53.353 Y104.599 E122.70562 F1200
G1 X54.215 Y107.509 E122.81460 F1200
G1 X55.166 Y110.394 E122.92369 F1200
G1 X56.206 Y113.245 E123.03268 F1200
G1 X57.346 Y116.097 E123.14299 F1200
G1 X57.551 Y116.485 E123.15873 F1200
G1 X57.827 Y116.848 E123.17511 F1200
G1 X58.157 Y117.162 E123.19145 F1200
G1 X58.534 Y117.417 E123.20779 F1200
G1 X58.949 Y117.609 E123.22421 F1200
G1 X59.388 Y117.729 E123.24055 F1200
G1 X59.842 Y117.778 E123.25693 F1200
G1 X60.296 Y117.750 E123.27324 F1200
G1 X60.739 Y117.650 E123.28955 F1200
G1 X61.165 Y117.479 E123.30604 F1200
G1 X61.554 Y117.239 E123.32245 F1200
G1 X61.866 Y116.973 E123.33718 F1200
G1 X65.965 Y112.875 E123.54538 F1200
G1 X66.424 Y112.476 E123.56722 F1200
G1 X66.935 Y112.149 E123.58899 F1200
G1 X67.481 Y111.898 E123.61054 F1200
G1 X68.063 Y111.728 E123.63231 F1200
G1 X68.644 Y111.645 E123.65336 F1200
G1 X69.257 E123.67538 F1200
G1 X69.838 Y111.728 E123.69643 F1200
G1 X70.420 Y111.898 E123.71819 F1200
G1 X70.966 Y112.149 E123.73975 F1200
G1 X71.477 Y112.476 E123.76151 F1200
G1 X71.936 Y112.875 E123.78335 F1200
G1 X80.471 Y121.396 E124.21656 F1200
G1 X80.608 Y121.436 E124.22166 F1200
G1 X80.747 Y121.405 E124.22676 F1200
G1 X80.822 Y121.352 E124.23003 F1200
G1 X102.096 Y100.065 E125.31107 F1200
G1 X102.133 Y99.959 E125.31510 F1200
G1 X102.240 Y99.219 E125.34193 F1200
G1 X102.393 Y98.730 E125.36032 F1200
G1 X102.624 Y98.268 E125.37886 F1200
G1 X102.921 Y97.857 E125.39707 F1200
G1 X103.285 Y97.493 E125.41553 F1200
G1 X103.713 Y97.186 E125.43443 F1200
G1 X104.170 Y96.955 E125.45282 F1200
G1 X104.652 Y96.804 E125.47096 F1200
G1 X105.464 Y96.680 E125.50045 F1200
G1 X105.558 Y96.618 E125.50447 F1200
G1 X115.830 Y86.331 E126.02665 F1200
G1 X115.868 Y86.218 E126.03093 F1200
G1 F1500 E118.03093
G0 X49.893 Y77.985 F7200
G1 F1500 E126.03093
G1 X49.852 Y77.570 E126.04591 F1200
G1 X49.740 Y77.165 E126.06099 F1200
G1 X49.552 Y76.779 E126.07640 F1200
G1 X49.316 Y76.451 E126.09092 F1200
G1 X49.019 Y76.160 E126.10582 F1200
G1 X48.676 Y75.925 E126.12073 F1200
G1 X48.293 Y75.752 E126.13582 F1200
G1 X47.891 Y75.649 E126.15069 F1200
G1 X47.525 Y75.617 E126.16387 F1200
G1 X47.060 Y75.658 E126.18061 F1200
G1 X46.659 Y75.769 E126.19555 F1200
G1 X46.280 Y75.951 E126.21064 F1200
G1 X45.946 Y76.191 E126.22540 F1200
G1 X45.649 Y76.491 E126.24056 F1200
G1 X45.415 Y76.836 E126.25551 F1200
G1 X45.242 Y77.216 E126.27049 F1200
G1 X45.139 Y77.619 E126.28539 F1200
G1 X45.107 Y78.035 E126.30037 F1200
G1 X45.148 Y78.450 E126.31535 F1200
G1 X45.259 Y78.851 E126.33029 F1200
G1 X45.440 Y79.228 E126.34531 F1200
G1 X45.683 Y79.568 E126.36029 F1200
G1 X45.983 Y79.860 E126.37530 F1200
G1 X46.325 Y80.094 E126.39017 F1200
G1 X46.705 Y80.267 E126.40515 F1200
G1 X47.109 Y80.371 E126.42013 F1200
G1 X47.528 Y80.403 E126.43522 F1200
G1 X47.957 Y80.359 E126.45070 F1200
G1 X48.346 Y80.248 E126.46521 F1200
G1 X48.730 Y80.062 E126.48052 F1200
G1 X49.058 Y79.828 E126.49496 F1200
G1 X49.350 Y79.529 E126.50993 F1200
G1 X49.585 Y79.185 E126.52488 F1200
G1 X49.758 Y78.803 E126.53993 F1200
G1 X49.861 Y78.401 E126.55480 F1200
G1 X49.893 Y77.985 E126.56978 F1200
G1 F1500 E118.56978
G0 X60.527 Y123.096 F7200
G1 F1500 E126.56978
G1 X60.486 Y122.681 E126.58476 F1200
G1 X60.374 Y122.277 E126.59981 F1200
G1 X60.187 Y121.891 E126.61518 F1200
G1 X59.951 Y121.562 E126.62969 F1200
G1 X59.652 Y121.271 E126.64467 F1200
G1 X59.308 Y121.036 E126.65962 F1200
G1 X58.928 Y120.863 E126.67460 F1200
G1 X58.525 Y120.760 E126.68950 F1200
G1 X58.159 Y120.728 E126.70269 F1200
G1 X57.694 Y120.769 E126.71943 F1200
G1 X57.293 Y120.880 E126.73437 F1200
G1 X56.914 Y121.062 E126.74946 F1200
G1 X56.580 Y121.302 E126.76422 F1200
G1 X56.283 Y121.602 E126.77938 F1200
G1 X56.049 Y121.947 E126.79432 F1200
G1 X55.877 Y122.326 E126.80926 F1200
G1 X55.773 Y122.730 E126.82424 F1200
G1 X55.741 Y123.149 E126.83933 F1200
G1 X55.785 Y123.577 E126.85478 F1200
G1 X55.894 Y123.964 E126.86922 F1200
G1 X56.074 Y124.338 E126.88412 F1200
G1 X56.316 Y124.678 E126.89910 F1200
G1 X56.616 Y124.971 E126.91415 F1200
G1 X56.960 Y125.206 E126.92910 F1200
G1 X57.339 Y125.378 E126.94404 F1200
G1 X57.743 Y125.482 E126.95902 F1200
G1 X58.162 Y125.514 E126.97410 F1200
G1 X58.592 Y125.470 E126.98962 F1200
G1 X58.976 Y125.359 E127.00396 F1200
G1 X59.365 Y125.173 E127.01944 F1200
G1 X59.693 Y124.937 E127.03395 F1200
G1 X59.984 Y124.640 E127.04886 F1200
G1 X60.219 Y124.297 E127.06376 F1200
G1 X60.392 Y123.914 E127.07885 F1200
G1 X60.495 Y123.512 E127.09372 F1200
G1 X60.527 Y123.096 E127.10870 F1200
G1 F1500 E119.10870
G0 X105.782 Y168.351 F7200
G1 F1500 E127.10870
G1 X105.741 Y167.931 E127.12382 F1200
G1 X105.622 Y167.517 E127.13927 F1200
G1 X105.441 Y167.145 E127.15410 F1200
G1 X105.205 Y166.817 E127.16862 F1200
G1 X104.908 Y166.526 E127.18352 F1200
G1 X104.565 Y166.291 E127.19843 F1200
G1 X104.182 Y166.118 E127.21352 F1200
G1 X103.780 Y166.015 E127.22839 F1200
G1 X103.414 Y165.983 E127.24157 F1200
G1 X102.949 Y166.024 E127.25831 F1200
G1 X102.547 Y166.135 E127.27329 F1200
G1 X102.173 Y166.316 E127.28820 F1200
G1 X101.831 Y166.558 E127.30321 F1200
G1 X101.539 Y166.857 E127.31819 F1200
G1 X101.304 Y167.200 E127.33310 F1200
G1 X101.131 Y167.580 E127.34808 F1200
G1 X101.028 Y167.985 E127.36306 F1200
G1 X100.996 Y168.401 E127.37804 F1200
G1 X101.037 Y168.816 E127.39301 F1200
G1 X101.148 Y169.217 E127.40796 F1200
G1 X101.329 Y169.594 E127.42297 F1200
G1 X101.572 Y169.934 E127.43795 F1200
G1 X101.871 Y170.225 E127.45293 F1200
G1 X102.215 Y170.460 E127.46787 F1200
G1 X102.595 Y170.633 E127.48285 F1200
G1 X102.997 Y170.736 E127.49772 F1200
G1 X103.415 Y170.769 E127.51278 F1200
G1 X103.829 Y170.727 E127.52772 F1200
G1 X104.235 Y170.615 E127.54284 F1200
G1 X104.619 Y170.426 E127.55818 F1200
G1 X104.945 Y170.193 E127.57255 F1200
G1 X105.239 Y169.894 E127.58760 F1200
G1 X105.474 Y169.550 E127.60254 F1200
G1 X105.646 Y169.171 E127.61748 F1200
G1 X105.750 Y168.767 E127.63246 F1200
G1 X105.782 Y168.351 E127.64744 F1200
G1 F1500 E119.64744
G0 X60.527 Y32.874 F7200
G1 F1500 E127.64744
G1 X60.486 Y32.459 E127.66242 F1200
G1 X60.374 Y32.053 E127.67754 F1200
G1 X60.185 Y31.667 E127.69295 F1200
G1 X59.951 Y31.341 E127.70736 F1200
G1 X59.653 Y31.048 E127.72234 F1200
G1 X59.308 Y30.814 E127.73728 F1200
G1 X58.928 Y30.641 E127.75226 F1200
G1 X58.525 Y30.538 E127.76717 F1200
G1 X58.159 Y30.506 E127.78035 F1200
G1 X57.694 Y30.547 E127.79709 F1200
G1 X57.293 Y30.658 E127.81203 F1200
G1 X56.914 Y30.840 E127.82712 F1200
G1 X56.580 Y31.080 E127.84188 F1200
G1 X56.284 Y31.380 E127.85701 F1200
G1 X56.049 Y31.724 E127.87195 F1200
G1 X55.877 Y32.104 E127.88693 F1200
G1 X55.773 Y32.508 E127.90191 F1200
G1 X55.741 Y32.927 E127.91699 F1200
G1 X55.785 Y33.355 E127.93244 F1200
G1 X55.894 Y33.742 E127.94688 F1200
G1 X56.074 Y34.115 E127.96175 F1200
G1 X56.318 Y34.458 E127.97684 F1200
G1 X56.616 Y34.747 E127.99175 F1200
G1 X56.958 Y34.983 E128.00665 F1200
G1 X57.341 Y35.156 E128.02174 F1200
G1 X57.742 Y35.259 E128.03661 F1200
G1 X58.160 Y35.292 E128.05166 F1200
G1 X58.574 Y35.250 E128.06660 F1200
G1 X58.978 Y35.138 E128.08166 F1200
G1 X59.364 Y34.951 E128.09703 F1200
G1 X59.693 Y34.716 E128.11154 F1200
G1 X59.984 Y34.418 E128.12648 F1200
G1 X60.219 Y34.074 E128.14143 F1200
G1 X60.392 Y33.692 E128.15648 F1200
G1 X60.495 Y33.290 E128.17135 F1200
G1 X60.527 Y32.874 E128.18633 F1200
G1 F1500 E120.18633
G0 X104.776 Y53.192 F7200
G1 F1500 E128.18633
G1 X104.535 Y53.242 E128.19517 F1200
G1 X104.055 Y53.428 E128.21363 F1200
G1 X103.611 Y53.697 E128.23227 F1200
G1 X103.220 Y54.041 E128.25095 F1200
G1 X102.901 Y54.440 E128.26927 F1200
G1 X102.650 Y54.896 E128.28795 F1200
G1 X102.485 Y55.382 E128.30638 F1200
G1 X102.466 Y55.497 E128.31054 F1200
G1 X81.059 Y34.127 E129.39704 F1200
G1 X80.790 Y34.030 E129.40728 F1200
G1 X80.581 Y34.013 E129.41479 F1200
G1 X80.368 Y34.050 E129.42255 F1200
G1 X80.111 Y34.173 E129.43275 F1200
G1 X80.006 Y34.259 E129.43760 F1200
G1 X71.540 Y42.726 E129.86768 F1200
G1 X71.125 Y43.085 E129.88737 F1200
G1 X70.694 Y43.362 E129.90576 F1200
G1 X70.226 Y43.577 E129.92426 F1200
G1 X69.707 Y43.727 E129.94365 F1200
G1 X69.215 Y43.799 E129.96151 F1200
G1 X68.686 E129.98051 F1200
G1 X68.194 Y43.727 E129.99836 F1200
G1 X67.675 Y43.577 E130.01776 F1200
G1 X67.207 Y43.362 E130.03626 F1200
G1 X66.779 Y43.086 E130.05454 F1200
G1 X66.354 Y42.719 E130.07469 F1200
G1 X62.217 Y38.589 E130.28465 F1200
G1 X61.806 Y38.255 E130.30365 F1200
G1 X61.328 Y37.981 E130.32341 F1200
G1 X60.813 Y37.792 E130.34309 F1200
G1 X60.269 Y37.686 E130.36299 F1200
G1 X59.721 Y37.673 E130.38268 F1200
G1 X59.179 Y37.748 E130.40233 F1200
G1 X58.652 Y37.910 E130.42212 F1200
G1 X58.162 Y38.155 E130.44177 F1200
G1 X57.716 Y38.477 E130.46153 F1200
G1 X57.328 Y38.869 E130.48132 F1200
G1 X57.013 Y39.313 E130.50086 F1200
G1 X56.801 Y39.734 E130.51778 F1200
G1 X55.660 Y42.586 E130.62809 F1200
G1 X54.618 Y45.455 E130.73772 F1200
G1 X53.660 Y48.355 E130.84742 F1200
G1 X52.792 Y51.284 E130.95713 F1200
G1 X52.016 Y54.237 E131.06679 F1200
G1 X51.332 Y57.212 E131.17642 F1200
G1 X50.740 Y60.210 E131.28616 F1200
G1 X50.240 Y63.221 E131.39579 F1200
G1 X49.833 Y66.246 E131.50542 F1200
G1 X49.517 Y69.284 E131.61513 F1200
G1 X49.293 Y72.334 E131.72497 F1200
G1 X49.176 Y75.572 E131.84136 F1200
G1 X48.911 Y75.399 E131.85271 F1200
G1 X48.433 Y75.193 E131.87139 F1200
G1 X47.941 Y75.075 E131.88953 F1200
G1 X47.525 Y75.043 E131.90451 F1200
G1 X46.903 Y75.103 E131.92692 F1200
G1 X46.407 Y75.251 E131.94549 F1200
G1 X45.942 Y75.484 E131.96417 F1200
G1 X45.534 Y75.788 E131.98242 F1200
G1 X45.171 Y76.170 E132.00131 F1200
G1 X44.881 Y76.620 E132.02053 F1200
G1 Y76.421 E132.02768 F1200
G1 X44.982 Y73.176 E132.14428 F1200
G1 X45.182 Y69.973 E132.25955 F1200
G1 X45.479 Y66.781 E132.37468 F1200
G1 X45.878 Y63.586 E132.49030 F1200
G1 X46.381 Y60.378 E132.60694 F1200
G1 X46.974 Y57.222 E132.72228 F1200
G1 X47.665 Y54.093 E132.83737 F1200
G1 X48.458 Y50.973 E132.95300 F1200
G1 X49.355 Y47.850 E133.06971 F1200
G1 X50.335 Y44.795 E133.18494 F1200
G1 X51.410 Y41.774 E133.30011 F1200
G1 X52.584 Y38.773 E133.41584 F1200
G1 X53.860 Y35.787 E133.53248 F1200
G1 X55.168 Y32.972 E133.64398 F1200
G1 X55.232 Y33.514 E133.66355 F1200
G1 X55.377 Y33.994 E133.68155 F1200
G1 X55.606 Y34.451 E133.69991 F1200
G1 X55.918 Y34.874 E133.71877 F1200
G1 X56.291 Y35.223 E133.73708 F1200
G1 X56.723 Y35.508 E133.75566 F1200
G1 X57.200 Y35.715 E133.77430 F1200
G1 X57.699 Y35.833 E133.79269 F1200
G1 X58.221 Y35.865 E133.81144 F1200
G1 X58.731 Y35.805 E133.82987 F1200
G1 X59.232 Y35.655 E133.84862 F1200
G1 X59.701 Y35.418 E133.86748 F1200
G1 X60.107 Y35.116 E133.88565 F1200
G1 X60.461 Y34.740 E133.90419 F1200
G1 X60.744 Y34.309 E133.92269 F1200
G1 X60.951 Y33.832 E133.94133 F1200
G1 X61.069 Y33.332 E133.95976 F1200
G1 X61.100 Y32.815 E133.97833 F1200
G1 X61.041 Y32.302 E133.99687 F1200
G1 X60.890 Y31.797 E134.01580 F1200
G1 X60.651 Y31.329 E134.03465 F1200
G1 X60.353 Y30.929 E134.05254 F1200
G1 X59.974 Y30.570 E134.07129 F1200
G1 X59.544 Y30.289 E134.08972 F1200
G1 X59.068 Y30.082 E134.10836 F1200
G1 X58.575 Y29.964 E134.12654 F1200
G1 X58.159 Y29.932 E134.14152 F1200
G1 X57.537 Y29.992 E134.16393 F1200
G1 X57.041 Y30.140 E134.18250 F1200
G1 X56.576 Y30.374 E134.20118 F1200
G1 X56.407 Y30.498 E134.20869 F1200
G1 X56.627 Y30.059 E134.22633 F1200
G1 X56.821 Y29.756 E134.23922 F1200
G1 X56.994 Y29.565 E134.24846 F1200
G1 X57.219 Y29.391 E134.25866 F1200
G1 X57.469 Y29.257 E134.26882 F1200
G1 X57.733 Y29.168 E134.27881 F1200
G1 X57.994 Y29.127 E134.28829 F1200
G1 X58.264 Y29.132 E134.29799 F1200
G1 X58.562 Y29.191 E134.30887 F1200
G1 X58.814 Y29.285 E134.31850 F1200
G1 X59.043 Y29.418 E134.32798 F1200
G1 X59.297 Y29.633 E134.33991 F1200
G1 X62.374 Y32.705 E134.49609 F1200
G1 X63.150 Y33.391 E134.53327 F1200
G1 X64.010 Y33.996 E134.57103 F1200
G1 X64.930 Y34.497 E134.60863 F1200
G1 X65.904 Y34.896 E134.64642 F1200
G1 X66.915 Y35.181 E134.68414 F1200
G1 X67.952 Y35.353 E134.72189 F1200
G1 X69 Y35.405 E134.75957 F1200
G1 X70.048 Y35.341 E134.79726 F1200
G1 X71.084 Y35.159 E134.83501 F1200
G1 X72.091 Y34.863 E134.87269 F1200
G1 X73.061 Y34.455 E134.91048 F1200
G1 X73.977 Y33.942 E134.94816 F1200
G1 X74.828 Y33.331 E134.98577 F1200
