; Generated with Anisoprint Aura v2.4.8 on 04/01/2024 at 16:50 
; LAYER_COUNT:13 
M530 L13

M104 S245 T0
M140 S60 
G21 
G90 
M82 
G28
M530 S1
G1 Z10 F900
; Start change extruder 
M400
M109 S245 T0
T0 R ; switch extruder 
; End change extruder 
G92 E0 ; reset extrusion
M190 S60 
;MACROLAYER:1
;LAYER:1
M532 L1
G0 Z0.150 F1500
G0 X51.393 Y26.550 F7200
G1 X52.028 Y25.666 E0.03528 F1200
G1 X52.912 Y24.764 E0.07621 F1200
G1 X53.991 Y23.979 E0.11947 F1200
G1 X55.202 Y23.376 E0.16331 F1200
G1 X56.489 Y22.990 E0.20686 F1200
G1 X57.826 Y22.829 E0.25051 F1200
G1 X59.252 Y22.910 E0.29682 F1200
G1 X60.556 Y23.213 E0.34021 F1200
G1 X61.859 Y23.776 E0.38623 F1200
G1 X63.133 Y24.622 E0.43581 F1200
G1 X63.767 Y25.175 E0.46308 F1200
G1 X66.763 Y28.171 E0.60045 F1200
G1 X67.051 Y28.428 E0.61293 F1200
G1 X67.321 Y28.617 E0.62360 F1200
G1 X67.636 Y28.794 E0.63531 F1200
G1 X67.891 Y28.900 E0.64426 F1200
G1 X68.308 Y29.020 E0.65830 F1200
G1 X68.587 Y29.067 E0.66745 F1200
G1 X68.949 Y29.087 E0.67919 F1200
G1 X69.303 Y29.067 E0.69066 F1200
G1 X69.615 Y29.014 E0.70091 F1200
G1 X69.993 Y28.906 E0.71366 F1200
G1 X70.276 Y28.791 E0.72355 F1200
G1 X70.570 Y28.626 E0.73448 F1200
G1 X70.821 Y28.446 E0.74446 F1200
G1 X71.252 Y28.064 E0.76311 F1200
G1 X74.776 Y24.599 E0.92337 F1200
G1 X75.648 Y23.950 E0.95862 F1200
G1 X76.792 Y23.346 E1.00055 F1200
G1 X78.107 Y22.914 E1.04543 F1200
G1 X79.344 Y22.733 E1.08597 F1200
G1 X81.022 Y22.792 E1.14042 F1200
G1 X82.247 Y23.057 E1.18105 F1200
G1 X83.483 Y23.558 E1.22428 F1200
G1 X84.702 Y24.318 E1.27085 F1200
G1 X85.564 Y25.061 E1.30775 F1200
G1 X127.710 Y67.287 E3.24244 F1200
G1 X128.140 Y67.968 E3.26855 F1200
G1 X128.440 Y68.628 E3.29202 F1200
G1 X128.672 Y69.550 E3.32283 F1200
G1 X128.718 Y70.502 E3.35374 F1200
G1 X128.585 Y71.482 E3.38578 F1200
G1 X128.548 Y71.594 E3.38957 F1200
G1 X128.104 Y72.700 E3.42819 F1200
G1 X127.934 Y72.969 E3.43851 F1200
G1 X127.376 Y73.703 E3.46840 F1200
G1 X124.514 Y76.578 E3.59993 F1200
G1 X124.515 Y79.451 E3.69310 F1200
G1 X125.669 Y80.670 E3.74752 F1200
G1 X126.229 Y81.422 E3.77790 F1200
G1 X126.903 Y82.736 E3.82577 F1200
G1 X127.315 Y84.053 E3.87049 F1200
G1 X127.487 Y85.376 E3.91375 F1200
G1 X127.430 Y86.750 E3.95834 F1200
G1 X127.141 Y88.080 E4.00247 F1200
G1 X126.643 Y89.302 E4.04524 F1200
G1 X125.864 Y90.545 E4.09279 F1200
G1 X125.142 Y91.390 E4.12881 F1200
G1 X116.248 Y100.284 E4.53670 F1200
G1 X126.233 Y110.268 E4.99459 F1200
G1 X135.740 Y100.831 E5.42897 F1200
G1 X136.483 Y100.279 E5.45897 F1200
G1 X137.794 Y99.607 E5.50674 F1200
G1 X139.110 Y99.195 E5.55143 F1200
G1 X140.430 Y99.023 E5.59459 F1200
G1 X141.870 Y99.092 E5.64132 F1200
G1 X143.252 Y99.414 E5.68733 F1200
G1 X144.534 Y99.965 E5.73257 F1200
G1 X145.734 Y100.753 E5.77911 F1200
G1 X146.463 Y101.387 E5.81043 F1200
G1 X147.075 Y101.996 E5.83842 F1200
G1 X149.943 E5.93142 F1200
G1 X151.165 Y100.837 E5.98603 F1200
G1 X151.903 Y100.287 E6.01587 F1200
G1 X153.228 Y99.607 E6.06415 F1200
G1 X154.542 Y99.195 E6.10881 F1200
G1 X155.864 Y99.023 E6.15204 F1200
G1 X157.245 Y99.081 E6.19685 F1200
G1 X158.567 Y99.372 E6.24073 F1200
G1 X159.855 Y99.900 E6.28587 F1200
G1 X161.103 Y100.699 E6.33390 F1200
G1 X161.894 Y101.382 E6.36778 F1200
G1 X170.774 Y110.261 E6.77499 F1200
G1 X180.758 Y100.277 E7.23285 F1200
G1 X171.363 Y90.821 E7.66509 F1200
G1 X170.777 Y90.040 E7.69674 F1200
G1 X170.099 Y88.720 E7.74483 F1200
G1 X169.686 Y87.399 E7.78971 F1200
G1 X169.513 Y86.080 E7.83284 F1200
G1 X169.571 Y84.696 E7.87776 F1200
G1 X169.862 Y83.365 E7.92193 F1200
G1 X170.356 Y82.149 E7.96447 F1200
G1 X171.107 Y80.942 E8.01055 F1200
G1 X171.864 Y80.064 E8.04814 F1200
G1 X172.486 Y79.436 E8.07677 F1200
G1 Y76.564 E8.16991 F1200
G1 X171.334 Y75.354 E8.22406 F1200
G1 X170.774 Y74.600 E8.25451 F1200
G1 X170.075 Y73.222 E8.30462 F1200
G1 X169.671 Y71.884 E8.34992 F1200
G1 X169.511 Y70.570 E8.39282 F1200
G1 X169.575 Y69.230 E8.43631 F1200
G1 X169.868 Y67.914 E8.48002 F1200
G1 X170.367 Y66.694 E8.52276 F1200
G1 X171.080 Y65.543 E8.56664 F1200
G1 X171.868 Y64.628 E8.60578 F1200
G1 X212.062 Y24.513 E10.44731 F1200
G1 X212.866 Y23.930 E10.47951 F1200
G1 X213.980 Y23.343 E10.52033 F1200
G1 X215.322 Y22.909 E10.56606 F1200
G1 X216.565 Y22.735 E10.60676 F1200
G1 X218.244 Y22.800 E10.66124 F1200
G1 X219.463 Y23.070 E10.70171 F1200
G1 X220.683 Y23.569 E10.74445 F1200
G1 X221.936 Y24.361 E10.79251 F1200
G1 X222.754 Y25.063 E10.82743 F1200
G1 X225.870 Y28.179 E10.97031 F1200
G1 X226.139 Y28.419 E10.98199 F1200
G1 X226.431 Y28.624 E10.99353 F1200
G1 X226.732 Y28.793 E11.00472 F1200
G1 X227.007 Y28.906 E11.01435 F1200
G1 X227.385 Y29.014 E11.02710 F1200
G1 X227.697 Y29.067 E11.03734 F1200
G1 X228.051 Y29.087 E11.04882 F1200
G1 X228.413 Y29.067 E11.06056 F1200
G1 X228.692 Y29.020 E11.06971 F1200
G1 X229.109 Y28.900 E11.08375 F1200
G1 X229.364 Y28.794 E11.09270 F1200
G1 X229.675 Y28.620 E11.10424 F1200
G1 X229.922 Y28.445 E11.11404 F1200
G1 X230.350 Y28.065 E11.13259 F1200
G1 X233.644 Y24.812 E11.28270 F1200
G1 X234.584 Y24.095 E11.32103 F1200
G1 X235.717 Y23.486 E11.36273 F1200
G1 X236.991 Y23.055 E11.40632 F1200
G1 X238.329 Y22.842 E11.45023 F1200
G1 X239.664 Y22.862 E11.49352 F1200
G1 X241.011 Y23.112 E11.53795 F1200
G1 X242.275 Y23.582 E11.58166 F1200
G1 X243.423 Y24.246 E11.62466 F1200
G1 X244.464 Y25.112 E11.66857 F1200
G1 X245.355 Y26.156 E11.71306 F1200
G1 X246.026 Y27.258 E11.75489 F1200
G1 X247.495 Y30.202 E11.86158 F1200
G1 X248.943 Y33.321 E11.97307 F1200
G1 X250.273 Y36.441 E12.08304 F1200
G1 X251.519 Y39.622 E12.19381 F1200
G1 X252.660 Y42.838 E12.30446 F1200
G1 X253.708 Y46.105 E12.41569 F1200
G1 X254.645 Y49.377 E12.52605 F1200
G1 X255.486 Y52.697 E12.63708 F1200
G1 X256.230 Y56.101 E12.75006 F1200
G1 X256.853 Y59.387 E12.85850 F1200
G1 X257.377 Y62.761 E12.96922 F1200
G1 X257.800 Y66.159 E13.08025 F1200
G1 X258.117 Y69.627 E13.19317 F1200
G1 X258.326 Y72.961 E13.30148 F1200
G1 X258.427 Y76.142 E13.40467 F1200
G1 Y79.797 E13.52319 F1200
G1 X258.313 Y83.294 E13.63663 F1200
G1 X258.104 Y86.624 E13.74481 F1200
G1 X257.781 Y90.025 E13.85559 F1200
G1 X257.354 Y93.412 E13.96627 F1200
G1 X256.813 Y96.849 E14.07909 F1200
G1 X256.186 Y100.151 E14.18808 F1200
G1 X255.448 Y103.481 E14.29866 F1200
G1 X254.602 Y106.795 E14.40957 F1200
G1 X253.642 Y110.121 E14.52180 F1200
G1 X252.600 Y113.358 E14.63206 F1200
G1 X251.463 Y116.539 E14.74160 F1200
G1 X250.216 Y119.729 E14.85267 F1200
G1 X248.868 Y122.865 E14.96335 F1200
G1 X247.398 Y126.018 E15.07614 F1200
G1 X245.650 Y129.404 E15.19969 F1200
G1 X245.007 Y130.315 E15.23585 F1200
G1 X244.103 Y131.244 E15.27787 F1200
G1 X243.008 Y132.042 E15.32178 F1200
G1 X241.793 Y132.646 E15.36576 F1200
G1 X240.506 Y133.031 E15.40931 F1200
G1 X239.171 Y133.190 E15.45289 F1200
G1 X237.714 Y133.101 E15.50020 F1200
G1 X236.317 Y132.759 E15.54684 F1200
G1 X235.070 Y132.203 E15.59110 F1200
G1 X233.835 Y131.372 E15.63936 F1200
G1 X233.226 Y130.837 E15.66562 F1200
G1 X230.216 Y127.828 E15.80364 F1200
G1 X229.959 Y127.599 E15.81480 F1200
G1 X229.692 Y127.411 E15.82537 F1200
G1 X229.346 Y127.218 E15.83821 F1200
G1 X229.098 Y127.115 E15.84690 F1200
G1 X228.718 Y127.006 E15.85971 F1200
G1 X228.403 Y126.953 E15.87005 F1200
G1 X228.047 Y126.933 E15.88160 F1200
G1 X227.683 Y126.953 E15.89340 F1200
G1 X227.407 Y127 E15.90245 F1200
G1 X226.990 Y127.120 E15.91649 F1200
G1 X226.744 Y127.221 E15.92508 F1200
G1 X226.417 Y127.405 E15.93725 F1200
G1 X226.135 Y127.602 E15.94837 F1200
G1 X225.884 Y127.826 E15.95926 F1200
G1 X198.337 Y155.374 E17.22262 F1200
G1 X198.092 Y155.650 E17.23459 F1200
G1 X197.889 Y155.939 E17.24603 F1200
G1 X197.719 Y156.241 E17.25725 F1200
G1 X197.597 Y156.534 E17.26753 F1200
G1 X197.492 Y156.901 E17.27989 F1200
G1 X197.443 Y157.192 E17.28945 F1200
G1 X197.423 Y157.559 E17.30136 F1200
G1 X197.443 Y157.928 E17.31332 F1200
G1 X197.492 Y158.218 E17.32286 F1200
G1 X197.596 Y158.579 E17.33502 F1200
G1 X197.728 Y158.898 E17.34620 F1200
G1 X197.882 Y159.175 E17.35645 F1200
G1 X198.087 Y159.464 E17.36793 F1200
G1 X198.385 Y159.795 E17.38236 F1200
G1 X201.809 Y163.293 E17.54107 F1200
G1 X202.521 Y164.277 E17.58044 F1200
G1 X203.047 Y165.287 E17.61734 F1200
G1 X203.453 Y166.497 E17.65872 F1200
G1 X203.668 Y167.840 E17.70282 F1200
G1 X203.648 Y169.180 E17.74628 F1200
G1 X203.378 Y170.577 E17.79239 F1200
G1 X202.904 Y171.826 E17.83568 F1200
G1 X202.136 Y173.098 E17.88384 F1200
G1 X201.185 Y174.166 E17.93021 F1200
G1 X200.038 Y175.067 E17.97749 F1200
G1 X199.250 Y175.534 E18.00717 F1200
G1 X196.346 Y176.985 E18.11243 F1200
G1 X193.209 Y178.443 E18.22460 F1200
G1 X190.181 Y179.741 E18.33142 F1200
G1 X187.032 Y180.978 E18.44113 F1200
G1 X183.779 Y182.132 E18.55304 F1200
G1 X180.643 Y183.142 E18.65986 F1200
G1 X177.320 Y184.104 E18.77203 F1200
G1 X174.124 Y184.918 E18.87898 F1200
G1 X170.733 Y185.680 E18.99167 F1200
G1 X167.507 Y186.289 E19.09810 F1200
G1 X164.043 Y186.842 E19.21182 F1200
G1 X160.177 Y187.278 E19.33797 F1200
G1 X159.127 Y187.235 E19.37202 F1200
G1 X157.976 Y187.026 E19.40993 F1200
G1 X156.733 Y186.584 E19.45270 F1200
G1 X155.554 Y185.923 E19.49651 F1200
G1 X154.520 Y185.088 E19.53961 F1200
G1 X153.649 Y184.105 E19.58219 F1200
G1 X152.919 Y182.923 E19.62723 F1200
G1 X152.416 Y181.662 E19.67124 F1200
G1 X152.112 Y180.159 E19.72095 F1200
G1 X152.060 Y179.366 E19.74670 F1200
G1 X152.059 Y171.951 E19.98716 F1200
G1 X144.933 E20.21825 F1200
G1 X144.889 Y180.056 E20.48108 F1200
G1 X144.717 Y181.157 E20.51721 F1200
G1 X144.372 Y182.269 E20.55495 F1200
G1 X143.828 Y183.392 E20.59539 F1200
G1 X143.042 Y184.495 E20.63930 F1200
G1 X142.088 Y185.442 E20.68288 F1200
G1 X140.984 Y186.213 E20.72653 F1200
G1 X139.789 Y186.782 E20.76944 F1200
G1 X138.509 Y187.145 E20.81257 F1200
G1 X137.174 Y187.285 E20.85609 F1200
G1 X135.912 Y187.222 E20.89704 F1200
G1 X132.660 Y186.800 E21.00338 F1200
G1 X129.259 Y186.251 E21.11509 F1200
G1 X126.022 Y185.624 E21.22201 F1200
G1 X122.654 Y184.861 E21.33399 F1200
G1 X119.386 Y184.020 E21.44340 F1200
G1 X116.127 Y183.075 E21.55343 F1200
G1 X113.003 Y182.055 E21.65999 F1200
G1 X109.751 Y180.891 E21.77200 F1200
G1 X106.677 Y179.681 E21.87911 F1200
G1 X103.575 Y178.346 E21.98862 F1200
G1 X100.414 Y176.869 E22.10177 F1200
G1 X97.040 Y175.117 E22.22503 F1200
G1 X96.156 Y174.482 E22.26031 F1200
G1 X95.254 Y173.598 E22.30123 F1200
G1 X94.469 Y172.519 E22.34449 F1200
G1 X93.866 Y171.308 E22.38834 F1200
G1 X93.480 Y170.021 E22.43189 F1200
G1 X93.320 Y168.622 E22.47755 F1200
G1 X93.411 Y167.212 E22.52334 F1200
G1 X93.777 Y165.762 E22.57182 F1200
G1 X94.310 Y164.573 E22.61407 F1200
G1 X95.136 Y163.351 E22.66187 F1200
G1 X95.665 Y162.752 E22.68778 F1200
G1 X98.602 Y159.815 E22.82246 F1200
G1 X98.913 Y159.466 E22.83760 F1200
G1 X99.116 Y159.180 E22.84895 F1200
G1 X99.282 Y158.881 E22.86001 F1200
G1 X99.402 Y158.593 E22.87013 F1200
G1 X99.508 Y158.223 E22.88258 F1200
G1 X99.557 Y157.930 E22.89221 F1200
G1 X99.578 Y157.559 E22.90425 F1200
G1 X99.557 Y157.192 E22.91615 F1200
G1 X99.508 Y156.901 E22.92571 F1200
G1 X99.403 Y156.534 E22.93807 F1200
G1 X99.281 Y156.241 E22.94835 F1200
G1 X99.111 Y155.939 E22.95957 F1200
G1 X98.908 Y155.650 E22.97102 F1200
G1 X98.663 Y155.374 E22.98298 F1200
G1 X71.116 Y127.826 E24.24634 F1200
G1 X70.865 Y127.602 E24.25723 F1200
G1 X70.583 Y127.405 E24.26836 F1200
G1 X70.256 Y127.221 E24.28052 F1200
G1 X70.010 Y127.120 E24.28911 F1200
G1 X69.593 Y127 E24.30315 F1200
G1 X69.317 Y126.953 E24.31220 F1200
G1 X68.953 Y126.933 E24.32400 F1200
G1 X68.598 Y126.953 E24.33552 F1200
G1 X68.283 Y127.007 E24.34586 F1200
G1 X67.915 Y127.112 E24.35825 F1200
G1 X67.619 Y127.233 E24.36859 F1200
G1 X67.336 Y127.390 E24.37907 F1200
G1 X67.058 Y127.591 E24.39019 F1200
G1 X66.676 Y127.929 E24.40673 F1200
G1 X63.214 Y131.324 E24.56394 F1200
G1 X62.308 Y131.986 E24.60033 F1200
G1 X61.266 Y132.538 E24.63856 F1200
G1 X60.025 Y132.960 E24.68104 F1200
G1 X58.675 Y133.177 E24.72537 F1200
G1 X57.321 Y133.155 E24.76928 F1200
G1 X56.004 Y132.911 E24.81270 F1200
G1 X54.728 Y132.436 E24.85684 F1200
G1 X53.576 Y131.771 E24.89997 F1200
G1 X52.454 Y130.817 E24.94770 F1200
G1 X51.546 Y129.707 E24.99421 F1200
G1 X50.963 Y128.738 E25.03085 F1200
G1 X49.469 Y125.757 E25.13897 F1200
G1 X48.036 Y122.650 E25.24991 F1200
G1 X46.694 Y119.507 E25.36071 F1200
G1 X45.457 Y116.333 E25.47117 F1200
G1 X44.313 Y113.106 E25.58217 F1200
G1 X43.274 Y109.849 E25.69301 F1200
G1 X42.335 Y106.565 E25.80375 F1200
G1 X41.494 Y103.241 E25.91492 F1200
G1 X40.770 Y99.921 E26.02511 F1200
G1 X40.147 Y96.630 E26.13372 F1200
G1 X39.613 Y93.178 E26.24699 F1200
G1 X39.190 Y89.779 E26.35806 F1200
G1 X38.884 Y86.394 E26.46825 F1200
G1 X38.674 Y83.058 E26.57663 F1200
G1 X38.573 Y79.876 E26.67985 F1200
G1 Y76.222 E26.79834 F1200
G1 X38.687 Y72.726 E26.91174 F1200
G1 X38.896 Y69.396 E27.01993 F1200
G1 X39.219 Y65.995 E27.13070 F1200
G1 X39.646 Y62.608 E27.24138 F1200
G1 X40.187 Y59.171 E27.35420 F1200
G1 X40.813 Y55.869 E27.46316 F1200
G1 X41.552 Y52.538 E27.57377 F1200
G1 X42.399 Y49.225 E27.68465 F1200
G1 X43.354 Y45.914 E27.79636 F1200
G1 X44.402 Y42.656 E27.90733 F1200
G1 X45.537 Y39.480 E28.01668 F1200
G1 X46.784 Y36.289 E28.12778 F1200
G1 X48.132 Y33.156 E28.23837 F1200
G1 X49.603 Y30 E28.35125 F1200
G1 X51.393 Y26.550 E28.47727 F1200
G0 X51.805 Y26.868 F7200
G1 X52.415 Y26.012 E28.51135 F1200
G1 X53.240 Y25.167 E28.54962 F1200
G1 X54.252 Y24.427 E28.59025 F1200
G1 X55.381 Y23.863 E28.63117 F1200
G1 X56.583 Y23.501 E28.67187 F1200
G1 X57.837 Y23.348 E28.71283 F1200
G1 X59.164 Y23.421 E28.75593 F1200
G1 X60.388 Y23.704 E28.79666 F1200
G1 X61.556 Y24.198 E28.83778 F1200
G1 X62.777 Y25.002 E28.88516 F1200
G1 X63.394 Y25.538 E28.91165 F1200
G1 X66.403 Y28.547 E29.04963 F1200
G1 X66.721 Y28.831 E29.06345 F1200
G1 X67.047 Y29.060 E29.07635 F1200
G1 X67.410 Y29.264 E29.08984 F1200
G1 X67.722 Y29.393 E29.10077 F1200
G1 X68.188 Y29.527 E29.11647 F1200
G1 X68.532 Y29.585 E29.12775 F1200
G1 X68.950 Y29.608 E29.14131 F1200
G1 X69.360 Y29.585 E29.15460 F1200
G1 X69.731 Y29.522 E29.16680 F1200
G1 X70.161 Y29.399 E29.18129 F1200
G1 X70.501 Y29.260 E29.19319 F1200
G1 X70.852 Y29.064 E29.20623 F1200
G1 X71.145 Y28.853 E29.21794 F1200
G1 X71.607 Y28.444 E29.23795 F1200
G1 X75.078 Y25.022 E29.39600 F1200
G1 X75.910 Y24.398 E29.42973 F1200
G1 X76.984 Y23.829 E29.46913 F1200
G1 X78.215 Y23.422 E29.51116 F1200
G1 X79.368 Y23.251 E29.54894 F1200
G1 X80.890 Y23.296 E29.59829 F1200
G1 X82.086 Y23.551 E29.63792 F1200
G1 X83.241 Y24.016 E29.67829 F1200
G1 X84.347 Y24.698 E29.72042 F1200
G1 X85.189 Y25.421 E29.75638 F1200
G1 X127.286 Y67.585 E31.68851 F1200
G1 X127.660 Y68.169 E31.71099 F1200
G1 X127.948 Y68.795 E31.73333 F1200
G1 X128.152 Y69.561 E31.75901 F1200
G1 X128.205 Y70.419 E31.78687 F1200
G1 X128.097 Y71.301 E31.81567 F1200
G1 X128.066 Y71.398 E31.81894 F1200
G1 X127.672 Y72.410 E31.85413 F1200
G1 X127.524 Y72.649 E31.86324 F1200
G1 X127.021 Y73.322 E31.89048 F1200
G1 X123.994 Y76.363 E32.02960 F1200
G1 X123.995 Y79.660 E32.13651 F1200
G1 X125.244 Y80.970 E32.19521 F1200
G1 X125.781 Y81.685 E32.22420 F1200
G1 X126.419 Y82.923 E32.26934 F1200
G1 X126.806 Y84.155 E32.31121 F1200
G1 X126.968 Y85.388 E32.35152 F1200
G1 X126.917 Y86.671 E32.39315 F1200
G1 X126.648 Y87.918 E32.43450 F1200
G1 X126.187 Y89.054 E32.47423 F1200
G1 X125.478 Y90.197 E32.51784 F1200
G1 X124.782 Y91.014 E32.55264 F1200
G1 X115.512 Y100.284 E32.97775 F1200
G1 X126.232 Y111.002 E33.46930 F1200
G1 X136.038 Y101.257 E33.91759 F1200
G1 X136.745 Y100.727 E33.94623 F1200
G1 X137.981 Y100.091 E33.99130 F1200
G1 X139.212 Y99.704 E34.03314 F1200
G1 X140.443 Y99.542 E34.07338 F1200
G1 X141.732 Y99.594 E34.11521 F1200
G1 X143.030 Y99.885 E34.15834 F1200
G1 X144.279 Y100.417 E34.20235 F1200
G1 X145.382 Y101.136 E34.24502 F1200
G1 X146.092 Y101.751 E34.27547 F1200
G1 X146.860 Y102.516 E34.31059 F1200
G1 X150.152 E34.41735 F1200
G1 X151.460 Y101.266 E34.47601 F1200
G1 X152.171 Y100.731 E34.50484 F1200
G1 X153.415 Y100.091 E34.55018 F1200
G1 X154.645 Y99.704 E34.59198 F1200
G1 X155.876 Y99.542 E34.63222 F1200
G1 X157.168 Y99.594 E34.67415 F1200
G1 X158.404 Y99.864 E34.71517 F1200
G1 X159.605 Y100.355 E34.75723 F1200
G1 X160.751 Y101.082 E34.80124 F1200
G1 X161.522 Y101.746 E34.83422 F1200
G1 X170.774 Y110.997 E35.25848 F1200
G1 X181.492 Y100.277 E35.75004 F1200
G1 X171.786 Y90.518 E36.19635 F1200
G1 X171.222 Y89.773 E36.22664 F1200
G1 X170.583 Y88.533 E36.27185 F1200
G1 X170.195 Y87.297 E36.31384 F1200
G1 X170.032 Y86.068 E36.35402 F1200
G1 X170.084 Y84.775 E36.39598 F1200
G1 X170.355 Y83.528 E36.43736 F1200
G1 X170.813 Y82.395 E36.47699 F1200
G1 X171.516 Y81.262 E36.52022 F1200
G1 X172.227 Y80.436 E36.55553 F1200
G1 X173.006 Y79.650 E36.59140 F1200
G1 Y76.355 E36.69825 F1200
G1 X171.756 Y75.050 E36.75685 F1200
G1 X171.220 Y74.335 E36.78581 F1200
G1 X170.560 Y73.038 E36.83299 F1200
G1 X170.182 Y71.789 E36.87528 F1200
G1 X170.030 Y70.561 E36.91539 F1200
G1 X170.088 Y69.311 E36.95596 F1200
G1 X170.360 Y68.077 E36.99692 F1200
G1 X170.822 Y66.944 E37.03658 F1200
G1 X171.489 Y65.862 E37.07779 F1200
G1 X172.228 Y65.003 E37.11454 F1200
G1 X212.358 Y24.940 E38.95340 F1200
G1 X213.090 Y24.400 E38.98288 F1200
G1 X214.172 Y23.825 E39.02260 F1200
G1 X215.428 Y23.417 E39.06541 F1200
G1 X216.624 Y23.251 E39.10455 F1200
G1 X218.167 Y23.313 E39.15462 F1200
G1 X219.297 Y23.562 E39.19214 F1200
G1 X220.437 Y24.026 E39.23203 F1200
G1 X221.580 Y24.742 E39.27574 F1200
G1 X222.386 Y25.431 E39.31012 F1200
G1 X225.502 Y28.547 E39.45300 F1200
G1 X225.818 Y28.829 E39.46671 F1200
G1 X226.148 Y29.061 E39.47978 F1200
G1 X226.508 Y29.264 E39.49318 F1200
G1 X226.839 Y29.399 E39.50475 F1200
G1 X227.269 Y29.522 E39.51925 F1200
G1 X227.640 Y29.585 E39.53144 F1200
G1 X228.050 Y29.608 E39.54474 F1200
G1 X228.468 Y29.585 E39.55829 F1200
G1 X228.812 Y29.527 E39.56958 F1200
G1 X229.278 Y29.393 E39.58527 F1200
G1 X229.592 Y29.263 E39.59627 F1200
G1 X229.953 Y29.061 E39.60966 F1200
G1 X230.244 Y28.854 E39.62124 F1200
G1 X230.706 Y28.444 E39.64125 F1200
G1 X233.993 Y25.196 E39.79110 F1200
G1 X234.849 Y24.541 E39.82602 F1200
G1 X235.910 Y23.968 E39.86510 F1200
G1 X237.107 Y23.561 E39.90609 F1200
G1 X238.354 Y23.361 E39.94702 F1200
G1 X239.603 Y23.377 E39.98752 F1200
G1 X240.860 Y23.609 E40.02896 F1200
G1 X242.042 Y24.046 E40.06982 F1200
G1 X243.117 Y24.665 E40.11003 F1200
G1 X244.093 Y25.475 E40.15115 F1200
G1 X244.924 Y26.446 E40.19260 F1200
G1 X245.558 Y27.486 E40.23210 F1200
G1 X247.024 Y30.421 E40.33846 F1200
G1 X248.465 Y33.525 E40.44943 F1200
G1 X249.789 Y36.630 E40.55888 F1200
G1 X251.029 Y39.796 E40.66914 F1200
G1 X252.165 Y42.997 E40.77926 F1200
G1 X253.208 Y46.248 E40.88998 F1200
G1 X254.141 Y49.505 E40.99981 F1200
G1 X254.978 Y52.808 E41.11030 F1200
G1 X255.718 Y56.190 E41.22256 F1200
G1 X256.339 Y59.467 E41.33071 F1200
G1 X256.861 Y62.825 E41.44091 F1200
G1 X257.282 Y66.206 E41.55139 F1200
G1 X257.597 Y69.652 E41.66359 F1200
G1 X257.806 Y72.978 E41.77164 F1200
G1 X257.907 Y76.167 E41.87509 F1200
G1 Y79.781 E41.99229 F1200
G1 X257.794 Y83.254 E42.10495 F1200
G1 X257.586 Y86.575 E42.21284 F1200
G1 X257.265 Y89.961 E42.32313 F1200
G1 X256.841 Y93.332 E42.43329 F1200
G1 X256.303 Y96.745 E42.54533 F1200
G1 X255.679 Y100.038 E42.65400 F1200
G1 X254.944 Y103.352 E42.76406 F1200
G1 X254.103 Y106.651 E42.87445 F1200
G1 X253.150 Y109.954 E42.98590 F1200
G1 X252.110 Y113.184 E43.09593 F1200
G1 X250.979 Y116.350 E43.20493 F1200
G1 X249.738 Y119.524 E43.31541 F1200
G1 X248.397 Y122.645 E43.42554 F1200
G1 X246.940 Y125.771 E43.53735 F1200
G1 X245.231 Y129.096 E43.65857 F1200
G1 X244.621 Y129.968 E43.69307 F1200
G1 X243.770 Y130.845 E43.73270 F1200
G1 X242.747 Y131.593 E43.77379 F1200
G1 X241.614 Y132.158 E43.81484 F1200
G1 X240.412 Y132.520 E43.85554 F1200
G1 X239.160 Y132.671 E43.89643 F1200
G1 X237.854 Y132.601 E43.93882 F1200
G1 X236.547 Y132.292 E43.98237 F1200
G1 X235.330 Y131.755 E44.02550 F1200
G1 X234.191 Y130.993 E44.06993 F1200
G1 X233.598 Y130.473 E44.09548 F1200
G1 X230.583 Y127.458 E44.23372 F1200
G1 X230.284 Y127.192 E44.24670 F1200
G1 X229.962 Y126.966 E44.25944 F1200
G1 X229.578 Y126.751 E44.27371 F1200
G1 X229.265 Y126.622 E44.28467 F1200
G1 X228.836 Y126.499 E44.29913 F1200
G1 X228.458 Y126.435 E44.31155 F1200
G1 X228.048 Y126.412 E44.32485 F1200
G1 X227.628 Y126.435 E44.33847 F1200
G1 X227.286 Y126.493 E44.34969 F1200
G1 X226.824 Y126.626 E44.36525 F1200
G1 X226.518 Y126.751 E44.37596 F1200
G1 X226.143 Y126.962 E44.38990 F1200
G1 X225.811 Y127.195 E44.40303 F1200
G1 X225.516 Y127.458 E44.41584 F1200
G1 X197.969 Y155.005 E45.67917 F1200
G1 X197.681 Y155.328 E45.69317 F1200
G1 X197.448 Y155.662 E45.70637 F1200
G1 X197.252 Y156.011 E45.71934 F1200
G1 X197.104 Y156.367 E45.73183 F1200
G1 X196.985 Y156.781 E45.74577 F1200
G1 X196.925 Y157.139 E45.75751 F1200
G1 X196.901 Y157.559 E45.77113 F1200
G1 X196.925 Y157.983 E45.78488 F1200
G1 X196.985 Y158.338 E45.79656 F1200
G1 X197.103 Y158.748 E45.81037 F1200
G1 X197.258 Y159.123 E45.82350 F1200
G1 X197.441 Y159.451 E45.83567 F1200
G1 X197.680 Y159.788 E45.84906 F1200
G1 X198.019 Y160.164 E45.86547 F1200
G1 X201.379 Y163.585 E46.02096 F1200
G1 X202.055 Y164.507 E46.05803 F1200
G1 X202.546 Y165.432 E46.09198 F1200
G1 X202.947 Y166.613 E46.13242 F1200
G1 X203.149 Y167.866 E46.17357 F1200
G1 X203.133 Y169.116 E46.21411 F1200
G1 X202.882 Y170.425 E46.25730 F1200
G1 X202.440 Y171.594 E46.29781 F1200
G1 X201.723 Y172.784 E46.34285 F1200
G1 X200.836 Y173.782 E46.38614 F1200
G1 X199.786 Y174.612 E46.42953 F1200
G1 X199.022 Y175.066 E46.45833 F1200
G1 X196.127 Y176.514 E46.56327 F1200
G1 X193.012 Y177.962 E46.67466 F1200
G1 X189.991 Y179.257 E46.78122 F1200
G1 X186.858 Y180.488 E46.89037 F1200
G1 X183.627 Y181.635 E47.00154 F1200
G1 X180.498 Y182.643 E47.10813 F1200
G1 X177.200 Y183.598 E47.21946 F1200
G1 X174.010 Y184.411 E47.32618 F1200
G1 X170.645 Y185.167 E47.43800 F1200
G1 X167.425 Y185.776 E47.54427 F1200
G1 X163.995 Y186.324 E47.65689 F1200
G1 X160.208 Y186.759 E47.78048 F1200
G1 X159.236 Y186.726 E47.81200 F1200
G1 X158.123 Y186.528 E47.84864 F1200
G1 X156.957 Y186.116 E47.88872 F1200
G1 X155.859 Y185.502 E47.92952 F1200
G1 X154.886 Y184.720 E47.96999 F1200
G1 X154.072 Y183.804 E48.00971 F1200
G1 X153.386 Y182.697 E48.05194 F1200
G1 X152.916 Y181.522 E48.09296 F1200
G1 X152.632 Y180.146 E48.13852 F1200
G1 X152.580 Y179.366 E48.16385 F1200
G1 X152.579 Y171.431 E48.42117 F1200
G1 X144.415 E48.68592 F1200
G1 X144.378 Y179.962 E48.96256 F1200
G1 X144.224 Y180.988 E48.99619 F1200
G1 X143.911 Y182.028 E49.03141 F1200
G1 X143.385 Y183.121 E49.07071 F1200
G1 X142.654 Y184.150 E49.11164 F1200
G1 X141.765 Y185.035 E49.15230 F1200
G1 X140.732 Y185.759 E49.19320 F1200
G1 X139.619 Y186.291 E49.23318 F1200
G1 X138.419 Y186.634 E49.27365 F1200
G1 X137.178 Y186.766 E49.31412 F1200
G1 X135.990 Y186.708 E49.35268 F1200
G1 X132.746 Y186.287 E49.45875 F1200
G1 X129.366 Y185.742 E49.56976 F1200
G1 X126.137 Y185.117 E49.67638 F1200
G1 X122.791 Y184.360 E49.78761 F1200
G1 X119.538 Y183.523 E49.89651 F1200
G1 X116.297 Y182.583 E50.00592 F1200
G1 X113.178 Y181.566 E50.11229 F1200
G1 X109.949 Y180.410 E50.22349 F1200
G1 X106.882 Y179.203 E50.33034 F1200
G1 X103.795 Y177.875 E50.43930 F1200
G1 X100.662 Y176.412 E50.55140 F1200
G1 X97.358 Y174.705 E50.67197 F1200
G1 X96.502 Y174.095 E50.70606 F1200
G1 X95.657 Y173.270 E50.74432 F1200
G1 X94.917 Y172.258 E50.78496 F1200
G1 X94.353 Y171.129 E50.82588 F1200
G1 X93.991 Y169.927 E50.86658 F1200
G1 X93.838 Y168.673 E50.90754 F1200
G1 X93.912 Y167.354 E50.95037 F1200
G1 X94.243 Y165.995 E50.99571 F1200
G1 X94.760 Y164.832 E51.03696 F1200
G1 X95.516 Y163.706 E51.08093 F1200
G1 X96.032 Y163.120 E51.10623 F1200
G1 X98.988 Y160.165 E51.24175 F1200
G1 X99.321 Y159.791 E51.25796 F1200
G1 X99.556 Y159.459 E51.27113 F1200
G1 X99.750 Y159.112 E51.28400 F1200
G1 X99.895 Y158.760 E51.29632 F1200
G1 X100.015 Y158.341 E51.31043 F1200
G1 X100.075 Y157.985 E51.32214 F1200
G1 X100.099 Y157.559 E51.33595 F1200
G1 X100.075 Y157.139 E51.34957 F1200
G1 X100.015 Y156.781 E51.36131 F1200
G1 X99.896 Y156.367 E51.37525 F1200
G1 X99.748 Y156.011 E51.38774 F1200
G1 X99.552 Y155.662 E51.40071 F1200
G1 X99.319 Y155.328 E51.41391 F1200
G1 X99.031 Y155.005 E51.42792 F1200
G1 X71.484 Y127.458 E52.69124 F1200
G1 X71.189 Y127.195 E52.70405 F1200
G1 X70.857 Y126.962 E52.71718 F1200
G1 X70.482 Y126.751 E52.73113 F1200
G1 X70.176 Y126.626 E52.74183 F1200
G1 X69.714 Y126.493 E52.75740 F1200
G1 X69.372 Y126.435 E52.76862 F1200
G1 X68.952 Y126.412 E52.78224 F1200
G1 X68.542 Y126.435 E52.79553 F1200
G1 X68.166 Y126.499 E52.80789 F1200
G1 X67.747 Y126.619 E52.82199 F1200
G1 X67.394 Y126.763 E52.83435 F1200
G1 X67.055 Y126.952 E52.84693 F1200
G1 X66.734 Y127.183 E52.85974 F1200
G1 X66.322 Y127.547 E52.87754 F1200
G1 X62.921 Y130.894 E53.03226 F1200
G1 X62.075 Y131.521 E53.06641 F1200
G1 X61.075 Y132.056 E53.10318 F1200
G1 X59.910 Y132.454 E53.14310 F1200
G1 X58.649 Y132.658 E53.18451 F1200
G1 X57.384 Y132.640 E53.22553 F1200
G1 X56.151 Y132.414 E53.26617 F1200
G1 X54.963 Y131.974 E53.30722 F1200
G1 X53.882 Y131.352 E53.34766 F1200
G1 X52.867 Y130.500 E53.39063 F1200
G1 X52 Y129.454 E53.43467 F1200
G1 X51.437 Y128.522 E53.46995 F1200
G1 X49.945 Y125.547 E53.57787 F1200
G1 X48.517 Y122.453 E53.68836 F1200
G1 X47.182 Y119.326 E53.79861 F1200
G1 X45.947 Y116.159 E53.90884 F1200
G1 X44.811 Y112.956 E54.01903 F1200
G1 X43.776 Y109.714 E54.12939 F1200
G1 X42.841 Y106.445 E54.23964 F1200
G1 X42.004 Y103.139 E54.35022 F1200
G1 X41.282 Y99.831 E54.46000 F1200
G1 X40.661 Y96.551 E54.56824 F1200
G1 X40.130 Y93.122 E54.68074 F1200
G1 X39.709 Y89.741 E54.79122 F1200
G1 X39.403 Y86.368 E54.90102 F1200
G1 X39.194 Y83.041 E55.00911 F1200
G1 X39.093 Y79.851 E55.11259 F1200
G1 Y76.238 E55.22975 F1200
G1 X39.206 Y72.766 E55.34238 F1200
G1 X39.414 Y69.445 E55.45027 F1200
G1 X39.735 Y66.059 E55.56056 F1200
G1 X40.159 Y62.688 E55.67072 F1200
G1 X40.697 Y59.275 E55.78276 F1200
G1 X41.321 Y55.982 E55.89143 F1200
G1 X42.056 Y52.667 E56.00152 F1200
G1 X42.898 Y49.369 E56.11188 F1200
G1 X43.848 Y46.073 E56.22311 F1200
G1 X44.892 Y42.830 E56.33356 F1200
G1 X46.021 Y39.669 E56.44239 F1200
G1 X47.262 Y36.494 E56.55291 F1200
G1 X48.603 Y33.375 E56.66300 F1200
G1 X50.065 Y30.238 E56.77521 F1200
G1 X51.805 Y26.868 E56.89817 F1200
G0 X52.220 Y27.181 F7200
G1 X52.803 Y26.358 E56.93086 F1200
G1 X53.572 Y25.566 E56.96663 F1200
G1 X54.511 Y24.876 E57.00441 F1200
G1 X55.560 Y24.350 E57.04245 F1200
G1 X56.678 Y24.011 E57.08033 F1200
G1 X57.848 Y23.867 E57.11853 F1200
G1 X59.023 Y23.922 E57.15666 F1200
G1 X60.222 Y24.196 E57.19652 F1200
G1 X61.303 Y24.651 E57.23452 F1200
G1 X62.425 Y25.384 E57.27798 F1200
G1 X63.021 Y25.901 E57.30353 F1200
G1 X66.035 Y28.915 E57.44174 F1200
G1 X66.398 Y29.239 E57.45750 F1200
G1 X66.777 Y29.505 E57.47252 F1200
G1 X67.178 Y29.731 E57.48744 F1200
G1 X67.557 Y29.887 E57.50070 F1200
G1 X68.068 Y30.034 E57.51792 F1200
G1 X68.477 Y30.103 E57.53134 F1200
G1 X68.950 Y30.129 E57.54668 F1200
G1 X69.417 Y30.103 E57.56183 F1200
G1 X69.847 Y30.030 E57.57597 F1200
G1 X70.329 Y29.892 E57.59221 F1200
G1 X70.728 Y29.729 E57.60619 F1200
G1 X71.131 Y29.503 E57.62117 F1200
G1 X71.469 Y29.262 E57.63463 F1200
G1 X71.964 Y28.822 E57.65610 F1200
G1 X75.377 Y25.448 E57.81172 F1200
G1 X76.177 Y24.843 E57.84425 F1200
G1 X77.176 Y24.311 E57.88092 F1200
G1 X78.322 Y23.930 E57.92007 F1200
G1 X79.392 Y23.769 E57.95515 F1200
G1 X80.759 Y23.800 E57.99948 F1200
G1 X81.927 Y24.045 E58.03817 F1200
G1 X82.994 Y24.474 E58.07546 F1200
G1 X84.028 Y25.108 E58.11477 F1200
G1 X84.821 Y25.788 E58.14862 F1200
G1 X126.884 Y67.913 E60.07907 F1200
G1 X127.182 Y68.373 E60.09684 F1200
G1 X127.456 Y68.962 E60.11788 F1200
G1 X127.636 Y69.614 E60.13981 F1200
G1 X127.687 Y70.396 E60.16520 F1200
G1 X127.605 Y71.131 E60.18916 F1200
G1 X127.582 Y71.208 E60.19176 F1200
G1 X127.237 Y72.124 E60.22347 F1200
G1 X127.109 Y72.335 E60.23145 F1200
G1 X126.667 Y72.940 E60.25574 F1200
G1 X123.474 Y76.148 E60.40251 F1200
G1 X123.475 Y79.870 E60.52321 F1200
G1 X124.823 Y81.274 E60.58632 F1200
G1 X125.335 Y81.951 E60.61381 F1200
G1 X125.936 Y83.112 E60.65620 F1200
G1 X126.297 Y84.258 E60.69515 F1200
G1 X126.449 Y85.400 E60.73250 F1200
G1 X126.404 Y86.594 E60.77122 F1200
G1 X126.155 Y87.756 E60.80975 F1200
G1 X125.730 Y88.808 E60.84652 F1200
G1 X125.093 Y89.847 E60.88602 F1200
G1 X124.422 Y90.638 E60.91965 F1200
G1 X114.776 Y100.284 E61.36201 F1200
G1 X126.232 Y111.737 E61.88732 F1200
G1 X136.340 Y101.680 E62.34969 F1200
G1 X137.011 Y101.173 E62.37696 F1200
G1 X138.169 Y100.574 E62.41921 F1200
G1 X139.315 Y100.213 E62.45816 F1200
G1 X140.455 Y100.061 E62.49545 F1200
G1 X141.658 Y100.107 E62.53447 F1200
G1 X142.808 Y100.356 E62.57260 F1200
G1 X143.981 Y100.844 E62.61379 F1200
G1 X145.030 Y101.519 E62.65422 F1200
G1 X145.712 Y102.107 E62.68341 F1200
G1 X146.645 Y103.036 E62.72609 F1200
G1 X150.362 E62.84662 F1200
G1 X151.762 Y101.690 E62.90960 F1200
G1 X152.438 Y101.177 E62.93710 F1200
G1 X153.603 Y100.574 E62.97961 F1200
G1 X154.748 Y100.213 E63.01853 F1200
G1 X155.888 Y100.061 E63.05582 F1200
G1 X157.091 Y100.107 E63.09483 F1200
G1 X158.241 Y100.357 E63.13297 F1200
G1 X159.360 Y100.812 E63.17211 F1200
G1 X160.398 Y101.464 E63.21183 F1200
G1 X161.147 Y102.107 E63.24384 F1200
G1 X170.774 Y111.733 E63.68529 F1200
G1 X182.227 Y100.279 E64.21054 F1200
G1 X172.208 Y90.214 E64.67106 F1200
G1 X171.667 Y89.505 E64.69995 F1200
G1 X171.066 Y88.345 E64.74230 F1200
G1 X170.704 Y87.194 E64.78141 F1200
G1 X170.551 Y86.055 E64.81867 F1200
G1 X170.597 Y84.852 E64.85768 F1200
G1 X170.848 Y83.693 E64.89611 F1200
G1 X171.272 Y82.639 E64.93295 F1200
G1 X171.925 Y81.582 E64.97323 F1200
G1 X172.590 Y80.808 E65.00631 F1200
G1 X173.526 Y79.864 E65.04940 F1200
G1 Y76.144 E65.17004 F1200
G1 X172.181 Y74.750 E65.23285 F1200
G1 X171.665 Y74.067 E65.26061 F1200
G1 X171.045 Y72.854 E65.30478 F1200
G1 X170.693 Y71.693 E65.34411 F1200
G1 X170.549 Y70.550 E65.38147 F1200
G1 X170.601 Y69.392 E65.41906 F1200
G1 X170.852 Y68.242 E65.45723 F1200
G1 X171.277 Y67.195 E65.49384 F1200
G1 X171.901 Y66.178 E65.53252 F1200
G1 X172.588 Y65.378 E65.56670 F1200
G1 X212.654 Y25.368 E67.40288 F1200
G1 X213.324 Y24.864 E67.43005 F1200
G1 X214.363 Y24.307 E67.46825 F1200
G1 X215.482 Y23.934 E67.50649 F1200
G1 X216.679 Y23.767 E67.54566 F1200
G1 X218.089 Y23.826 E67.59142 F1200
G1 X219.132 Y24.054 E67.62602 F1200
G1 X220.188 Y24.482 E67.66296 F1200
G1 X221.232 Y25.128 E67.70275 F1200
G1 X222.010 Y25.791 E67.73589 F1200
G1 X225.134 Y28.915 E67.87916 F1200
G1 X225.497 Y29.239 E67.89492 F1200
G1 X225.872 Y29.503 E67.90977 F1200
G1 X226.277 Y29.731 E67.92482 F1200
G1 X226.671 Y29.892 E67.93860 F1200
G1 X227.153 Y30.030 E67.95485 F1200
G1 X227.583 Y30.103 E67.96899 F1200
G1 X228.050 Y30.129 E67.98413 F1200
G1 X228.523 Y30.103 E67.99947 F1200
G1 X228.932 Y30.034 E68.01289 F1200
G1 X229.439 Y29.888 E68.02998 F1200
G1 X229.826 Y29.729 E68.04354 F1200
G1 X230.230 Y29.503 E68.05852 F1200
G1 X230.568 Y29.262 E68.07198 F1200
G1 X231.063 Y28.822 E68.09345 F1200
G1 X234.338 Y25.585 E68.24275 F1200
G1 X235.122 Y24.983 E68.27479 F1200
G1 X236.104 Y24.450 E68.31101 F1200
G1 X237.223 Y24.067 E68.34934 F1200
G1 X238.380 Y23.880 E68.38735 F1200
G1 X239.543 Y23.892 E68.42506 F1200
G1 X240.710 Y24.106 E68.46352 F1200
G1 X241.810 Y24.510 E68.50150 F1200
G1 X242.811 Y25.085 E68.53892 F1200
G1 X243.723 Y25.839 E68.57728 F1200
G1 X244.493 Y26.736 E68.61561 F1200
G1 X245.090 Y27.714 E68.65274 F1200
G1 X246.553 Y30.641 E68.75885 F1200
G1 X247.987 Y33.729 E68.86924 F1200
G1 X249.305 Y36.819 E68.97816 F1200
G1 X250.539 Y39.970 E69.08790 F1200
G1 X251.670 Y43.156 E69.19751 F1200
G1 X252.708 Y46.391 E69.30767 F1200
G1 X253.637 Y49.633 E69.41702 F1200
G1 X254.470 Y52.919 E69.52692 F1200
G1 X255.206 Y56.279 E69.63844 F1200
G1 X255.825 Y59.547 E69.74630 F1200
G1 X256.345 Y62.889 E69.85597 F1200
G1 X256.764 Y66.253 E69.96588 F1200
G1 X257.078 Y69.677 E70.07737 F1200
G1 X257.286 Y72.995 E70.18516 F1200
G1 X257.387 Y76.192 E70.28886 F1200
G1 Y79.765 E70.40473 F1200
G1 X257.275 Y83.214 E70.51661 F1200
G1 X257.068 Y86.526 E70.62421 F1200
G1 X256.749 Y89.896 E70.73398 F1200
G1 X256.328 Y93.251 E70.84362 F1200
G1 X255.794 Y96.640 E70.95485 F1200
G1 X255.172 Y99.925 E71.06326 F1200
G1 X254.440 Y103.224 E71.17284 F1200
G1 X253.604 Y106.507 E71.28267 F1200
G1 X252.658 Y109.787 E71.39335 F1200
G1 X251.621 Y113.008 E71.50306 F1200
G1 X250.494 Y116.161 E71.61163 F1200
G1 X249.260 Y119.319 E71.72156 F1200
G1 X247.926 Y122.426 E71.83120 F1200
G1 X246.482 Y125.526 E71.94208 F1200
G1 X244.813 Y128.786 E72.06083 F1200
G1 X244.231 Y129.625 E72.09394 F1200
G1 X243.434 Y130.449 E72.13110 F1200
G1 X242.488 Y131.144 E72.16914 F1200
G1 X241.434 Y131.671 E72.20734 F1200
G1 X240.318 Y132.009 E72.24515 F1200
G1 X239.150 Y132.152 E72.28329 F1200
G1 X237.992 Y132.099 E72.32088 F1200
G1 X236.771 Y131.822 E72.36148 F1200
G1 X235.635 Y131.334 E72.40156 F1200
G1 X234.546 Y130.612 E72.44391 F1200
G1 X233.971 Y130.110 E72.46865 F1200
G1 X230.951 Y127.090 E72.60712 F1200
G1 X230.609 Y126.785 E72.62197 F1200
G1 X230.236 Y126.523 E72.63673 F1200
G1 X229.805 Y126.281 E72.65275 F1200
G1 X229.436 Y126.130 E72.66566 F1200
G1 X228.950 Y125.991 E72.68203 F1200
G1 X228.515 Y125.917 E72.69633 F1200
G1 X228.048 Y125.891 E72.71148 F1200
G1 X227.575 Y125.917 E72.72682 F1200
G1 X227.165 Y125.986 E72.74027 F1200
G1 X226.654 Y126.133 E72.75749 F1200
G1 X226.293 Y126.281 E72.77014 F1200
G1 X225.864 Y126.522 E72.78610 F1200
G1 X225.490 Y126.785 E72.80092 F1200
G1 X225.148 Y127.090 E72.81577 F1200
G1 X197.601 Y154.637 E74.07909 F1200
G1 X197.269 Y155.009 E74.09524 F1200
G1 X197.009 Y155.380 E74.10993 F1200
G1 X196.783 Y155.785 E74.12494 F1200
G1 X196.612 Y156.196 E74.13938 F1200
G1 X196.478 Y156.663 E74.15510 F1200
G1 X196.407 Y157.084 E74.16892 F1200
G1 X196.380 Y157.559 E74.18432 F1200
G1 X196.407 Y158.038 E74.19985 F1200
G1 X196.478 Y158.458 E74.21364 F1200
G1 X196.610 Y158.917 E74.22911 F1200
G1 X196.791 Y159.352 E74.24438 F1200
G1 X197.001 Y159.730 E74.25839 F1200
G1 X197.268 Y160.107 E74.27334 F1200
G1 X197.652 Y160.533 E74.29192 F1200
G1 X200.956 Y163.887 E74.44459 F1200
G1 X201.589 Y164.737 E74.47894 F1200
G1 X202.064 Y165.623 E74.51153 F1200
G1 X202.441 Y166.728 E74.54937 F1200
G1 X202.630 Y167.892 E74.58760 F1200
G1 X202.618 Y169.053 E74.62525 F1200
G1 X202.403 Y170.223 E74.66381 F1200
G1 X201.975 Y171.363 E74.70328 F1200
G1 X201.346 Y172.425 E74.74329 F1200
G1 X200.528 Y173.363 E74.78364 F1200
G1 X199.531 Y174.160 E74.82501 F1200
G1 X198.801 Y174.595 E74.85255 F1200
G1 X195.908 Y176.043 E74.95745 F1200
G1 X192.815 Y177.481 E75.06803 F1200
G1 X189.801 Y178.773 E75.17437 F1200
G1 X186.684 Y179.998 E75.28297 F1200
G1 X183.475 Y181.138 E75.39339 F1200
G1 X180.353 Y182.144 E75.49976 F1200
G1 X177.080 Y183.092 E75.61024 F1200
G1 X173.896 Y183.904 E75.71677 F1200
G1 X170.557 Y184.654 E75.82774 F1200
G1 X167.343 Y185.263 E75.93381 F1200
G1 X163.945 Y185.806 E76.04540 F1200
G1 X160.237 Y186.240 E76.16646 F1200
G1 X159.343 Y186.216 E76.19545 F1200
G1 X158.266 Y186.029 E76.23089 F1200
G1 X157.180 Y185.648 E76.26819 F1200
G1 X156.159 Y185.079 E76.30606 F1200
G1 X155.255 Y184.355 E76.34361 F1200
G1 X154.494 Y183.502 E76.38068 F1200
G1 X153.877 Y182.524 E76.41817 F1200
G1 X153.414 Y181.377 E76.45825 F1200
G1 X153.153 Y180.134 E76.49943 F1200
G1 X153.100 Y179.366 E76.52437 F1200
G1 X153.099 Y170.911 E76.79856 F1200
G1 X143.897 E77.09696 F1200
G1 X143.862 Y179.900 E77.38846 F1200
G1 X143.730 Y180.824 E77.41872 F1200
G1 X143.433 Y181.825 E77.45258 F1200
G1 X142.944 Y182.847 E77.48929 F1200
G1 X142.266 Y183.806 E77.52736 F1200
G1 X141.438 Y184.631 E77.56523 F1200
G1 X140.480 Y185.306 E77.60321 F1200
G1 X139.450 Y185.800 E77.64024 F1200
G1 X138.326 Y186.123 E77.67815 F1200
G1 X137.182 Y186.247 E77.71544 F1200
G1 X136.068 Y186.194 E77.75160 F1200
G1 X132.832 Y185.774 E77.85742 F1200
G1 X129.473 Y185.233 E77.96774 F1200
G1 X126.252 Y184.610 E78.07410 F1200
G1 X122.928 Y183.859 E78.18459 F1200
G1 X119.690 Y183.026 E78.29300 F1200
G1 X116.467 Y182.091 E78.40179 F1200
G1 X113.353 Y181.077 E78.50797 F1200
G1 X110.146 Y179.929 E78.61842 F1200
G1 X107.087 Y178.726 E78.72501 F1200
G1 X104.015 Y177.404 E78.83345 F1200
G1 X100.909 Y175.954 E78.94459 F1200
G1 X97.671 Y174.290 E79.06263 F1200
G1 X96.848 Y173.707 E79.09531 F1200
G1 X96.056 Y172.938 E79.13108 F1200
G1 X95.366 Y171.999 E79.16886 F1200
G1 X94.840 Y170.950 E79.20690 F1200
G1 X94.501 Y169.832 E79.24478 F1200
G1 X94.357 Y168.662 E79.28298 F1200
G1 X94.412 Y167.493 E79.32092 F1200
G1 X94.710 Y166.224 E79.36317 F1200
G1 X95.208 Y165.093 E79.40322 F1200
G1 X95.896 Y164.062 E79.44340 F1200
G1 X96.399 Y163.488 E79.46815 F1200
G1 X99.362 Y160.526 E79.60399 F1200
G1 X99.732 Y160.111 E79.62199 F1200
G1 X99.996 Y159.738 E79.63677 F1200
G1 X100.217 Y159.343 E79.65143 F1200
G1 X100.388 Y158.927 E79.66599 F1200
G1 X100.522 Y158.460 E79.68172 F1200
G1 X100.593 Y158.038 E79.69557 F1200
G1 X100.620 Y157.559 E79.71110 F1200
G1 X100.593 Y157.084 E79.72650 F1200
G1 X100.522 Y156.663 E79.74032 F1200
G1 X100.388 Y156.196 E79.75605 F1200
G1 X100.217 Y155.785 E79.77048 F1200
G1 X99.991 Y155.380 E79.78549 F1200
G1 X99.731 Y155.009 E79.80018 F1200
G1 X99.399 Y154.637 E79.81633 F1200
G1 X71.852 Y127.090 E81.07965 F1200
G1 X71.510 Y126.785 E81.09451 F1200
G1 X71.136 Y126.522 E81.10933 F1200
G1 X70.707 Y126.281 E81.12528 F1200
G1 X70.346 Y126.133 E81.13793 F1200
G1 X69.835 Y125.986 E81.15515 F1200
G1 X69.425 Y125.917 E81.16861 F1200
G1 X68.952 Y125.891 E81.18394 F1200
G1 X68.485 Y125.917 E81.19909 F1200
G1 X68.050 Y125.991 E81.21339 F1200
G1 X67.575 Y126.127 E81.22941 F1200
G1 X67.172 Y126.292 E81.24352 F1200
G1 X66.777 Y126.512 E81.25817 F1200
G1 X66.408 Y126.776 E81.27286 F1200
G1 X65.966 Y127.169 E81.29203 F1200
G1 X62.617 Y130.472 E81.44454 F1200
G1 X61.845 Y131.054 E81.47587 F1200
G1 X60.880 Y131.575 E81.51141 F1200
G1 X59.794 Y131.949 E81.54864 F1200
G1 X58.623 Y132.139 E81.58710 F1200
G1 X57.445 Y132.125 E81.62530 F1200
G1 X56.299 Y131.917 E81.66304 F1200
G1 X55.195 Y131.510 E81.70118 F1200
G1 X54.188 Y130.932 E81.73883 F1200
G1 X53.239 Y130.138 E81.77894 F1200
G1 X52.453 Y129.200 E81.81861 F1200
G1 X51.911 Y128.306 E81.85249 F1200
G1 X50.421 Y125.337 E81.96019 F1200
G1 X48.998 Y122.256 E82.07022 F1200
G1 X47.670 Y119.144 E82.17992 F1200
G1 X46.437 Y115.985 E82.28989 F1200
G1 X45.309 Y112.806 E82.39927 F1200
G1 X44.278 Y109.579 E82.50911 F1200
G1 X43.347 Y106.324 E82.61888 F1200
G1 X42.514 Y103.036 E82.72884 F1200
G1 X41.794 Y99.741 E82.83819 F1200
G1 X41.175 Y96.472 E82.94608 F1200
G1 X40.647 Y93.066 E83.05783 F1200
G1 X40.228 Y89.702 E83.16773 F1200
G1 X39.922 Y86.343 E83.27708 F1200
G1 X39.714 Y83.024 E83.38491 F1200
G1 X39.613 Y79.826 E83.48865 F1200
G1 Y76.254 E83.60448 F1200
G1 X39.725 Y72.806 E83.71633 F1200
G1 X39.932 Y69.494 E83.82393 F1200
G1 X40.251 Y66.124 E83.93370 F1200
G1 X40.672 Y62.769 E84.04334 F1200
G1 X41.206 Y59.380 E84.15457 F1200
G1 X41.828 Y56.095 E84.26298 F1200
G1 X42.560 Y52.796 E84.37255 F1200
G1 X43.397 Y49.513 E84.48242 F1200
G1 X44.341 Y46.240 E84.59287 F1200
G1 X45.382 Y43.005 E84.70307 F1200
G1 X46.505 Y39.858 E84.81141 F1200
G1 X47.740 Y36.699 E84.92138 F1200
G1 X49.074 Y33.594 E85.03095 F1200
G1 X50.523 Y30.484 E85.14218 F1200
G1 X52.220 Y27.181 E85.26259 F1200
G0 X52.638 Y27.492 F7200
G1 X53.167 Y26.730 E85.29265 F1200
G1 X53.902 Y25.967 E85.32699 F1200
G1 X54.773 Y25.324 E85.36208 F1200
G1 X55.743 Y24.836 E85.39727 F1200
G1 X56.775 Y24.521 E85.43226 F1200
G1 X57.858 Y24.386 E85.46764 F1200
G1 X58.940 Y24.435 E85.50276 F1200
G1 X60.058 Y24.688 E85.53992 F1200
G1 X61.052 Y25.105 E85.57485 F1200
G1 X62.068 Y25.763 E85.61408 F1200
G1 X62.653 Y26.269 E85.63915 F1200
G1 X65.667 Y29.283 E85.77736 F1200
G1 X66.077 Y29.649 E85.79517 F1200
G1 X66.498 Y29.945 E85.81183 F1200
G1 X66.950 Y30.199 E85.82863 F1200
G1 X67.392 Y30.381 E85.84413 F1200
G1 X67.948 Y30.541 E85.86288 F1200
G1 X68.422 Y30.621 E85.87844 F1200
G1 X68.951 Y30.651 E85.89560 F1200
G1 X69.474 Y30.621 E85.91256 F1200
G1 X69.963 Y30.538 E85.92861 F1200
G1 X70.501 Y30.384 E85.94674 F1200
G1 X70.948 Y30.201 E85.96240 F1200
G1 X71.410 Y29.942 E85.97956 F1200
G1 X71.802 Y29.663 E85.99515 F1200
G1 X72.312 Y29.209 E86.01727 F1200
G1 X75.724 Y25.835 E86.17286 F1200
G1 X76.405 Y25.312 E86.20069 F1200
G1 X77.375 Y24.790 E86.23639 F1200
G1 X78.431 Y24.438 E86.27248 F1200
G1 X79.452 Y24.285 E86.30595 F1200
G1 X80.690 Y24.314 E86.34610 F1200
G1 X81.767 Y24.539 E86.38177 F1200
G1 X82.753 Y24.933 E86.41617 F1200
G1 X83.706 Y25.515 E86.45236 F1200
G1 X84.453 Y26.155 E86.48424 F1200
G1 X126.480 Y68.239 E88.41293 F1200
G1 X126.708 Y68.585 E88.42636 F1200
G1 X126.966 Y69.131 E88.44591 F1200
G1 X127.119 Y69.666 E88.46395 F1200
G1 X127.168 Y70.377 E88.48703 F1200
G1 X127.097 Y71.020 E88.50798 F1200
G1 X126.772 Y71.893 E88.53817 F1200
G1 X126.693 Y72.022 E88.54307 F1200
G1 X126.283 Y72.589 E88.56574 F1200
G1 X122.954 Y75.933 E88.71874 F1200
G1 X122.955 Y80.080 E88.85322 F1200
G1 X124.399 Y81.576 E88.92064 F1200
G1 X124.892 Y82.221 E88.94694 F1200
G1 X125.452 Y83.300 E88.98634 F1200
G1 X125.788 Y84.362 E89.02243 F1200
G1 X125.930 Y85.413 E89.05681 F1200
G1 X125.890 Y86.516 E89.09257 F1200
G1 X125.661 Y87.595 E89.12834 F1200
G1 X125.271 Y88.566 E89.16226 F1200
G1 X124.686 Y89.524 E89.19865 F1200
G1 X124.054 Y90.270 E89.23033 F1200
G1 X114.040 Y100.284 E89.68955 F1200
G1 X126.231 Y112.472 E90.24856 F1200
G1 X136.643 Y102.103 E90.72506 F1200
G1 X137.280 Y101.617 E90.75104 F1200
G1 X138.357 Y101.058 E90.79038 F1200
G1 X139.419 Y100.722 E90.82647 F1200
G1 X140.468 Y100.580 E90.86078 F1200
G1 X141.582 Y100.621 E90.89690 F1200
G1 X142.647 Y100.849 E90.93222 F1200
G1 X143.687 Y101.272 E90.96860 F1200
G1 X144.677 Y101.901 E91.00661 F1200
G1 X145.338 Y102.469 E91.03485 F1200
G1 X146.429 Y103.556 E91.08479 F1200
G1 X150.572 E91.21915 F1200
G1 X152.066 Y102.112 E91.28650 F1200
G1 X152.710 Y101.619 E91.31280 F1200
G1 X153.790 Y101.058 E91.35227 F1200
G1 X154.852 Y100.722 E91.38836 F1200
G1 X155.901 Y100.580 E91.42267 F1200
G1 X157.015 Y100.621 E91.45879 F1200
G1 X158.080 Y100.850 E91.49411 F1200
G1 X159.064 Y101.241 E91.52842 F1200
G1 X160.074 Y101.871 E91.56701 F1200
G1 X160.779 Y102.475 E91.59710 F1200
G1 X170.774 Y112.469 E92.05545 F1200
G1 X182.962 Y100.279 E92.61442 F1200
G1 X172.625 Y89.905 E93.08931 F1200
G1 X172.110 Y89.235 E93.11671 F1200
G1 X171.568 Y88.210 E93.15429 F1200
G1 X171.212 Y87.089 E93.19243 F1200
G1 X171.070 Y86.042 E93.22667 F1200
G1 X171.111 Y84.928 E93.26280 F1200
G1 X171.341 Y83.857 E93.29831 F1200
G1 X171.731 Y82.881 E93.33239 F1200
G1 X172.306 Y81.938 E93.36819 F1200
G1 X172.959 Y81.174 E93.40078 F1200
G1 X174.046 Y80.078 E93.45082 F1200
G1 Y75.933 E93.58524 F1200
G1 X172.602 Y74.444 E93.65249 F1200
G1 X172.107 Y73.795 E93.67896 F1200
G1 X171.549 Y72.722 E93.71816 F1200
G1 X171.203 Y71.597 E93.75633 F1200
G1 X171.068 Y70.539 E93.79090 F1200
G1 X171.114 Y69.472 E93.82550 F1200
G1 X171.345 Y68.404 E93.86091 F1200
G1 X171.734 Y67.439 E93.89464 F1200
G1 X172.308 Y66.500 E93.93031 F1200
G1 X172.955 Y65.746 E93.96251 F1200
G1 X212.954 Y25.793 E95.79583 F1200
G1 X213.590 Y25.309 E95.82174 F1200
G1 X214.559 Y24.788 E95.85741 F1200
G1 X215.590 Y24.442 E95.89266 F1200
G1 X216.644 Y24.286 E95.92720 F1200
G1 X217.958 Y24.329 E95.96981 F1200
G1 X218.969 Y24.547 E96.00334 F1200
G1 X219.942 Y24.939 E96.03733 F1200
G1 X220.882 Y25.513 E96.07303 F1200
G1 X221.634 Y26.151 E96.10501 F1200
G1 X224.766 Y29.283 E96.24863 F1200
G1 X225.176 Y29.649 E96.26644 F1200
G1 X225.597 Y29.945 E96.28310 F1200
G1 X226.048 Y30.199 E96.29987 F1200
G1 X226.499 Y30.384 E96.31566 F1200
G1 X227.037 Y30.538 E96.33379 F1200
G1 X227.526 Y30.621 E96.34984 F1200
G1 X228.049 Y30.651 E96.36680 F1200
G1 X228.578 Y30.621 E96.38396 F1200
G1 X229.052 Y30.541 E96.39952 F1200
G1 X229.608 Y30.381 E96.41827 F1200
G1 X230.047 Y30.201 E96.43364 F1200
G1 X230.509 Y29.942 E96.45079 F1200
G1 X230.901 Y29.663 E96.46639 F1200
G1 X231.411 Y29.209 E96.48851 F1200
G1 X234.683 Y25.974 E96.63771 F1200
G1 X235.391 Y25.428 E96.66670 F1200
G1 X236.304 Y24.929 E96.70043 F1200
G1 X237.339 Y24.572 E96.73591 F1200
G1 X238.405 Y24.399 E96.77090 F1200
G1 X239.484 Y24.407 E96.80589 F1200
G1 X240.561 Y24.603 E96.84136 F1200
G1 X241.580 Y24.976 E96.87655 F1200
G1 X242.505 Y25.504 E96.91108 F1200
G1 X243.350 Y26.200 E96.94656 F1200
G1 X244.066 Y27.031 E96.98210 F1200
G1 X244.622 Y27.942 E97.01670 F1200
G1 X246.079 Y30.853 E97.12226 F1200
G1 X247.509 Y33.933 E97.23236 F1200
G1 X248.821 Y37.008 E97.34076 F1200
G1 X250.049 Y40.144 E97.44995 F1200
G1 X251.175 Y43.315 E97.55904 F1200
G1 X252.208 Y46.534 E97.66865 F1200
G1 X253.133 Y49.761 E97.77748 F1200
G1 X253.962 Y53.030 E97.88683 F1200
G1 X254.694 Y56.368 E97.99764 F1200
G1 X255.311 Y59.627 E98.10517 F1200
G1 X255.829 Y62.953 E98.21433 F1200
G1 X256.246 Y66.300 E98.32368 F1200
G1 X256.558 Y69.702 E98.43445 F1200
G1 X256.766 Y73.012 E98.54199 F1200
G1 X256.867 Y76.217 E98.64595 F1200
G1 Y79.748 E98.76046 F1200
G1 X256.757 Y83.173 E98.87156 F1200
G1 X256.550 Y86.478 E98.97893 F1200
G1 X256.233 Y89.831 E99.08812 F1200
G1 X255.814 Y93.171 E99.19727 F1200
G1 X255.284 Y96.536 E99.30772 F1200
G1 X254.664 Y99.812 E99.41584 F1200
G1 X253.936 Y103.096 E99.52490 F1200
G1 X253.105 Y106.363 E99.63421 F1200
G1 X252.166 Y109.620 E99.74412 F1200
G1 X251.131 Y112.834 E99.85359 F1200
G1 X250.010 Y115.972 E99.96165 F1200
G1 X248.782 Y119.114 E100.07103 F1200
G1 X247.455 Y122.207 E100.18015 F1200
G1 X246.023 Y125.282 E100.29015 F1200
G1 X244.392 Y128.480 E100.40653 F1200
G1 X243.838 Y129.286 E100.43825 F1200
G1 X243.101 Y130.051 E100.47269 F1200
G1 X242.228 Y130.695 E100.50784 F1200
G1 X241.254 Y131.184 E100.54316 F1200
G1 X240.221 Y131.499 E100.57815 F1200
G1 X239.141 Y131.633 E100.61343 F1200
G1 X238.068 Y131.586 E100.64826 F1200
G1 X236.940 Y131.331 E100.68575 F1200
G1 X235.888 Y130.881 E100.72284 F1200
G1 X234.902 Y130.232 E100.76111 F1200
G1 X234.344 Y129.747 E100.78507 F1200
G1 X231.309 Y126.712 E100.92426 F1200
G1 X230.935 Y126.379 E100.94047 F1200
G1 X230.515 Y126.083 E100.95711 F1200
G1 X230.032 Y125.812 E100.97504 F1200
G1 X229.604 Y125.637 E100.99002 F1200
G1 X229.066 Y125.483 E101.00815 F1200
G1 X228.572 Y125.399 E101.02440 F1200
G1 X228.049 Y125.369 E101.04136 F1200
G1 X227.520 Y125.399 E101.05851 F1200
G1 X227.045 Y125.479 E101.07411 F1200
G1 X226.485 Y125.640 E101.09298 F1200
G1 X226.068 Y125.811 E101.10758 F1200
G1 X225.584 Y126.083 E101.12557 F1200
G1 X225.164 Y126.379 E101.14221 F1200
G1 X224.790 Y126.712 E101.15842 F1200
G1 X197.233 Y154.269 E102.42220 F1200
G1 X196.859 Y154.688 E102.44039 F1200
G1 X196.569 Y155.100 E102.45671 F1200
G1 X196.315 Y155.556 E102.47360 F1200
G1 X196.118 Y156.031 E102.49027 F1200
G1 X195.971 Y156.542 E102.50749 F1200
G1 X195.889 Y157.031 E102.52354 F1200
G1 X195.859 Y157.559 E102.54066 F1200
G1 X195.889 Y158.091 E102.55791 F1200
G1 X195.971 Y158.579 E102.57393 F1200
G1 X196.118 Y159.090 E102.59115 F1200
G1 X196.317 Y159.570 E102.60798 F1200
G1 X196.562 Y160.010 E102.62430 F1200
G1 X196.864 Y160.436 E102.64122 F1200
G1 X197.268 Y160.885 E102.66081 F1200
G1 X200.535 Y164.191 E102.81151 F1200
G1 X201.122 Y164.968 E102.84306 F1200
G1 X201.583 Y165.819 E102.87442 F1200
G1 X201.936 Y166.845 E102.90960 F1200
G1 X202.111 Y167.917 E102.94482 F1200
G1 X202.103 Y168.994 E102.97975 F1200
G1 X201.907 Y170.071 E103.01522 F1200
G1 X201.536 Y171.085 E103.05021 F1200
G1 X200.930 Y172.114 E103.08893 F1200
G1 X200.219 Y172.944 E103.12435 F1200
G1 X199.279 Y173.705 E103.16355 F1200
G1 X198.580 Y174.124 E103.18995 F1200
G1 X195.689 Y175.572 E103.29479 F1200
G1 X192.618 Y177 E103.40459 F1200
G1 X189.611 Y178.289 E103.51067 F1200
G1 X186.510 Y179.508 E103.61869 F1200
G1 X183.323 Y180.641 E103.72836 F1200
G1 X180.208 Y181.645 E103.83447 F1200
G1 X176.960 Y182.586 E103.94411 F1200
G1 X173.782 Y183.397 E104.05044 F1200
G1 X170.468 Y184.141 E104.16057 F1200
G1 X167.261 Y184.750 E104.26642 F1200
G1 X163.894 Y185.288 E104.37697 F1200
G1 X160.259 Y185.720 E104.49566 F1200
G1 X159.449 Y185.707 E104.52192 F1200
G1 X158.410 Y185.530 E104.55607 F1200
G1 X157.400 Y185.178 E104.59074 F1200
G1 X156.457 Y184.655 E104.62569 F1200
G1 X155.623 Y183.989 E104.66030 F1200
G1 X154.915 Y183.199 E104.69467 F1200
G1 X154.344 Y182.297 E104.72927 F1200
G1 X153.927 Y181.290 E104.76459 F1200
G1 X153.673 Y180.114 E104.80360 F1200
G1 X153.620 Y179.366 E104.82789 F1200
G1 X153.619 Y170.391 E105.11893 F1200
G1 X143.378 E105.45104 F1200
G1 X143.349 Y179.812 E105.75655 F1200
G1 X143.235 Y180.661 E105.78430 F1200
G1 X142.952 Y181.629 E105.81699 F1200
G1 X142.504 Y182.571 E105.85082 F1200
G1 X141.874 Y183.466 E105.88629 F1200
G1 X141.112 Y184.228 E105.92122 F1200
G1 X140.232 Y184.850 E105.95614 F1200
G1 X139.275 Y185.312 E105.99058 F1200
G1 X138.240 Y185.611 E106.02551 F1200
G1 X137.178 Y185.728 E106.06014 F1200
G1 X136.146 Y185.680 E106.09364 F1200
G1 X132.918 Y185.261 E106.19920 F1200
G1 X129.580 Y184.724 E106.30881 F1200
G1 X126.367 Y184.103 E106.41491 F1200
G1 X123.065 Y183.358 E106.52468 F1200
G1 X119.842 Y182.529 E106.63257 F1200
G1 X116.636 Y181.599 E106.74082 F1200
G1 X113.528 Y180.588 E106.84680 F1200
G1 X110.343 Y179.448 E106.95647 F1200
G1 X107.292 Y178.248 E107.06277 F1200
G1 X104.235 Y176.933 E107.17066 F1200
G1 X101.154 Y175.496 E107.28089 F1200
G1 X97.982 Y173.872 E107.39643 F1200
G1 X97.220 Y173.343 E107.42649 F1200
G1 X96.457 Y172.608 E107.46083 F1200
G1 X95.814 Y171.737 E107.49592 F1200
G1 X95.326 Y170.767 E107.53111 F1200
G1 X95.011 Y169.735 E107.56610 F1200
G1 X94.876 Y168.652 E107.60148 F1200
G1 X94.925 Y167.573 E107.63650 F1200
G1 X95.180 Y166.446 E107.67395 F1200
G1 X95.629 Y165.399 E107.71089 F1200
G1 X96.278 Y164.414 E107.74912 F1200
G1 X96.766 Y163.856 E107.77315 F1200
G1 X99.739 Y160.884 E107.90945 F1200
G1 X100.138 Y160.436 E107.92887 F1200
G1 X100.437 Y160.014 E107.94564 F1200
G1 X100.685 Y159.570 E107.96211 F1200
G1 X100.881 Y159.094 E107.97878 F1200
G1 X101.029 Y158.579 E107.99613 F1200
G1 X101.111 Y158.091 E108.01215 F1200
G1 X101.141 Y157.559 E108.02940 F1200
G1 X101.111 Y157.031 E108.04653 F1200
G1 X101.029 Y156.542 E108.06258 F1200
G1 X100.882 Y156.031 E108.07980 F1200
G1 X100.685 Y155.556 E108.09647 F1200
G1 X100.431 Y155.100 E108.11336 F1200
G1 X100.141 Y154.688 E108.12967 F1200
G1 X99.767 Y154.269 E108.14787 F1200
G1 X72.210 Y126.712 E109.41164 F1200
G1 X71.836 Y126.379 E109.42786 F1200
G1 X71.416 Y126.083 E109.44449 F1200
G1 X70.932 Y125.811 E109.46249 F1200
G1 X70.515 Y125.640 E109.47708 F1200
G1 X69.955 Y125.479 E109.49596 F1200
G1 X69.480 Y125.399 E109.51155 F1200
G1 X68.951 Y125.369 E109.52871 F1200
G1 X68.428 Y125.399 E109.54567 F1200
G1 X67.934 Y125.483 E109.56192 F1200
G1 X67.403 Y125.635 E109.57982 F1200
G1 X66.949 Y125.821 E109.59571 F1200
G1 X66.492 Y126.076 E109.61267 F1200
G1 X66.089 Y126.364 E109.62872 F1200
G1 X65.609 Y126.791 E109.64954 F1200
G1 X62.313 Y130.050 E109.79984 F1200
G1 X61.580 Y130.607 E109.82968 F1200
G1 X60.684 Y131.095 E109.86276 F1200
G1 X59.677 Y131.444 E109.89729 F1200
G1 X58.598 Y131.620 E109.93274 F1200
G1 X57.506 Y131.610 E109.96815 F1200
G1 X56.445 Y131.419 E110.00311 F1200
G1 X55.425 Y131.045 E110.03832 F1200
G1 X54.494 Y130.513 E110.07309 F1200
G1 X53.613 Y129.778 E110.11028 F1200
G1 X52.907 Y128.945 E110.14566 F1200
G1 X52.380 Y128.082 E110.17845 F1200
G1 X50.897 Y125.127 E110.28566 F1200
G1 X49.479 Y122.059 E110.39523 F1200
G1 X48.158 Y118.962 E110.50439 F1200
G1 X46.930 Y115.819 E110.61380 F1200
G1 X45.807 Y112.656 E110.72263 F1200
G1 X44.780 Y109.443 E110.83202 F1200
G1 X43.853 Y106.203 E110.94130 F1200
G1 X43.024 Y102.933 E111.05068 F1200
G1 X42.306 Y99.652 E111.15958 F1200
G1 X41.689 Y96.392 E111.26714 F1200
G1 X41.164 Y93.010 E111.37811 F1200
G1 X40.747 Y89.663 E111.48746 F1200
G1 X40.442 Y86.318 E111.59636 F1200
G1 X40.234 Y83.007 E111.70392 F1200
G1 X40.133 Y79.801 E111.80792 F1200
G1 Y76.271 E111.92240 F1200
G1 X40.243 Y72.847 E112.03346 F1200
G1 X40.450 Y69.542 E112.14084 F1200
G1 X40.767 Y66.189 E112.25002 F1200
G1 X41.186 Y62.849 E112.35918 F1200
G1 X41.716 Y59.484 E112.46963 F1200
G1 X42.336 Y56.208 E112.57775 F1200
G1 X43.064 Y52.924 E112.68680 F1200
G1 X43.896 Y49.657 E112.79612 F1200
G1 X44.835 Y46.399 E112.90605 F1200
G1 X45.869 Y43.187 E113.01547 F1200
G1 X46.990 Y40.047 E113.12358 F1200
G1 X48.218 Y36.904 E113.23300 F1200
G1 X49.545 Y33.813 E113.34206 F1200
G1 X50.981 Y30.729 E113.45235 F1200
G1 X52.638 Y27.492 E113.57026 F1200
G0 X53.059 Y27.798 F7200
G1 X53.558 Y27.073 E113.59879 F1200
G1 X54.236 Y26.365 E113.63057 F1200
G1 X55.037 Y25.771 E113.66291 F1200
G1 X55.928 Y25.321 E113.69527 F1200
G1 X56.871 Y25.031 E113.72724 F1200
G1 X57.869 Y24.905 E113.75983 F1200
G1 X58.863 Y24.948 E113.79207 F1200
G1 X59.837 Y25.160 E113.82437 F1200
G1 X60.802 Y25.560 E113.85822 F1200
G1 X61.719 Y26.148 E113.89354 F1200
G1 X62.278 Y26.630 E113.91747 F1200
G1 X65.299 Y29.651 E114.05601 F1200
G1 X65.754 Y30.057 E114.07575 F1200
G1 X66.220 Y30.386 E114.09424 F1200
G1 X66.726 Y30.670 E114.11305 F1200
G1 X67.223 Y30.874 E114.13046 F1200
G1 X67.828 Y31.048 E114.15086 F1200
G1 X68.367 Y31.139 E114.16856 F1200
G1 X68.951 Y31.172 E114.18750 F1200
G1 X69.531 Y31.139 E114.20631 F1200
G1 X70.077 Y31.046 E114.22424 F1200
G1 X70.675 Y30.875 E114.24438 F1200
G1 X71.175 Y30.670 E114.26189 F1200
G1 X71.682 Y30.386 E114.28074 F1200
G1 X72.130 Y30.067 E114.29854 F1200
G1 X72.670 Y29.585 E114.32198 F1200
G1 X76.069 Y26.224 E114.47699 F1200
G1 X76.677 Y25.755 E114.50187 F1200
G1 X77.573 Y25.270 E114.53488 F1200
G1 X78.540 Y24.946 E114.56792 F1200
G1 X79.512 Y24.801 E114.59977 F1200
G1 X80.619 Y24.828 E114.63567 F1200
G1 X81.561 Y25.017 E114.66680 F1200
G1 X82.512 Y25.392 E114.69994 F1200
G1 X83.384 Y25.923 E114.73302 F1200
G1 X84.085 Y26.522 E114.76292 F1200
G1 X126.077 Y68.566 E116.68989 F1200
G1 X126.232 Y68.797 E116.69891 F1200
G1 X126.477 Y69.305 E116.71716 F1200
G1 X126.603 Y69.727 E116.73143 F1200
G1 X126.653 Y70.305 E116.75024 F1200
G1 X126.595 Y70.891 E116.76931 F1200
G1 X126.336 Y71.608 E116.79402 F1200
G1 X126.273 Y71.715 E116.79804 F1200
G1 X125.898 Y72.240 E116.81896 F1200
G1 X122.552 Y75.598 E116.97267 F1200
G1 X122.434 Y75.736 E116.97854 F1200
G1 X122.435 Y80.291 E117.12625 F1200
G1 X123.978 Y81.883 E117.19815 F1200
G1 X124.451 Y82.496 E117.22324 F1200
G1 X124.950 Y83.436 E117.25775 F1200
G1 X125.280 Y84.468 E117.29287 F1200
G1 X125.411 Y85.426 E117.32420 F1200
G1 X125.385 Y86.386 E117.35533 F1200
G1 X125.166 Y87.435 E117.39006 F1200
G1 X124.811 Y88.326 E117.42116 F1200
G1 X124.278 Y89.203 E117.45443 F1200
G1 X123.686 Y89.902 E117.48413 F1200
G1 X113.304 Y100.284 E117.96025 F1200
G1 X126.230 Y113.207 E118.55298 F1200
G1 X136.953 Y102.520 E119.04392 F1200
G1 X137.551 Y102.060 E119.06837 F1200
G1 X138.493 Y101.560 E119.10294 F1200
G1 X139.525 Y101.230 E119.13806 F1200
G1 X140.481 Y101.099 E119.16932 F1200
G1 X141.505 Y101.135 E119.20253 F1200
G1 X142.488 Y101.343 E119.23508 F1200
G1 X143.439 Y101.728 E119.26832 F1200
G1 X144.330 Y102.287 E119.30241 F1200
G1 X144.958 Y102.825 E119.32919 F1200
G1 X146.214 Y104.076 E119.38666 F1200
G1 X150.784 E119.53485 F1200
G1 X152.368 Y102.536 E119.60649 F1200
G1 X152.985 Y102.060 E119.63175 F1200
G1 X153.926 Y101.560 E119.66629 F1200
G1 X154.958 Y101.230 E119.70141 F1200
G1 X155.914 Y101.099 E119.73267 F1200
G1 X156.938 Y101.135 E119.76588 F1200
G1 X157.921 Y101.344 E119.79843 F1200
G1 X158.824 Y101.701 E119.82992 F1200
G1 X159.721 Y102.254 E119.86407 F1200
G1 X160.403 Y102.835 E119.89309 F1200
G1 X170.774 Y113.205 E120.36869 F1200
G1 X183.698 Y100.280 E120.96142 F1200
G1 X173.012 Y89.558 E121.45230 F1200
G1 X172.550 Y88.960 E121.47678 F1200
G1 X172.050 Y88.017 E121.51138 F1200
G1 X171.720 Y86.985 E121.54650 F1200
G1 X171.589 Y86.029 E121.57776 F1200
G1 X171.625 Y85.005 E121.61097 F1200
G1 X171.834 Y84.022 E121.64353 F1200
G1 X172.191 Y83.121 E121.67495 F1200
G1 X172.719 Y82.253 E121.70787 F1200
G1 X173.321 Y81.548 E121.73793 F1200
G1 X174.566 Y80.292 E121.79526 F1200
G1 Y75.739 E121.94291 F1200
G1 X174.438 Y75.589 E121.94930 F1200
G1 X173.022 Y74.137 E122.01506 F1200
G1 X172.550 Y73.525 E122.04010 F1200
G1 X172.050 Y72.584 E122.07463 F1200
G1 X171.721 Y71.552 E122.10975 F1200
G1 X171.587 Y70.527 E122.14325 F1200
G1 X171.627 Y69.552 E122.17487 F1200
G1 X171.838 Y68.568 E122.20749 F1200
G1 X172.193 Y67.680 E122.23849 F1200
G1 X172.716 Y66.822 E122.27105 F1200
G1 X173.322 Y66.114 E122.30124 F1200
G1 X213.259 Y26.214 E124.13194 F1200
G1 X213.857 Y25.754 E124.15639 F1200
G1 X214.753 Y25.270 E124.18940 F1200
G1 X215.704 Y24.948 E124.22196 F1200
G1 X216.613 Y24.805 E124.25179 F1200
G1 X217.826 Y24.833 E124.29113 F1200
G1 X218.807 Y25.041 E124.32362 F1200
G1 X219.698 Y25.397 E124.35472 F1200
G1 X220.563 Y25.923 E124.38754 F1200
G1 X221.266 Y26.519 E124.41741 F1200
G1 X224.398 Y29.651 E124.56103 F1200
G1 X224.853 Y30.057 E124.58078 F1200
G1 X225.319 Y30.386 E124.59927 F1200
G1 X225.825 Y30.670 E124.61808 F1200
G1 X226.325 Y30.875 E124.63559 F1200
G1 X226.923 Y31.046 E124.65572 F1200
G1 X227.469 Y31.139 E124.67366 F1200
G1 X228.049 Y31.172 E124.69247 F1200
G1 X228.633 Y31.139 E124.71140 F1200
G1 X229.172 Y31.048 E124.72911 F1200
G1 X229.777 Y30.874 E124.74951 F1200
G1 X230.274 Y30.670 E124.76692 F1200
G1 X230.781 Y30.386 E124.78576 F1200
G1 X231.229 Y30.067 E124.80357 F1200
G1 X231.769 Y29.585 E124.82701 F1200
G1 X235.031 Y26.360 E124.97576 F1200
G1 X235.661 Y25.871 E125.00161 F1200
G1 X236.504 Y25.408 E125.03277 F1200
G1 X237.456 Y25.077 E125.06543 F1200
G1 X238.430 Y24.918 E125.09740 F1200
G1 X239.427 Y24.923 E125.12973 F1200
G1 X240.411 Y25.100 E125.16213 F1200
G1 X241.353 Y25.443 E125.19462 F1200
G1 X242.200 Y25.924 E125.22621 F1200
G1 X242.980 Y26.564 E125.25890 F1200
G1 X243.636 Y27.323 E125.29142 F1200
G1 X244.147 Y28.156 E125.32311 F1200
G1 X245.608 Y31.072 E125.42886 F1200
G1 X247.031 Y34.137 E125.53843 F1200
G1 X248.337 Y37.197 E125.64632 F1200
G1 X249.559 Y40.318 E125.75499 F1200
G1 X250.680 Y43.474 E125.86359 F1200
G1 X251.708 Y46.677 E125.97265 F1200
G1 X252.629 Y49.889 E126.08100 F1200
G1 X253.454 Y53.141 E126.18979 F1200
G1 X254.182 Y56.457 E126.29986 F1200
G1 X254.797 Y59.707 E126.40710 F1200
G1 X255.313 Y63.017 E126.51570 F1200
G1 X255.728 Y66.347 E126.62450 F1200
G1 X256.039 Y69.727 E126.73456 F1200
G1 X256.246 Y73.029 E126.84184 F1200
G1 X256.347 Y76.242 E126.94606 F1200
G1 Y79.731 E127.05921 F1200
G1 X256.238 Y83.132 E127.16953 F1200
G1 X256.032 Y86.429 E127.27664 F1200
G1 X255.717 Y89.766 E127.38531 F1200
G1 X255.300 Y93.091 E127.49398 F1200
G1 X254.774 Y96.432 E127.60365 F1200
G1 X254.157 Y99.699 E127.71144 F1200
G1 X253.432 Y102.968 E127.82001 F1200
G1 X252.606 Y106.219 E127.92878 F1200
G1 X251.673 Y109.453 E128.03790 F1200
G1 X250.641 Y112.660 E128.14712 F1200
G1 X249.526 Y115.783 E128.25465 F1200
G1 X248.304 Y118.909 E128.36349 F1200
G1 X246.984 Y121.988 E128.47212 F1200
G1 X245.560 Y125.047 E128.58154 F1200
G1 X243.973 Y128.170 E128.69513 F1200
G1 X243.443 Y128.948 E128.72565 F1200
G1 X242.767 Y129.653 E128.75730 F1200
G1 X241.965 Y130.247 E128.78966 F1200
G1 X241.069 Y130.699 E128.82219 F1200
G1 X240.125 Y130.989 E128.85420 F1200
G1 X239.131 Y131.114 E128.88666 F1200
G1 X238.144 Y131.073 E128.91866 F1200
G1 X237.110 Y130.840 E128.95301 F1200
G1 X236.140 Y130.428 E128.98715 F1200
G1 X235.254 Y129.849 E129.02146 F1200
G1 X234.717 Y129.384 E129.04449 F1200
G1 X231.677 Y126.344 E129.18390 F1200
G1 X231.262 Y125.974 E129.20189 F1200
G1 X230.784 Y125.637 E129.22083 F1200
G1 X230.259 Y125.343 E129.24032 F1200
G1 X229.776 Y125.145 E129.25725 F1200
G1 X229.182 Y124.975 E129.27726 F1200
G1 X228.629 Y124.881 E129.29542 F1200
G1 X228.049 Y124.848 E129.31423 F1200
G1 X227.465 Y124.881 E129.33317 F1200
G1 X226.925 Y124.972 E129.35090 F1200
G1 X226.320 Y125.146 E129.37130 F1200
G1 X225.837 Y125.345 E129.38823 F1200
G1 X225.315 Y125.637 E129.40762 F1200
G1 X224.837 Y125.974 E129.42656 F1200
G1 X224.422 Y126.344 E129.44456 F1200
G1 X196.865 Y153.901 E130.70833 F1200
G1 X196.449 Y154.367 E130.72857 F1200
G1 X196.127 Y154.824 E130.74670 F1200
G1 X195.846 Y155.329 E130.76541 F1200
G1 X195.629 Y155.854 E130.78383 F1200
G1 X195.463 Y156.430 E130.80325 F1200
G1 X195.371 Y156.976 E130.82119 F1200
G1 X195.338 Y157.559 E130.84009 F1200
G1 X195.371 Y158.146 E130.85913 F1200
G1 X195.464 Y158.697 E130.87722 F1200
G1 X195.626 Y159.261 E130.89623 F1200
G1 X195.846 Y159.794 E130.91490 F1200
G1 X196.123 Y160.291 E130.93332 F1200
G1 X196.454 Y160.757 E130.95184 F1200
G1 X196.894 Y161.247 E130.97318 F1200
G1 X200.152 Y164.542 E131.12342 F1200
G1 X200.657 Y165.201 E131.15034 F1200
G1 X201.104 Y166.017 E131.18050 F1200
G1 X201.431 Y166.961 E131.21289 F1200
G1 X201.592 Y167.943 E131.24516 F1200
G1 X201.587 Y168.937 E131.27739 F1200
G1 X201.410 Y169.921 E131.30979 F1200
G1 X201.069 Y170.859 E131.34215 F1200
G1 X200.546 Y171.762 E131.37598 F1200
G1 X199.861 Y172.569 E131.41028 F1200
G1 X199.027 Y173.251 E131.44521 F1200
G1 X198.364 Y173.650 E131.47028 F1200
G1 X195.470 Y175.101 E131.57525 F1200
G1 X192.421 Y176.519 E131.68427 F1200
G1 X189.421 Y177.805 E131.79012 F1200
G1 X186.336 Y179.018 E131.89759 F1200
G1 X183.171 Y180.144 E132.00652 F1200
G1 X180.063 Y181.146 E132.11240 F1200
G1 X176.840 Y182.080 E132.22120 F1200
G1 X173.668 Y182.890 E132.32733 F1200
G1 X170.379 Y183.629 E132.43665 F1200
G1 X167.179 Y184.237 E132.54227 F1200
G1 X163.842 Y184.771 E132.65185 F1200
G1 X160.279 Y185.200 E132.76820 F1200
G1 X159.514 Y185.192 E132.79301 F1200
G1 X158.552 Y185.031 E132.82463 F1200
G1 X157.623 Y184.709 E132.85650 F1200
G1 X156.757 Y184.230 E132.88858 F1200
G1 X155.987 Y183.619 E132.92042 F1200
G1 X155.336 Y182.895 E132.95197 F1200
G1 X154.810 Y182.068 E132.98375 F1200
G1 X154.425 Y181.143 E133.01622 F1200
G1 X154.193 Y180.097 E133.05095 F1200
G1 X154.140 Y179.366 E133.07468 F1200
G1 X154.139 Y169.871 E133.38259 F1200
G1 X142.859 E133.74839 F1200
G1 X142.835 Y179.737 E134.06833 F1200
G1 X142.740 Y180.500 E134.09324 F1200
G1 X142.472 Y181.431 E134.12463 F1200
G1 X142.061 Y182.302 E134.15585 F1200
G1 X141.485 Y183.122 E134.18835 F1200
G1 X140.788 Y183.822 E134.22036 F1200
G1 X139.979 Y184.396 E134.25249 F1200
G1 X139.099 Y184.824 E134.28421 F1200
G1 X138.153 Y185.099 E134.31615 F1200
G1 X137.174 Y185.209 E134.34809 F1200
G1 X136.224 Y185.166 E134.37890 F1200
G1 X133.004 Y184.748 E134.48419 F1200
G1 X129.687 Y184.215 E134.59312 F1200
G1 X126.481 Y183.596 E134.69900 F1200
G1 X123.202 Y182.857 E134.80799 F1200
G1 X119.994 Y182.032 E134.91540 F1200
G1 X116.805 Y181.107 E135.02306 F1200
G1 X113.703 Y180.099 E135.12881 F1200
G1 X110.540 Y178.967 E135.23774 F1200
G1 X107.497 Y177.771 E135.34375 F1200
G1 X104.455 Y176.462 E135.45112 F1200
G1 X101.398 Y175.037 E135.56047 F1200
G1 X98.288 Y173.451 E135.67368 F1200
G1 X97.563 Y172.952 E135.70221 F1200
G1 X96.855 Y172.274 E135.73399 F1200
G1 X96.261 Y171.473 E135.76633 F1200
G1 X95.811 Y170.582 E135.79869 F1200
G1 X95.521 Y169.639 E135.83066 F1200
G1 X95.395 Y168.641 E135.86325 F1200
G1 X95.438 Y167.650 E135.89539 F1200
G1 X95.671 Y166.615 E135.92977 F1200
G1 X96.082 Y165.652 E135.96372 F1200
G1 X96.660 Y164.767 E135.99800 F1200
G1 X97.128 Y164.229 E136.02112 F1200
G1 X100.115 Y161.243 E136.15806 F1200
G1 X100.546 Y160.760 E136.17904 F1200
G1 X100.877 Y160.292 E136.19763 F1200
G1 X101.153 Y159.797 E136.21598 F1200
G1 X101.374 Y159.261 E136.23476 F1200
G1 X101.536 Y158.697 E136.25376 F1200
G1 X101.629 Y158.146 E136.27186 F1200
G1 X101.662 Y157.559 E136.29089 F1200
G1 X101.629 Y156.976 E136.30980 F1200
G1 X101.537 Y156.430 E136.32773 F1200
G1 X101.371 Y155.854 E136.34715 F1200
G1 X101.154 Y155.329 E136.36557 F1200
G1 X100.873 Y154.824 E136.38429 F1200
G1 X100.551 Y154.367 E136.40241 F1200
G1 X100.135 Y153.901 E136.42265 F1200
G1 X72.578 Y126.344 E137.68642 F1200
G1 X72.163 Y125.974 E137.70442 F1200
G1 X71.685 Y125.637 E137.72336 F1200
G1 X71.163 Y125.345 E137.74275 F1200
G1 X70.680 Y125.146 E137.75968 F1200
G1 X70.075 Y124.972 E137.78008 F1200
G1 X69.535 Y124.881 E137.79782 F1200
G1 X68.951 Y124.848 E137.81676 F1200
G1 X68.371 Y124.881 E137.83556 F1200
G1 X67.818 Y124.975 E137.85372 F1200
G1 X67.231 Y125.143 E137.87351 F1200
G1 X66.726 Y125.350 E137.89118 F1200
G1 X66.212 Y125.637 E137.91025 F1200
G1 X65.766 Y125.955 E137.92799 F1200
G1 X65.251 Y126.414 E137.95033 F1200
G1 X61.966 Y129.663 E138.10015 F1200
G1 X61.348 Y130.141 E138.12548 F1200
G1 X60.481 Y130.617 E138.15755 F1200
G1 X59.559 Y130.939 E138.18920 F1200
G1 X58.571 Y131.102 E138.22166 F1200
G1 X57.565 Y131.095 E138.25428 F1200
G1 X56.594 Y130.921 E138.28626 F1200
G1 X55.651 Y130.578 E138.31878 F1200
G1 X54.799 Y130.093 E138.35056 F1200
G1 X54.023 Y129.458 E138.38306 F1200
G1 X53.336 Y128.653 E138.41737 F1200
G1 X52.850 Y127.858 E138.44756 F1200
G1 X51.373 Y124.916 E138.55428 F1200
G1 X49.960 Y121.862 E138.66340 F1200
G1 X48.645 Y118.780 E138.77204 F1200
G1 X47.423 Y115.653 E138.88090 F1200
G1 X46.305 Y112.505 E138.98921 F1200
G1 X45.282 Y109.307 E139.09808 F1200
G1 X44.359 Y106.083 E139.20681 F1200
G1 X43.534 Y102.830 E139.31561 F1200
G1 X42.818 Y99.563 E139.42405 F1200
G1 X42.203 Y96.312 E139.53132 F1200
G1 X41.681 Y92.954 E139.64151 F1200
G1 X41.266 Y89.624 E139.75031 F1200
G1 X40.961 Y86.293 E139.85875 F1200
G1 X40.754 Y82.991 E139.96603 F1200
G1 X40.653 Y79.777 E140.07029 F1200
G1 Y76.288 E140.18343 F1200
G1 X40.762 Y72.888 E140.29372 F1200
G1 X40.968 Y69.591 E140.40083 F1200
G1 X41.283 Y66.254 E140.50950 F1200
G1 X41.700 Y62.929 E140.61817 F1200
G1 X42.226 Y59.588 E140.72784 F1200
G1 X42.843 Y56.321 E140.83563 F1200
G1 X43.568 Y53.052 E140.94421 F1200
G1 X44.395 Y49.801 E141.05297 F1200
G1 X45.328 Y46.566 E141.16213 F1200
G1 X46.359 Y43.362 E141.27125 F1200
G1 X47.474 Y40.236 E141.37885 F1200
G1 X48.696 Y37.109 E141.48771 F1200
G1 X50.016 Y34.032 E141.59628 F1200
G1 X51.440 Y30.973 E141.70569 F1200
G1 X53.059 Y27.798 E141.82124 F1200
G0 X53.478 Y28.108 F7200
G1 X53.955 Y27.407 E141.84870 F1200
G1 X54.570 Y26.762 E141.87760 F1200
G1 X55.298 Y26.220 E141.90701 F1200
G1 X56.114 Y25.806 E141.93668 F1200
G1 X56.970 Y25.540 E141.96574 F1200
G1 X57.879 Y25.424 E141.99544 F1200
G1 X58.785 Y25.461 E142.02482 F1200
G1 X59.675 Y25.653 E142.05433 F1200
G1 X60.506 Y25.988 E142.08336 F1200
G1 X61.368 Y26.531 E142.11637 F1200
G1 X61.903 Y26.991 E142.13923 F1200
G1 X64.931 Y30.019 E142.27809 F1200
G1 X65.434 Y30.468 E142.29995 F1200
G1 X65.937 Y30.824 E142.31992 F1200
G1 X66.499 Y31.138 E142.34078 F1200
G1 X67.056 Y31.367 E142.36030 F1200
G1 X67.710 Y31.555 E142.38235 F1200
G1 X68.312 Y31.657 E142.40213 F1200
G1 X68.951 Y31.693 E142.42289 F1200
G1 X69.588 Y31.657 E142.44358 F1200
G1 X70.193 Y31.554 E142.46345 F1200
G1 X70.843 Y31.368 E142.48538 F1200
G1 X71.402 Y31.138 E142.50496 F1200
G1 X71.964 Y30.824 E142.52581 F1200
G1 X72.456 Y30.474 E142.54537 F1200
G1 X73.020 Y29.970 E142.56988 F1200
G1 X76.376 Y26.644 E142.72308 F1200
G1 X76.951 Y26.195 E142.74672 F1200
G1 X77.771 Y25.749 E142.77697 F1200
G1 X78.648 Y25.453 E142.80697 F1200
G1 X79.482 Y25.321 E142.83434 F1200
G1 X80.553 Y25.343 E142.86907 F1200
G1 X81.405 Y25.513 E142.89722 F1200
G1 X82.270 Y25.852 E142.92735 F1200
G1 X83.071 Y26.337 E142.95770 F1200
G1 X83.709 Y26.881 E142.98487 F1200
G1 X125.672 Y68.892 E144.91042 F1200
G1 X125.787 Y69.065 E144.91713 F1200
G1 X125.977 Y69.447 E144.93095 F1200
G1 X126.090 Y69.802 E144.94301 F1200
G1 X126.134 Y70.298 E144.95913 F1200
G1 X126.093 Y70.764 E144.97427 F1200
G1 X125.899 Y71.327 E144.99357 F1200
G1 X125.847 Y71.417 E144.99691 F1200
G1 X125.511 Y71.894 E145.01581 F1200
G1 X122.169 Y75.246 E145.16930 F1200
G1 X122.041 Y75.395 E145.17566 F1200
G1 X121.951 Y75.571 E145.18204 F1200
G1 X121.923 Y75.680 E145.18568 F1200
G1 X121.910 Y75.869 E145.19180 F1200
G1 Y80.151 E145.33066 F1200
G1 X121.925 Y80.357 E145.33734 F1200
G1 X121.981 Y80.528 E145.34315 F1200
G1 X122.036 Y80.615 E145.34646 F1200
G1 X122.173 Y80.775 E145.35327 F1200
G1 X123.560 Y82.191 E145.41754 F1200
G1 X124.010 Y82.769 E145.44128 F1200
G1 X124.451 Y83.579 E145.47118 F1200
G1 X124.763 Y84.520 E145.50331 F1200
G1 X124.893 Y85.440 E145.53344 F1200
G1 X124.870 Y86.319 E145.56194 F1200
G1 X124.674 Y87.271 E145.59343 F1200
G1 X124.351 Y88.086 E145.62184 F1200
G1 X123.867 Y88.885 E145.65213 F1200
G1 X123.318 Y89.534 E145.67969 F1200
G1 X112.568 Y100.284 E146.17267 F1200
G1 X126.229 Y113.943 E146.79913 F1200
G1 X137.260 Y102.940 E147.30437 F1200
G1 X137.824 Y102.501 E147.32752 F1200
G1 X138.636 Y102.059 E147.35749 F1200
G1 X139.577 Y101.747 E147.38962 F1200
G1 X140.497 Y101.617 E147.41975 F1200
G1 X141.376 Y101.640 E147.44825 F1200
G1 X142.332 Y101.838 E147.47990 F1200
G1 X143.146 Y102.158 E147.50825 F1200
G1 X143.978 Y102.671 E147.53993 F1200
G1 X144.582 Y103.186 E147.56565 F1200
G1 X145.751 Y104.355 E147.61925 F1200
G1 X145.873 Y104.459 E147.62444 F1200
G1 X145.993 Y104.533 E147.62898 F1200
G1 X146.156 Y104.586 E147.63452 F1200
G1 X146.359 Y104.600 E147.64111 F1200
G1 X150.641 E147.77997 F1200
G1 X150.844 Y104.586 E147.78655 F1200
G1 X151.007 Y104.533 E147.79209 F1200
G1 X151.124 Y104.461 E147.79654 F1200
G1 X151.248 Y104.355 E147.80182 F1200
G1 X152.682 Y102.950 E147.86691 F1200
G1 X153.259 Y102.500 E147.89061 F1200
G1 X154.069 Y102.059 E147.92051 F1200
G1 X155.010 Y101.747 E147.95265 F1200
G1 X155.930 Y101.617 E147.98277 F1200
G1 X156.808 Y101.640 E148.01125 F1200
G1 X157.765 Y101.839 E148.04293 F1200
G1 X158.578 Y102.159 E148.07124 F1200
G1 X159.374 Y102.641 E148.10140 F1200
G1 X160.027 Y103.195 E148.12916 F1200
G1 X170.774 Y113.941 E148.62198 F1200
G1 X184.434 Y100.281 E149.24843 F1200
G1 X173.431 Y89.251 E149.75364 F1200
G1 X172.991 Y88.686 E149.77686 F1200
G1 X172.549 Y87.874 E149.80682 F1200
G1 X172.237 Y86.933 E149.83896 F1200
G1 X172.107 Y86.013 E149.86908 F1200
G1 X172.130 Y85.135 E149.89756 F1200
G1 X172.329 Y84.178 E149.92924 F1200
G1 X172.649 Y83.365 E149.95755 F1200
G1 X173.132 Y82.568 E149.98774 F1200
G1 X173.680 Y81.924 E150.01514 F1200
G1 X174.837 Y80.763 E150.06829 F1200
G1 X174.968 Y80.610 E150.07481 F1200
G1 X175.050 Y80.452 E150.08058 F1200
G1 X175.076 Y80.346 E150.08412 F1200
G1 X175.090 Y80.151 E150.09044 F1200
G1 Y75.869 E150.22930 F1200
G1 X175.076 Y75.669 E150.23579 F1200
G1 X175.017 Y75.493 E150.24179 F1200
G1 X174.957 Y75.396 E150.24548 F1200
G1 X174.830 Y75.247 E150.25181 F1200
G1 X173.440 Y73.828 E150.31621 F1200
G1 X172.990 Y73.251 E150.33991 F1200
G1 X172.549 Y72.441 E150.36981 F1200
G1 X172.239 Y71.505 E150.40179 F1200
G1 X172.106 Y70.514 E150.43418 F1200
G1 X172.140 Y69.631 E150.46282 F1200
G1 X172.332 Y68.730 E150.49269 F1200
G1 X172.652 Y67.922 E150.52087 F1200
G1 X173.129 Y67.136 E150.55067 F1200
G1 X173.681 Y66.490 E150.57820 F1200
G1 X213.566 Y26.634 E152.40669 F1200
G1 X214.130 Y26.195 E152.42984 F1200
G1 X214.945 Y25.752 E152.45990 F1200
G1 X215.820 Y25.454 E152.48987 F1200
G1 X216.677 Y25.320 E152.51798 F1200
G1 X217.696 Y25.338 E152.55103 F1200
G1 X218.646 Y25.535 E152.58248 F1200
G1 X219.458 Y25.857 E152.61079 F1200
G1 X220.245 Y26.334 E152.64063 F1200
G1 X220.898 Y26.887 E152.66836 F1200
G1 X224.030 Y30.019 E152.81198 F1200
G1 X224.533 Y30.468 E152.83384 F1200
G1 X225.036 Y30.824 E152.85381 F1200
G1 X225.598 Y31.138 E152.87467 F1200
G1 X226.157 Y31.368 E152.89425 F1200
G1 X226.807 Y31.554 E152.91617 F1200
G1 X227.412 Y31.657 E152.93605 F1200
G1 X228.049 Y31.693 E152.95674 F1200
G1 X228.688 Y31.657 E152.97750 F1200
G1 X229.290 Y31.555 E152.99728 F1200
G1 X229.944 Y31.367 E153.01933 F1200
G1 X230.501 Y31.138 E153.03885 F1200
G1 X231.063 Y30.824 E153.05970 F1200
G1 X231.555 Y30.474 E153.07926 F1200
G1 X232.119 Y29.970 E153.10377 F1200
G1 X235.340 Y26.778 E153.25081 F1200
G1 X235.933 Y26.314 E153.27519 F1200
G1 X236.706 Y25.886 E153.30383 F1200
G1 X237.574 Y25.583 E153.33363 F1200
G1 X238.457 Y25.436 E153.36265 F1200
G1 X239.370 Y25.439 E153.39226 F1200
G1 X240.263 Y25.598 E153.42167 F1200
G1 X241.124 Y25.909 E153.45134 F1200
G1 X241.899 Y26.347 E153.48021 F1200
G1 X242.611 Y26.929 E153.51001 F1200
G1 X243.209 Y27.619 E153.53962 F1200
G1 X243.672 Y28.370 E153.56822 F1200
G1 X245.137 Y31.291 E153.67416 F1200
G1 X246.553 Y34.341 E153.78319 F1200
G1 X247.853 Y37.386 E153.89053 F1200
G1 X249.069 Y40.492 E153.99868 F1200
G1 X250.185 Y43.633 E154.10676 F1200
G1 X251.208 Y46.820 E154.21530 F1200
G1 X252.125 Y50.017 E154.32312 F1200
G1 X252.946 Y53.252 E154.43134 F1200
G1 X253.670 Y56.546 E154.54069 F1200
G1 X254.283 Y59.787 E154.64764 F1200
G1 X254.797 Y63.081 E154.75572 F1200
G1 X255.210 Y66.394 E154.86397 F1200
G1 X255.519 Y69.752 E154.97332 F1200
G1 X255.726 Y73.045 E155.08030 F1200
G1 X255.827 Y76.266 E155.18478 F1200
G1 Y79.714 E155.29660 F1200
G1 X255.720 Y83.091 E155.40614 F1200
G1 X255.514 Y86.380 E155.51299 F1200
G1 X255.201 Y89.701 E155.62114 F1200
G1 X254.787 Y93.011 E155.72929 F1200
G1 X254.264 Y96.329 E155.83819 F1200
G1 X253.650 Y99.586 E155.94566 F1200
G1 X252.928 Y102.840 E156.05374 F1200
G1 X252.107 Y106.075 E156.16196 F1200
G1 X251.179 Y109.294 E156.27059 F1200
G1 X250.154 Y112.478 E156.37903 F1200
G1 X249.042 Y115.594 E156.48631 F1200
G1 X247.826 Y118.704 E156.59459 F1200
G1 X246.513 Y121.769 E156.70270 F1200
G1 X245.097 Y124.812 E156.81153 F1200
G1 X243.522 Y127.912 E156.92429 F1200
G1 X243.046 Y128.613 E156.95176 F1200
G1 X242.433 Y129.256 E156.98055 F1200
G1 X241.704 Y129.799 E157.01003 F1200
G1 X240.884 Y130.214 E157.03983 F1200
G1 X240.028 Y130.479 E157.06889 F1200
G1 X239.120 Y130.595 E157.09856 F1200
G1 X238.218 Y130.560 E157.12781 F1200
G1 X237.329 Y130.368 E157.15729 F1200
G1 X236.438 Y130.001 E157.18852 F1200
G1 X235.606 Y129.466 E157.22059 F1200
G1 X235.092 Y129.023 E157.24258 F1200
G1 X232.045 Y125.976 E157.38231 F1200
G1 X231.585 Y125.566 E157.40229 F1200
G1 X231.058 Y125.194 E157.42320 F1200
G1 X230.493 Y124.878 E157.44418 F1200
G1 X229.943 Y124.652 E157.46345 F1200
G1 X229.296 Y124.467 E157.48524 F1200
G1 X228.686 Y124.363 E157.50528 F1200
G1 X228.049 Y124.327 E157.52597 F1200
G1 X227.410 Y124.363 E157.54672 F1200
G1 X226.807 Y124.465 E157.56654 F1200
G1 X226.153 Y124.653 E157.58859 F1200
G1 X225.606 Y124.878 E157.60775 F1200
G1 X225.041 Y125.194 E157.62874 F1200
G1 X224.514 Y125.566 E157.64965 F1200
G1 X224.054 Y125.976 E157.66963 F1200
G1 X196.489 Y153.541 E158.93376 F1200
G1 X196.044 Y154.039 E158.95539 F1200
G1 X195.687 Y154.545 E158.97546 F1200
G1 X195.374 Y155.109 E158.99638 F1200
G1 X195.137 Y155.681 E159.01645 F1200
G1 X194.956 Y156.310 E159.03766 F1200
G1 X194.853 Y156.921 E159.05774 F1200
G1 X194.817 Y157.559 E159.07846 F1200
G1 X194.853 Y158.199 E159.09924 F1200
G1 X194.957 Y158.818 E159.11958 F1200
G1 X195.133 Y159.430 E159.14020 F1200
G1 X195.377 Y160.021 E159.16092 F1200
G1 X195.682 Y160.569 E159.18126 F1200
G1 X196.047 Y161.083 E159.20169 F1200
G1 X196.509 Y161.598 E159.22410 F1200
G1 X199.731 Y164.849 E159.37252 F1200
G1 X200.194 Y165.439 E159.39681 F1200
G1 X200.626 Y166.220 E159.42574 F1200
G1 X200.927 Y167.080 E159.45528 F1200
G1 X201.074 Y167.969 E159.48450 F1200
G1 X201.071 Y168.880 E159.51404 F1200
G1 X200.912 Y169.773 E159.54345 F1200
G1 X200.602 Y170.632 E159.57306 F1200
G1 X200.127 Y171.456 E159.60390 F1200
G1 X199.501 Y172.195 E159.63529 F1200
G1 X198.771 Y172.798 E159.66597 F1200
G1 X198.143 Y173.179 E159.68977 F1200
G1 X195.251 Y174.630 E159.79468 F1200
G1 X192.224 Y176.038 E159.90292 F1200
G1 X189.231 Y177.321 E160.00851 F1200
G1 X186.161 Y178.528 E160.11546 F1200
G1 X183.019 Y179.647 E160.22361 F1200
G1 X179.918 Y180.647 E160.32926 F1200
G1 X176.720 Y181.574 E160.43722 F1200
G1 X173.554 Y182.383 E160.54316 F1200
G1 X170.290 Y183.117 E160.65164 F1200
G1 X167.097 Y183.724 E160.75703 F1200
G1 X163.789 Y184.254 E160.86566 F1200
G1 X160.296 Y184.680 E160.97975 F1200
G1 X159.577 Y184.676 E161.00306 F1200
G1 X158.688 Y184.530 E161.03225 F1200
G1 X157.842 Y184.239 E161.06124 F1200
G1 X157.055 Y183.806 E161.09036 F1200
G1 X156.354 Y183.252 E161.11932 F1200
G1 X155.758 Y182.593 E161.14812 F1200
G1 X155.273 Y181.834 E161.17730 F1200
G1 X154.923 Y180.995 E161.20678 F1200
G1 X154.714 Y180.080 E161.23720 F1200
G1 X154.660 Y179.366 E161.26042 F1200
G1 X154.659 Y169.351 E161.58519 F1200
G1 X142.339 E161.98471 F1200
G1 X142.320 Y179.661 E162.31905 F1200
G1 X142.234 Y180.383 E162.34263 F1200
G1 X141.992 Y181.234 E162.37129 F1200
G1 X141.617 Y182.031 E162.39983 F1200
G1 X141.095 Y182.778 E162.42937 F1200
G1 X140.457 Y183.422 E162.45875 F1200
G1 X139.726 Y183.943 E162.48784 F1200
G1 X138.922 Y184.336 E162.51683 F1200
G1 X138.066 Y184.587 E162.54576 F1200
G1 X137.169 Y184.690 E162.57501 F1200
G1 X136.302 Y184.652 E162.60313 F1200
G1 X133.090 Y184.235 E162.70813 F1200
G1 X129.794 Y183.706 E162.81638 F1200
G1 X126.595 Y183.089 E162.92200 F1200
G1 X123.339 Y182.356 E163.03021 F1200
G1 X120.146 Y181.535 E163.13710 F1200
G1 X116.974 Y180.615 E163.24418 F1200
G1 X113.878 Y179.610 E163.34973 F1200
G1 X110.737 Y178.486 E163.45791 F1200
G1 X107.702 Y177.294 E163.56363 F1200
G1 X104.674 Y175.991 E163.67051 F1200
G1 X101.641 Y174.578 E163.77899 F1200
G1 X98.598 Y173.032 E163.88967 F1200
G1 X97.897 Y172.555 E163.91713 F1200
G1 X97.252 Y171.940 E163.94603 F1200
G1 X96.710 Y171.212 E163.97544 F1200
G1 X96.296 Y170.396 E164.00511 F1200
G1 X96.030 Y169.540 E164.03417 F1200
G1 X95.914 Y168.631 E164.06387 F1200
G1 X95.951 Y167.725 E164.09325 F1200
G1 X96.143 Y166.835 E164.12276 F1200
G1 X96.509 Y165.949 E164.15383 F1200
G1 X97.042 Y165.120 E164.18577 F1200
G1 X97.490 Y164.602 E164.20795 F1200
G1 X100.491 Y161.602 E164.34555 F1200
G1 X100.957 Y161.080 E164.36822 F1200
G1 X101.315 Y160.574 E164.38829 F1200
G1 X101.623 Y160.021 E164.40878 F1200
G1 X101.867 Y159.430 E164.42951 F1200
G1 X102.043 Y158.818 E164.45013 F1200
G1 X102.147 Y158.199 E164.47046 F1200
G1 X102.183 Y157.559 E164.49125 F1200
G1 X102.147 Y156.921 E164.51197 F1200
G1 X102.044 Y156.310 E164.53205 F1200
G1 X101.863 Y155.681 E164.55325 F1200
G1 X101.626 Y155.109 E164.57333 F1200
G1 X101.313 Y154.545 E164.59424 F1200
G1 X100.956 Y154.039 E164.61432 F1200
G1 X100.511 Y153.541 E164.63595 F1200
G1 X72.946 Y125.976 E165.90008 F1200
G1 X72.486 Y125.566 E165.92006 F1200
G1 X71.959 Y125.194 E165.94097 F1200
G1 X71.394 Y124.878 E165.96195 F1200
G1 X70.847 Y124.653 E165.98112 F1200
G1 X70.193 Y124.465 E166.00317 F1200
G1 X69.590 Y124.363 E166.02298 F1200
G1 X68.951 Y124.327 E166.04374 F1200
G1 X68.314 Y124.363 E166.06443 F1200
G1 X67.704 Y124.467 E166.08447 F1200
G1 X67.057 Y124.652 E166.10626 F1200
G1 X66.503 Y124.879 E166.12565 F1200
G1 X65.937 Y125.195 E166.14667 F1200
G1 X65.434 Y125.553 E166.16668 F1200
G1 X64.901 Y126.029 E166.18983 F1200
G1 X61.661 Y129.240 E166.33774 F1200
G1 X61.072 Y129.701 E166.36196 F1200
G1 X60.283 Y130.137 E166.39118 F1200
G1 X59.436 Y130.435 E166.42027 F1200
G1 X58.544 Y130.584 E166.44958 F1200
G1 X57.623 Y130.579 E166.47945 F1200
G1 X56.741 Y130.423 E166.50847 F1200
G1 X55.876 Y130.111 E166.53828 F1200
G1 X55.104 Y129.673 E166.56704 F1200
G1 X54.390 Y129.092 E166.59687 F1200
G1 X53.789 Y128.396 E166.62668 F1200
G1 X53.325 Y127.644 E166.65531 F1200
G1 X51.849 Y124.705 E166.76194 F1200
G1 X50.441 Y121.665 E166.87057 F1200
G1 X49.132 Y118.598 E166.97869 F1200
G1 X47.916 Y115.487 E167.08700 F1200
G1 X46.803 Y112.354 E167.19479 F1200
G1 X45.784 Y109.171 E167.30317 F1200
G1 X44.865 Y105.963 E167.41138 F1200
G1 X44.044 Y102.727 E167.51963 F1200
G1 X43.330 Y99.474 E167.62762 F1200
G1 X42.717 Y96.232 E167.73460 F1200
G1 X42.198 Y92.898 E167.84401 F1200
G1 X41.785 Y89.585 E167.95226 F1200
G1 X41.481 Y86.268 E168.06025 F1200
G1 X41.274 Y82.975 E168.16723 F1200
G1 X41.173 Y79.753 E168.27175 F1200
G1 Y76.305 E168.38356 F1200
G1 X41.280 Y72.929 E168.49307 F1200
G1 X41.486 Y69.640 E168.59993 F1200
G1 X41.799 Y66.319 E168.70808 F1200
G1 X42.213 Y63.009 E168.81622 F1200
G1 X42.736 Y59.691 E168.92512 F1200
G1 X43.350 Y56.434 E169.03259 F1200
G1 X44.072 Y53.180 E169.14067 F1200
G1 X44.894 Y49.945 E169.24889 F1200
G1 X45.822 Y46.725 E169.35756 F1200
G1 X46.846 Y43.544 E169.46590 F1200
G1 X47.958 Y40.425 E169.57327 F1200
G1 X49.174 Y37.314 E169.68158 F1200
G1 X50.487 Y34.251 E169.78964 F1200
G1 X51.903 Y31.208 E169.89847 F1200
G1 X53.478 Y28.108 E170.01122 F1200
G0 X53.929 Y28.366 F7200
G1 X54.349 Y27.746 E170.03548 F1200
G1 X54.909 Y27.155 E170.06187 F1200
G1 X55.562 Y26.667 E170.08830 F1200
G1 X56.295 Y26.293 E170.11496 F1200
G1 X57.074 Y26.049 E170.14142 F1200
G1 X57.890 Y25.943 E170.16808 F1200
G1 X58.708 Y25.974 E170.19460 F1200
G1 X59.511 Y26.146 E170.22123 F1200
G1 X60.265 Y26.448 E170.24756 F1200
G1 X61.012 Y26.912 E170.27606 F1200
G1 X61.535 Y27.359 E170.29834 F1200
G1 X64.563 Y30.387 E170.43720 F1200
G1 X65.109 Y30.874 E170.46091 F1200
G1 X65.661 Y31.265 E170.48283 F1200
G1 X66.272 Y31.606 E170.50550 F1200
G1 X66.891 Y31.861 E170.52719 F1200
G1 X67.589 Y32.062 E170.55074 F1200
G1 X68.257 Y32.175 E170.57269 F1200
G1 X68.951 Y32.214 E170.59523 F1200
G1 X69.645 Y32.175 E170.61777 F1200
G1 X70.310 Y32.062 E170.63962 F1200
G1 X71.010 Y31.861 E170.66323 F1200
G1 X71.629 Y31.606 E170.68492 F1200
G1 X72.240 Y31.265 E170.70759 F1200
G1 X72.787 Y30.877 E170.72932 F1200
G1 X73.370 Y30.356 E170.75465 F1200
G1 X76.685 Y27.062 E170.90619 F1200
G1 X77.224 Y26.637 E170.92843 F1200
G1 X77.970 Y26.229 E170.95600 F1200
G1 X78.763 Y25.959 E170.98314 F1200
G1 X79.545 Y25.837 E171.00879 F1200
G1 X80.486 Y25.857 E171.03930 F1200
G1 X81.250 Y26.008 E171.06453 F1200
G1 X82.029 Y26.312 E171.09164 F1200
G1 X82.758 Y26.751 E171.11921 F1200
G1 X83.333 Y27.240 E171.14366 F1200
G1 X125.267 Y69.217 E173.06778 F1200
G1 X125.323 Y69.299 E173.07099 F1200
G1 X125.481 Y69.603 E173.08208 F1200
G1 X125.579 Y69.888 E173.09184 F1200
G1 X125.617 Y70.242 E173.10339 F1200
G1 X125.588 Y70.647 E173.11655 F1200
G1 X125.429 Y71.107 E173.13231 F1200
G1 X125.117 Y71.556 E173.15002 F1200
G1 X121.786 Y74.894 E173.30292 F1200
G1 X121.622 Y75.085 E173.31106 F1200
G1 X121.524 Y75.249 E173.31725 F1200
G1 X121.454 Y75.416 E173.32312 F1200
G1 X121.408 Y75.597 E173.32916 F1200
G1 X121.390 Y75.851 E173.33739 F1200
G1 Y80.169 E173.47742 F1200
G1 X121.408 Y80.425 E173.48572 F1200
G1 X121.453 Y80.608 E173.49182 F1200
G1 X121.522 Y80.773 E173.49759 F1200
G1 X121.614 Y80.920 E173.50320 F1200
G1 X121.790 Y81.128 E173.51202 F1200
G1 X123.142 Y82.500 E173.57448 F1200
G1 X123.567 Y83.041 E173.59676 F1200
G1 X123.974 Y83.783 E173.62419 F1200
G1 X124.244 Y84.570 E173.65117 F1200
G1 X124.375 Y85.463 E173.68042 F1200
G1 X124.355 Y86.251 E173.70598 F1200
G1 X124.179 Y87.114 E173.73451 F1200
G1 X123.892 Y87.844 E173.75994 F1200
G1 X123.457 Y88.567 E173.78727 F1200
G1 X122.950 Y89.166 E173.81270 F1200
G1 X111.832 Y100.284 E174.32257 F1200
G1 X126.228 Y114.679 E174.98276 F1200
G1 X137.570 Y103.358 E175.50243 F1200
G1 X138.097 Y102.943 E175.52415 F1200
G1 X138.840 Y102.536 E175.55162 F1200
G1 X139.627 Y102.266 E175.57860 F1200
G1 X140.520 Y102.135 E175.60785 F1200
G1 X141.310 Y102.155 E175.63347 F1200
G1 X142.171 Y102.331 E175.66194 F1200
G1 X142.903 Y102.618 E175.68743 F1200
G1 X143.631 Y103.058 E175.71499 F1200
G1 X144.206 Y103.546 E175.73945 F1200
G1 X145.390 Y104.730 E175.79373 F1200
G1 X145.570 Y104.883 E175.80138 F1200
G1 X145.746 Y104.991 E175.80806 F1200
G1 X145.900 Y105.056 E175.81348 F1200
G1 X146.087 Y105.102 E175.81971 F1200
G1 X146.341 Y105.120 E175.82794 F1200
G1 X150.659 E175.96797 F1200
G1 X150.913 Y105.102 E175.97621 F1200
G1 X151.100 Y105.056 E175.98243 F1200
G1 X151.254 Y104.991 E175.98785 F1200
G1 X151.427 Y104.885 E175.99440 F1200
G1 X151.611 Y104.728 E176.00222 F1200
G1 X152.991 Y103.368 E176.06503 F1200
G1 X153.531 Y102.943 E176.08731 F1200
G1 X154.273 Y102.536 E176.11474 F1200
G1 X155.060 Y102.266 E176.14172 F1200
G1 X155.953 Y102.135 E176.17097 F1200
G1 X156.742 Y102.155 E176.19656 F1200
G1 X157.604 Y102.332 E176.22506 F1200
G1 X158.337 Y102.619 E176.25059 F1200
G1 X159.056 Y103.053 E176.27779 F1200
G1 X159.656 Y103.560 E176.30325 F1200
G1 X170.774 Y114.677 E176.81309 F1200
G1 X185.170 Y100.282 E177.47328 F1200
G1 X173.849 Y88.941 E177.99291 F1200
G1 X173.433 Y88.413 E178.01470 F1200
G1 X173.026 Y87.670 E178.04217 F1200
G1 X172.756 Y86.883 E178.06915 F1200
G1 X172.625 Y85.990 E178.09840 F1200
G1 X172.645 Y85.201 E178.12399 F1200
G1 X172.822 Y84.339 E178.15249 F1200
G1 X173.109 Y83.606 E178.17801 F1200
G1 X173.546 Y82.882 E178.20542 F1200
G1 X174.040 Y82.299 E178.23019 F1200
G1 X175.220 Y81.116 E178.28435 F1200
G1 X175.384 Y80.925 E178.29249 F1200
G1 X175.478 Y80.772 E178.29829 F1200
G1 X175.547 Y80.608 E178.30403 F1200
G1 X175.592 Y80.425 E178.31013 F1200
G1 X175.610 Y80.169 E178.31843 F1200
G1 Y75.851 E178.45846 F1200
G1 X175.592 Y75.597 E178.46669 F1200
G1 X175.547 Y75.416 E178.47273 F1200
G1 X175.476 Y75.247 E178.47866 F1200
G1 X175.379 Y75.088 E178.48469 F1200
G1 X175.217 Y74.898 E178.49277 F1200
G1 X173.858 Y73.519 E178.55555 F1200
G1 X173.433 Y72.979 E178.57783 F1200
G1 X173.026 Y72.237 E178.60526 F1200
G1 X172.756 Y71.450 E178.63224 F1200
G1 X172.625 Y70.554 E178.66159 F1200
G1 X172.654 Y69.707 E178.68906 F1200
G1 X172.826 Y68.888 E178.71617 F1200
G1 X173.110 Y68.167 E178.74127 F1200
G1 X173.543 Y67.449 E178.76844 F1200
G1 X174.040 Y66.866 E178.79328 F1200
G1 X213.876 Y27.052 E180.61970 F1200
G1 X214.403 Y26.637 E180.64142 F1200
G1 X215.146 Y26.230 E180.66889 F1200
G1 X215.935 Y25.960 E180.69590 F1200
G1 X216.649 Y25.840 E180.71938 F1200
G1 X217.638 Y25.853 E180.75145 F1200
G1 X218.486 Y26.028 E180.77950 F1200
G1 X219.213 Y26.315 E180.80483 F1200
G1 X219.930 Y26.747 E180.83197 F1200
G1 X220.529 Y27.254 E180.85740 F1200
G1 X223.662 Y30.387 E181.00106 F1200
G1 X224.208 Y30.874 E181.02476 F1200
G1 X224.760 Y31.265 E181.04668 F1200
G1 X225.371 Y31.606 E181.06935 F1200
G1 X225.990 Y31.861 E181.09105 F1200
G1 X226.690 Y32.062 E181.11465 F1200
G1 X227.355 Y32.175 E181.13651 F1200
G1 X228.049 Y32.214 E181.15905 F1200
G1 X228.743 Y32.175 E181.18159 F1200
G1 X229.411 Y32.062 E181.20354 F1200
G1 X230.109 Y31.861 E181.22708 F1200
G1 X230.728 Y31.606 E181.24878 F1200
G1 X231.339 Y31.265 E181.27145 F1200
G1 X231.886 Y30.877 E181.29317 F1200
G1 X232.469 Y30.356 E181.31850 F1200
G1 X235.650 Y27.195 E181.46391 F1200
G1 X236.206 Y26.756 E181.48687 F1200
G1 X236.909 Y26.364 E181.51294 F1200
G1 X237.692 Y26.089 E181.53983 F1200
G1 X238.490 Y25.954 E181.56606 F1200
G1 X239.314 Y25.955 E181.59278 F1200
G1 X240.120 Y26.097 E181.61931 F1200
G1 X240.895 Y26.374 E181.64600 F1200
G1 X241.598 Y26.770 E181.67213 F1200
G1 X242.239 Y27.292 E181.69892 F1200
G1 X242.782 Y27.915 E181.72571 F1200
G1 X243.204 Y28.597 E181.75171 F1200
G1 X244.666 Y31.510 E181.85740 F1200
G1 X246.075 Y34.545 E181.96591 F1200
G1 X247.369 Y37.575 E182.07273 F1200
G1 X248.579 Y40.666 E182.18036 F1200
G1 X249.690 Y43.792 E182.28792 F1200
G1 X250.708 Y46.963 E182.39591 F1200
G1 X251.621 Y50.145 E182.50325 F1200
G1 X252.438 Y53.364 E182.61094 F1200
G1 X253.158 Y56.635 E182.71955 F1200
G1 X253.769 Y59.867 E182.82620 F1200
G1 X254.281 Y63.146 E182.93380 F1200
G1 X254.692 Y66.442 E183.04150 F1200
G1 X255 Y69.777 E183.15010 F1200
G1 X255.206 Y73.061 E183.25679 F1200
G1 X255.307 Y76.290 E183.36154 F1200
G1 Y79.697 E183.47202 F1200
G1 X255.201 Y83.050 E183.58079 F1200
G1 X254.996 Y86.331 E183.68738 F1200
G1 X254.685 Y89.636 E183.79501 F1200
G1 X254.274 Y92.930 E183.90264 F1200
G1 X253.755 Y96.224 E184.01076 F1200
G1 X253.142 Y99.473 E184.11797 F1200
G1 X252.424 Y102.712 E184.22553 F1200
G1 X251.607 Y105.931 E184.33323 F1200
G1 X250.686 Y109.127 E184.44109 F1200
G1 X249.664 Y112.303 E184.54927 F1200
G1 X248.558 Y115.405 E184.65605 F1200
G1 X247.348 Y118.499 E184.76378 F1200
G1 X246.042 Y121.550 E184.87138 F1200
G1 X244.634 Y124.577 E184.97963 F1200
G1 X243.071 Y127.654 E185.09154 F1200
G1 X242.651 Y128.275 E185.11583 F1200
G1 X242.094 Y128.863 E185.14206 F1200
G1 X241.441 Y129.352 E185.16849 F1200
G1 X240.702 Y129.727 E185.19534 F1200
G1 X239.925 Y129.970 E185.22174 F1200
G1 X239.109 Y130.076 E185.24840 F1200
G1 X238.294 Y130.046 E185.27483 F1200
G1 X237.492 Y129.875 E185.30142 F1200
G1 X236.732 Y129.571 E185.32794 F1200
G1 X235.956 Y129.082 E185.35768 F1200
G1 X235.467 Y128.662 E185.37856 F1200
G1 X232.413 Y125.608 E185.51862 F1200
G1 X231.908 Y125.158 E185.54055 F1200
G1 X231.332 Y124.751 E185.56341 F1200
G1 X230.724 Y124.411 E185.58598 F1200
G1 X230.111 Y124.159 E185.60745 F1200
G1 X229.413 Y123.959 E185.63099 F1200
G1 X228.743 Y123.845 E185.65301 F1200
G1 X228.049 Y123.806 E185.67555 F1200
G1 X227.355 Y123.845 E185.69808 F1200
G1 X226.687 Y123.958 E185.72004 F1200
G1 X225.988 Y124.159 E185.74361 F1200
G1 X225.375 Y124.411 E185.76508 F1200
G1 X224.767 Y124.751 E185.78765 F1200
G1 X224.191 Y125.158 E185.81051 F1200
G1 X223.686 Y125.608 E185.83244 F1200
G1 X196.126 Y153.168 E187.09634 F1200
G1 X195.636 Y153.716 E187.12018 F1200
G1 X195.245 Y154.270 E187.14216 F1200
G1 X194.905 Y154.882 E187.16486 F1200
G1 X194.648 Y155.504 E187.18669 F1200
G1 X194.448 Y156.198 E187.21010 F1200
G1 X194.335 Y156.866 E187.23206 F1200
G1 X194.296 Y157.559 E187.25456 F1200
G1 X194.335 Y158.254 E187.27713 F1200
G1 X194.449 Y158.930 E187.29935 F1200
G1 X194.643 Y159.603 E187.32205 F1200
G1 X194.910 Y160.251 E187.34475 F1200
G1 X195.239 Y160.842 E187.36667 F1200
G1 X195.640 Y161.407 E187.38911 F1200
G1 X196.133 Y161.958 E187.41307 F1200
G1 X199.314 Y165.159 E187.55939 F1200
G1 X199.756 Y165.717 E187.58245 F1200
G1 X200.145 Y166.417 E187.60839 F1200
G1 X200.421 Y167.199 E187.63527 F1200
G1 X200.556 Y168.001 E187.66164 F1200
G1 X200.555 Y168.824 E187.68833 F1200
G1 X200.413 Y169.630 E187.71485 F1200
G1 X200.136 Y170.405 E187.74154 F1200
G1 X199.740 Y171.108 E187.76768 F1200
G1 X199.180 Y171.785 E187.79615 F1200
G1 X198.516 Y172.345 E187.82430 F1200
G1 X197.919 Y172.710 E187.84697 F1200
G1 X195.032 Y174.159 E187.95171 F1200
G1 X192.027 Y175.557 E188.05918 F1200
G1 X189.041 Y176.837 E188.16451 F1200
G1 X185.986 Y178.038 E188.27094 F1200
G1 X182.867 Y179.150 E188.37831 F1200
G1 X179.773 Y180.148 E188.48370 F1200
G1 X176.600 Y181.068 E188.59082 F1200
G1 X173.440 Y181.876 E188.69657 F1200
G1 X170.201 Y182.605 E188.80423 F1200
G1 X167.014 Y183.211 E188.90943 F1200
G1 X163.734 Y183.737 E189.01712 F1200
G1 X160.310 Y184.160 E189.12900 F1200
G1 X159.632 E189.15099 F1200
G1 X158.827 Y184.030 E189.17742 F1200
G1 X158.063 Y183.769 E189.20359 F1200
G1 X157.354 Y183.381 E189.22979 F1200
G1 X156.717 Y182.881 E189.25602 F1200
G1 X156.177 Y182.287 E189.28203 F1200
G1 X155.738 Y181.602 E189.30840 F1200
G1 X155.422 Y180.849 E189.33486 F1200
G1 X155.234 Y180.057 E189.36125 F1200
G1 X155.180 Y179.366 E189.38373 F1200
G1 X155.179 Y168.831 E189.72536 F1200
G1 X141.820 E190.15858 F1200
G1 X141.805 Y179.587 E190.50738 F1200
G1 X141.728 Y180.269 E190.52963 F1200
G1 X141.511 Y181.038 E190.55554 F1200
G1 X141.173 Y181.762 E190.58145 F1200
G1 X140.702 Y182.439 E190.60817 F1200
G1 X140.129 Y183.020 E190.63463 F1200
G1 X139.472 Y183.490 E190.66080 F1200
G1 X138.749 Y183.846 E190.68690 F1200
G1 X137.971 Y184.077 E190.71320 F1200
G1 X137.164 Y184.171 E190.73954 F1200
G1 X136.380 Y184.138 E190.76496 F1200
G1 X133.175 Y183.722 E190.86974 F1200
G1 X129.901 Y183.197 E190.97724 F1200
G1 X126.709 Y182.582 E191.08263 F1200
G1 X123.476 Y181.855 E191.19007 F1200
G1 X120.298 Y181.038 E191.29647 F1200
G1 X117.143 Y180.123 E191.40299 F1200
G1 X114.053 Y179.121 E191.50832 F1200
G1 X110.934 Y178.005 E191.61573 F1200
G1 X107.907 Y176.816 E191.72118 F1200
G1 X104.893 Y175.520 E191.82755 F1200
G1 X101.884 Y174.119 E191.93518 F1200
G1 X98.856 Y172.581 E192.04531 F1200
G1 X98.236 Y172.161 E192.06956 F1200
G1 X97.645 Y171.601 E192.09596 F1200
G1 X97.157 Y170.948 E192.12239 F1200
G1 X96.783 Y170.215 E192.14905 F1200
G1 X96.539 Y169.436 E192.17551 F1200
G1 X96.433 Y168.620 E192.20217 F1200
G1 X96.464 Y167.802 E192.22869 F1200
G1 X96.636 Y166.999 E192.25532 F1200
G1 X96.939 Y166.243 E192.28171 F1200
G1 X97.425 Y165.471 E192.31129 F1200
G1 X97.850 Y164.977 E192.33240 F1200
G1 X100.876 Y161.952 E192.47113 F1200
G1 X101.360 Y161.410 E192.49467 F1200
G1 X101.759 Y160.847 E192.51705 F1200
G1 X102.090 Y160.251 E192.53913 F1200
G1 X102.357 Y159.603 E192.56183 F1200
G1 X102.551 Y158.930 E192.58453 F1200
G1 X102.665 Y158.254 E192.60674 F1200
G1 X102.704 Y157.559 E192.62931 F1200
G1 X102.665 Y156.866 E192.65182 F1200
G1 X102.552 Y156.198 E192.67377 F1200
G1 X102.352 Y155.504 E192.69719 F1200
G1 X102.095 Y154.882 E192.71901 F1200
G1 X101.755 Y154.270 E192.74171 F1200
G1 X101.364 Y153.716 E192.76370 F1200
G1 X100.874 Y153.168 E192.78753 F1200
G1 X73.314 Y125.608 E194.05144 F1200
G1 X72.809 Y125.158 E194.07336 F1200
G1 X72.233 Y124.751 E194.09622 F1200
G1 X71.625 Y124.411 E194.11879 F1200
G1 X71.012 Y124.159 E194.14026 F1200
G1 X70.313 Y123.958 E194.16384 F1200
G1 X69.645 Y123.845 E194.18579 F1200
G1 X68.951 Y123.806 E194.20833 F1200
G1 X68.257 Y123.845 E194.23087 F1200
G1 X67.587 Y123.959 E194.25289 F1200
G1 X66.889 Y124.159 E194.27643 F1200
G1 X66.276 Y124.411 E194.29790 F1200
G1 X65.661 Y124.754 E194.32073 F1200
G1 X65.103 Y125.150 E194.34291 F1200
G1 X64.551 Y125.643 E194.36691 F1200
G1 X61.350 Y128.823 E194.51322 F1200
G1 X60.794 Y129.263 E194.53622 F1200
G1 X60.086 Y129.657 E194.56248 F1200
G1 X59.317 Y129.929 E194.58891 F1200
G1 X58.510 Y130.066 E194.61544 F1200
G1 X57.682 Y130.063 E194.64229 F1200
G1 X56.883 Y129.924 E194.66859 F1200
G1 X56.106 Y129.646 E194.69534 F1200
G1 X55.404 Y129.250 E194.72145 F1200
G1 X54.759 Y128.726 E194.74840 F1200
G1 X54.217 Y128.102 E194.77518 F1200
G1 X53.796 Y127.423 E194.80106 F1200
G1 X52.325 Y124.494 E194.90733 F1200
G1 X50.922 Y121.468 E195.01548 F1200
G1 X49.619 Y118.416 E195.12308 F1200
G1 X48.409 Y115.321 E195.23084 F1200
G1 X47.301 Y112.203 E195.33814 F1200
G1 X46.286 Y109.035 E195.44600 F1200
G1 X45.371 Y105.843 E195.55366 F1200
G1 X44.554 Y102.624 E195.66136 F1200
G1 X43.842 Y99.385 E195.76889 F1200
G1 X43.231 Y96.152 E195.87558 F1200
G1 X42.715 Y92.842 E195.98419 F1200
G1 X42.304 Y89.545 E196.09191 F1200
G1 X42 Y86.243 E196.19942 F1200
G1 X41.794 Y82.959 E196.30611 F1200
G1 X41.693 Y79.729 E196.41088 F1200
G1 Y76.322 E196.52137 F1200
G1 X41.799 Y72.970 E196.63010 F1200
G1 X42.004 Y69.689 E196.73669 F1200
G1 X42.315 Y66.384 E196.84432 F1200
G1 X42.726 Y63.090 E196.95195 F1200
G1 X43.245 Y59.796 E197.06007 F1200
G1 X43.858 Y56.547 E197.16728 F1200
G1 X44.576 Y53.308 E197.27485 F1200
G1 X45.393 Y50.089 E197.38254 F1200
G1 X46.315 Y46.892 E197.49043 F1200
G1 X47.336 Y43.719 E197.59852 F1200
G1 X48.442 Y40.614 E197.70540 F1200
G1 X49.652 Y37.519 E197.81316 F1200
G1 X50.958 Y34.470 E197.92069 F1200
G1 X52.366 Y31.443 E198.02894 F1200
G1 X53.929 Y28.366 E198.14085 F1200
G0 X54.380 Y28.624 F7200
G1 X54.747 Y28.078 E198.16216 F1200
G1 X55.244 Y27.551 E198.18564 F1200
G1 X55.828 Y27.112 E198.20931 F1200
G1 X56.479 Y26.778 E198.23301 F1200
G1 X57.177 Y26.558 E198.25672 F1200
G1 X57.902 Y26.462 E198.28043 F1200
G1 X58.631 Y26.488 E198.30407 F1200
G1 X59.351 Y26.640 E198.32790 F1200
G1 X60.024 Y26.908 E198.35138 F1200
G1 X60.663 Y27.298 E198.37564 F1200
G1 X61.159 Y27.719 E198.39671 F1200
G1 X64.195 Y30.755 E198.53593 F1200
G1 X64.783 Y31.280 E198.56148 F1200
G1 X65.388 Y31.709 E198.58551 F1200
G1 X66.042 Y32.073 E198.60977 F1200
G1 X66.726 Y32.355 E198.63374 F1200
G1 X67.470 Y32.569 E198.65884 F1200
G1 X68.200 Y32.693 E198.68283 F1200
G1 X68.951 Y32.735 E198.70722 F1200
G1 X69.700 Y32.693 E198.73154 F1200
G1 X70.431 Y32.569 E198.75557 F1200
G1 X71.175 Y32.355 E198.78067 F1200
G1 X71.859 Y32.073 E198.80463 F1200
G1 X72.513 Y31.709 E198.82889 F1200
G1 X73.118 Y31.280 E198.85292 F1200
G1 X73.721 Y30.741 E198.87912 F1200
G1 X77.001 Y27.475 E199.02920 F1200
G1 X77.503 Y27.075 E199.04999 F1200
G1 X78.169 Y26.708 E199.07464 F1200
G1 X78.878 Y26.465 E199.09892 F1200
G1 X79.571 Y26.355 E199.12166 F1200
G1 X80.421 Y26.371 E199.14922 F1200
G1 X81.094 Y26.503 E199.17143 F1200
G1 X81.793 Y26.774 E199.19572 F1200
G1 X82.441 Y27.163 E199.22021 F1200
G1 X82.965 Y27.607 E199.24245 F1200
G1 X124.864 Y69.544 E201.16486 F1200
G1 X124.989 Y69.768 E201.17316 F1200
G1 X125.070 Y69.989 E201.18078 F1200
G1 X125.099 Y70.191 E201.18739 F1200
G1 X125.080 Y70.542 E201.19878 F1200
G1 X124.970 Y70.868 E201.20993 F1200
G1 X124.765 Y71.173 E201.22183 F1200
G1 X121.400 Y74.544 E201.37629 F1200
G1 X121.199 Y74.780 E201.38631 F1200
G1 X121.058 Y75.012 E201.39510 F1200
G1 X120.959 Y75.249 E201.40340 F1200
G1 X120.893 Y75.517 E201.41235 F1200
G1 X120.870 Y75.830 E201.42250 F1200
G1 Y80.190 E201.56389 F1200
G1 X120.893 Y80.505 E201.57410 F1200
G1 X120.959 Y80.772 E201.58302 F1200
G1 X121.058 Y81.010 E201.59136 F1200
G1 X121.192 Y81.228 E201.59963 F1200
G1 X121.404 Y81.477 E201.61023 F1200
G1 X122.729 Y82.816 E201.67129 F1200
G1 X123.129 Y83.319 E201.69211 F1200
G1 X123.496 Y83.983 E201.71669 F1200
G1 X123.738 Y84.686 E201.74079 F1200
G1 X123.856 Y85.432 E201.76527 F1200
G1 X123.840 Y86.188 E201.78979 F1200
G1 X123.702 Y86.906 E201.81349 F1200
G1 X123.431 Y87.607 E201.83785 F1200
G1 X123.046 Y88.250 E201.86214 F1200
G1 X122.582 Y88.798 E201.88542 F1200
G1 X111.617 Y99.762 E202.38826 F1200
G1 X111.515 Y99.883 E202.39338 F1200
G1 X111.455 Y99.988 E202.39727 F1200
G1 X111.412 Y100.110 E202.40146 F1200
G1 X111.392 Y100.221 E202.40509 F1200
G1 Y100.345 E202.40911 F1200
G1 X111.413 Y100.462 E202.41294 F1200
G1 X111.454 Y100.577 E202.41689 F1200
G1 X111.516 Y100.686 E202.42095 F1200
G1 X111.612 Y100.800 E202.42578 F1200
G1 X125.708 Y114.895 E203.07221 F1200
G1 X125.820 Y114.991 E203.07698 F1200
G1 X125.940 Y115.060 E203.08145 F1200
G1 X126.046 Y115.098 E203.08508 F1200
G1 X126.162 Y115.118 E203.08888 F1200
G1 X126.290 E203.09303 F1200
G1 X126.406 Y115.098 E203.09682 F1200
G1 X126.512 Y115.060 E203.10046 F1200
G1 X126.632 Y114.991 E203.10493 F1200
G1 X126.756 Y114.886 E203.11018 F1200
G1 X137.881 Y103.775 E203.62006 F1200
G1 X138.376 Y103.381 E203.64055 F1200
G1 X139.040 Y103.014 E203.66514 F1200
G1 X139.743 Y102.772 E203.68923 F1200
G1 X140.489 Y102.654 E203.71371 F1200
G1 X141.245 Y102.670 E203.73823 F1200
G1 X141.963 Y102.808 E203.76193 F1200
G1 X142.667 Y103.080 E203.78639 F1200
G1 X143.314 Y103.469 E203.81084 F1200
G1 X143.838 Y103.913 E203.83308 F1200
G1 X145.034 Y105.110 E203.88795 F1200
G1 X145.268 Y105.309 E203.89791 F1200
G1 X145.505 Y105.453 E203.90689 F1200
G1 X145.739 Y105.551 E203.91509 F1200
G1 X146.007 Y105.617 E203.92405 F1200
G1 X146.320 Y105.640 E203.93420 F1200
G1 X150.680 E204.07558 F1200
G1 X150.993 Y105.617 E204.08573 F1200
G1 X151.261 Y105.551 E204.09468 F1200
G1 X151.495 Y105.453 E204.10289 F1200
G1 X151.732 Y105.309 E204.11187 F1200
G1 X151.963 Y105.111 E204.12173 F1200
G1 X153.306 Y103.781 E204.18302 F1200
G1 X153.809 Y103.381 E204.20384 F1200
G1 X154.473 Y103.014 E204.22842 F1200
G1 X155.176 Y102.772 E204.25251 F1200
G1 X155.922 Y102.654 E204.27700 F1200
G1 X156.678 Y102.670 E204.30151 F1200
G1 X157.396 Y102.808 E204.32522 F1200
G1 X158.099 Y103.080 E204.34964 F1200
G1 X158.740 Y103.464 E204.37386 F1200
G1 X159.287 Y103.927 E204.39708 F1200
G1 X170.256 Y114.895 E204.90008 F1200
G1 X170.368 Y114.991 E204.90485 F1200
G1 X170.488 Y115.060 E204.90932 F1200
G1 X170.594 Y115.098 E204.91296 F1200
G1 X170.710 Y115.118 E204.91675 F1200
G1 X170.838 E204.92090 F1200
G1 X170.954 Y115.098 E204.92470 F1200
G1 X171.060 Y115.060 E204.92833 F1200
G1 X171.180 Y114.991 E204.93280 F1200
G1 X171.292 Y114.895 E204.93757 F1200
G1 X185.388 Y100.800 E205.58400 F1200
G1 X185.484 Y100.686 E205.58883 F1200
G1 X185.546 Y100.577 E205.59289 F1200
G1 X185.587 Y100.462 E205.59684 F1200
G1 X185.608 Y100.345 E205.60067 F1200
G1 Y100.221 E205.60469 F1200
G1 X185.588 Y100.110 E205.60832 F1200
G1 X185.545 Y99.988 E205.61251 F1200
G1 X185.485 Y99.883 E205.61640 F1200
G1 X185.372 Y99.749 E205.62207 F1200
G1 X174.266 Y88.630 E206.13169 F1200
G1 X173.871 Y88.134 E206.15225 F1200
G1 X173.504 Y87.470 E206.17683 F1200
G1 X173.262 Y86.767 E206.20092 F1200
G1 X173.144 Y86.021 E206.22541 F1200
G1 X173.160 Y85.265 E206.24992 F1200
G1 X173.298 Y84.547 E206.27363 F1200
G1 X173.570 Y83.844 E206.29805 F1200
G1 X173.957 Y83.199 E206.32243 F1200
G1 X174.408 Y82.666 E206.34507 F1200
G1 X175.599 Y81.473 E206.39971 F1200
G1 X175.808 Y81.228 E206.41015 F1200
G1 X175.942 Y81.010 E206.41842 F1200
G1 X176.041 Y80.772 E206.42676 F1200
G1 X176.107 Y80.505 E206.43568 F1200
G1 X176.130 Y80.190 E206.44589 F1200
G1 Y75.830 E206.58728 F1200
G1 X176.107 Y75.517 E206.59743 F1200
G1 X176.041 Y75.249 E206.60638 F1200
G1 X175.942 Y75.012 E206.61468 F1200
G1 X175.803 Y74.784 E206.62334 F1200
G1 X175.594 Y74.540 E206.63375 F1200
G1 X174.271 Y73.204 E206.69472 F1200
G1 X173.871 Y72.701 E206.71553 F1200
G1 X173.504 Y72.037 E206.74012 F1200
