; Generated with Anisoprint Aura v2.4.8 on 04/22/2024 at 17:19 
; LAYER_COUNT:27 
M530 L27

M104 S245 T0
M140 S100 
G21 
G90 
M82 
G28
M530 S1
G1 Z10 F900
; Start change extruder 
M400
M109 S245 T0
T0 R ; switch extruder 
; End change extruder 
G92 E0 ; reset extrusion
M190 S100 
;MACROLAYER:1
;LAYER:1
M532 L1
G0 Z0.150 F1500
G0 X83.905 Y45.438 F7200
G1 X84.205 Y44.904 E0.02061 F1200
G1 X84.621 Y44.308 E0.04506 F1200
G1 X85.015 Y43.847 E0.06547 F1200
G1 X85.454 Y43.419 E0.08611 F1200
G1 X86.019 Y42.965 E0.11049 F1200
G1 X86.532 Y42.632 E0.13107 F1200
G1 X87.180 Y42.296 E0.15562 F1200
G1 X87.855 Y42.033 E0.18000 F1200
G1 X88.440 Y41.869 E0.20044 F1200
G1 X89.038 Y41.757 E0.22091 F1200
G1 X89.648 Y41.699 E0.24152 F1200
G1 X123.280 Y41.696 E1.37411 F1200
G1 X123.886 Y41.747 E1.39459 F1200
G1 X124.490 Y41.852 E1.41523 F1200
G1 X125.192 Y42.049 E1.43978 F1200
G1 X125.865 Y42.316 E1.46416 F1200
G1 X126.405 Y42.595 E1.48460 F1200
G1 X126.922 Y42.925 E1.50524 F1200
G1 X127.502 Y43.380 E1.53006 F1200
G1 X128.019 Y42.965 E1.55236 F1200
G1 X128.532 Y42.632 E1.57293 F1200
G1 X129.180 Y42.296 E1.59748 F1200
G1 X129.855 Y42.033 E1.62186 F1200
G1 X130.440 Y41.869 E1.64231 F1200
G1 X131.038 Y41.757 E1.66278 F1200
G1 X131.648 Y41.699 E1.68339 F1200
G1 X165.237 Y41.694 E2.81453 F1200
G1 X165.886 Y41.747 E2.83645 F1200
G1 X166.490 Y41.852 E2.85710 F1200
G1 X167.192 Y42.049 E2.88165 F1200
G1 X167.865 Y42.316 E2.90603 F1200
G1 X168.405 Y42.595 E2.92647 F1200
G1 X168.922 Y42.925 E2.94711 F1200
G1 X169.493 Y43.371 E2.97149 F1200
G1 X169.935 Y43.794 E2.99207 F1200
G1 X170.408 Y44.344 E3.01648 F1200
G1 X170.757 Y44.842 E3.03696 F1200
G1 X171.063 Y45.373 E3.05757 F1200
G1 X171.361 Y46.038 E3.08208 F1200
G1 X171.589 Y46.732 E3.10667 F1200
G1 X171.740 Y47.445 E3.13118 F1200
G1 X171.814 Y48.156 E3.15523 F1200
G1 X171.823 Y48.510 E3.16715 F1200
G1 X171.815 Y54.343 E3.36358 F1200
G1 X171.811 Y83.883 E4.35837 F1200
G1 X171.732 Y84.609 E4.38295 F1200
G1 X171.574 Y85.321 E4.40750 F1200
G1 X171.515 Y85.500 E4.41383 F1200
G1 X171.589 Y85.732 E4.42201 F1200
G1 X171.740 Y86.445 E4.44653 F1200
G1 X171.814 Y87.156 E4.47057 F1200
G1 X171.823 Y87.510 E4.48250 F1200
G1 X171.815 Y93.343 E4.67893 F1200
G1 X171.811 Y122.883 E5.67371 F1200
G1 X171.732 Y123.609 E5.69830 F1200
G1 X171.574 Y124.321 E5.72285 F1200
G1 X171.343 Y125.008 E5.74723 F1200
G1 X171.095 Y125.562 E5.76764 F1200
G1 X170.795 Y126.096 E5.78825 F1200
G1 X170.379 Y126.692 E5.81269 F1200
G1 X169.985 Y127.153 E5.83310 F1200
G1 X169.546 Y127.581 E5.85374 F1200
G1 X168.981 Y128.035 E5.87813 F1200
G1 X168.468 Y128.368 E5.89870 F1200
G1 X167.820 Y128.704 E5.92325 F1200
G1 X167.145 Y128.967 E5.94763 F1200
G1 X166.560 Y129.131 E5.96807 F1200
G1 X165.962 Y129.243 E5.98855 F1200
G1 X165.366 Y129.301 E6.00869 F1200
G1 X165.013 Y129.310 E6.02058 F1200
G1 X131.598 Y129.298 E7.14585 F1200
G1 X130.994 Y129.237 E7.16630 F1200
G1 X130.396 Y129.121 E7.18680 F1200
G1 X129.808 Y128.951 E7.20741 F1200
G1 X129.135 Y128.684 E7.23180 F1200
G1 X128.595 Y128.405 E7.25224 F1200
G1 X128.078 Y128.075 E7.27288 F1200
G1 X127.498 Y127.620 E7.29770 F1200
G1 X126.981 Y128.035 E7.31999 F1200
G1 X126.468 Y128.368 E7.34057 F1200
G1 X125.820 Y128.704 E7.36512 F1200
G1 X125.145 Y128.967 E7.38950 F1200
G1 X124.560 Y129.131 E7.40994 F1200
G1 X123.962 Y129.243 E7.43042 F1200
G1 X123.366 Y129.301 E7.45055 F1200
G1 X123.013 Y129.310 E7.46244 F1200
G1 X89.598 Y129.298 E8.58772 F1200
G1 X88.994 Y129.237 E8.60816 F1200
G1 X88.396 Y129.121 E8.62867 F1200
G1 X87.808 Y128.951 E8.64928 F1200
G1 X87.135 Y128.684 E8.67366 F1200
G1 X86.595 Y128.405 E8.69410 F1200
G1 X86.078 Y128.075 E8.71475 F1200
G1 X85.507 Y127.629 E8.73913 F1200
G1 X85.065 Y127.206 E8.75970 F1200
G1 X84.592 Y126.656 E8.78412 F1200
G1 X84.243 Y126.158 E8.80459 F1200
G1 X83.937 Y125.627 E8.82520 F1200
G1 X83.639 Y124.962 E8.84972 F1200
G1 X83.411 Y124.268 E8.87430 F1200
G1 X83.260 Y123.555 E8.89882 F1200
G1 X83.186 Y122.844 E8.92286 F1200
G1 X83.177 Y122.490 E8.93479 F1200
G1 X83.185 Y116.657 E9.13122 F1200
G1 X83.189 Y87.117 E10.12600 F1200
G1 X83.268 Y86.391 E10.15059 F1200
G1 X83.426 Y85.679 E10.17514 F1200
G1 X83.485 Y85.500 E10.18147 F1200
G1 X83.411 Y85.268 E10.18965 F1200
G1 X83.260 Y84.555 E10.21417 F1200
G1 X83.186 Y83.844 E10.23821 F1200
G1 X83.177 Y83.490 E10.25013 F1200
G1 X83.185 Y77.657 E10.44656 F1200
G1 X83.189 Y48.117 E11.44135 F1200
G1 X83.268 Y47.391 E11.46593 F1200
G1 X83.426 Y46.679 E11.49048 F1200
G1 X83.657 Y45.992 E11.51486 F1200
G1 X83.905 Y45.438 E11.53527 F1200
G0 X84.377 Y45.700 F7200
G1 X84.649 Y45.211 E11.55410 F1200
G1 X85.032 Y44.658 E11.57673 F1200
G1 X85.394 Y44.232 E11.59555 F1200
G1 X85.793 Y43.839 E11.61441 F1200
G1 X86.315 Y43.417 E11.63701 F1200
G1 X86.783 Y43.110 E11.65583 F1200
G1 X87.378 Y42.798 E11.67843 F1200
G1 X88.003 Y42.552 E11.70102 F1200
G1 X88.541 Y42.399 E11.71985 F1200
G1 X89.091 Y42.294 E11.73867 F1200
G1 X89.648 Y42.239 E11.75750 F1200
G1 X123.237 Y42.234 E12.88864 F1200
G1 X123.795 Y42.279 E12.90746 F1200
G1 X124.347 Y42.373 E12.92629 F1200
G1 X124.994 Y42.551 E12.94888 F1200
G1 X125.619 Y42.797 E12.97148 F1200
G1 X126.117 Y43.052 E12.99030 F1200
G1 X126.591 Y43.351 E13.00916 F1200
G1 X127.121 Y43.763 E13.03176 F1200
G1 X127.503 Y44.125 E13.04947 F1200
G1 X127.793 Y43.839 E13.06318 F1200
G1 X128.315 Y43.417 E13.08578 F1200
G1 X128.783 Y43.110 E13.10460 F1200
G1 X129.378 Y42.798 E13.12720 F1200
G1 X130.003 Y42.552 E13.14979 F1200
G1 X130.541 Y42.399 E13.16862 F1200
G1 X131.091 Y42.294 E13.18744 F1200
G1 X131.648 Y42.239 E13.20627 F1200
G1 X165.237 Y42.234 E14.33741 F1200
G1 X165.795 Y42.279 E14.35623 F1200
G1 X166.347 Y42.373 E14.37506 F1200
G1 X166.994 Y42.551 E14.39765 F1200
G1 X167.619 Y42.797 E14.42025 F1200
G1 X168.117 Y43.052 E14.43908 F1200
G1 X168.591 Y43.351 E14.45793 F1200
G1 X169.121 Y43.763 E14.48053 F1200
G1 X169.527 Y44.148 E14.49936 F1200
G1 X169.967 Y44.656 E14.52199 F1200
G1 X170.290 Y45.113 E14.54081 F1200
G1 X170.571 Y45.597 E14.55963 F1200
G1 X170.849 Y46.208 E14.58223 F1200
G1 X171.061 Y46.846 E14.60486 F1200
G1 X171.203 Y47.502 E14.62746 F1200
G1 X171.274 Y48.170 E14.65005 F1200
G1 X171.283 Y48.509 E14.66147 F1200
G1 X171.275 Y54.342 E14.85790 F1200
G1 X171.274 Y83.827 E15.85084 F1200
G1 X171.204 Y84.495 E15.87343 F1200
G1 X171.062 Y85.151 E15.89603 F1200
G1 X170.946 Y85.500 E15.90839 F1200
G1 X171.061 Y85.846 E15.92065 F1200
G1 X171.203 Y86.502 E15.94324 F1200
G1 X171.274 Y87.170 E15.96584 F1200
G1 X171.283 Y87.509 E15.97726 F1200
G1 X171.275 Y93.342 E16.17369 F1200
G1 X171.274 Y122.827 E17.16662 F1200
G1 X171.204 Y123.495 E17.18922 F1200
G1 X171.062 Y124.151 E17.21181 F1200
G1 X170.850 Y124.789 E17.23444 F1200
G1 X170.623 Y125.300 E17.25327 F1200
G1 X170.351 Y125.789 E17.27209 F1200
G1 X169.968 Y126.342 E17.29472 F1200
G1 X169.606 Y126.768 E17.31355 F1200
G1 X169.207 Y127.161 E17.33241 F1200
G1 X168.685 Y127.583 E17.35500 F1200
G1 X168.217 Y127.890 E17.37383 F1200
G1 X167.622 Y128.202 E17.39642 F1200
G1 X166.997 Y128.448 E17.41902 F1200
G1 X166.459 Y128.601 E17.43785 F1200
G1 X165.909 Y128.706 E17.45667 F1200
G1 X165.352 Y128.761 E17.47550 F1200
G1 X165.013 Y128.770 E17.48691 F1200
G1 X131.651 Y128.761 E18.61041 F1200
G1 X131.094 Y128.706 E18.62923 F1200
G1 X130.544 Y128.602 E18.64806 F1200
G1 X130.006 Y128.449 E18.66688 F1200
G1 X129.381 Y128.203 E18.68948 F1200
G1 X128.883 Y127.948 E18.70830 F1200
G1 X128.409 Y127.649 E18.72716 F1200
G1 X127.879 Y127.237 E18.74976 F1200
G1 X127.497 Y126.875 E18.76747 F1200
G1 X127.207 Y127.161 E18.78118 F1200
G1 X126.685 Y127.583 E18.80377 F1200
G1 X126.217 Y127.890 E18.82260 F1200
G1 X125.622 Y128.202 E18.84519 F1200
G1 X124.997 Y128.448 E18.86779 F1200
G1 X124.459 Y128.601 E18.88662 F1200
G1 X123.909 Y128.706 E18.90544 F1200
G1 X123.352 Y128.761 E18.92427 F1200
G1 X123.013 Y128.770 E18.93568 F1200
G1 X89.651 Y128.761 E20.05918 F1200
G1 X89.094 Y128.706 E20.07800 F1200
G1 X88.544 Y128.602 E20.09683 F1200
G1 X88.006 Y128.449 E20.11565 F1200
G1 X87.381 Y128.203 E20.13825 F1200
G1 X86.883 Y127.948 E20.15707 F1200
G1 X86.409 Y127.649 E20.17593 F1200
G1 X85.879 Y127.237 E20.19853 F1200
G1 X85.473 Y126.852 E20.21735 F1200
G1 X85.033 Y126.344 E20.23998 F1200
G1 X84.710 Y125.887 E20.25881 F1200
G1 X84.429 Y125.403 E20.27763 F1200
G1 X84.151 Y124.792 E20.30023 F1200
G1 X83.939 Y124.154 E20.32286 F1200
G1 X83.797 Y123.498 E20.34546 F1200
G1 X83.726 Y122.830 E20.36805 F1200
G1 X83.717 Y122.491 E20.37947 F1200
G1 X83.725 Y116.658 E20.57590 F1200
G1 X83.726 Y87.173 E21.56883 F1200
G1 X83.796 Y86.505 E21.59143 F1200
G1 X83.938 Y85.849 E21.61403 F1200
G1 X84.054 Y85.500 E21.62639 F1200
G1 X83.939 Y85.154 E21.63864 F1200
G1 X83.797 Y84.498 E21.66124 F1200
G1 X83.726 Y83.830 E21.68384 F1200
G1 X83.717 Y83.491 E21.69525 F1200
G1 X83.725 Y77.658 E21.89168 F1200
G1 X83.726 Y48.173 E22.88462 F1200
G1 X83.796 Y47.505 E22.90721 F1200
G1 X83.938 Y46.849 E22.92981 F1200
G1 X84.150 Y46.211 E22.95244 F1200
G1 X84.377 Y45.700 E22.97127 F1200
; Inset XP 
G1 F1500 E14.97127
G0 X121.645 Y49.868 F7200
G1 F1500 E22.97127
G1 X121.637 Y54.333 E23.13165 F1200
G1 Y77.667 E23.96983 F1200
G1 X121.645 Y82.132 E24.13022 F1200
G1 X91.355 E25.21826 F1200
G1 X91.363 Y77.667 E25.37865 F1200
G1 Y54.333 E26.21683 F1200
G1 X91.355 Y49.868 E26.37722 F1200
G1 X101.229 E26.73190 F1200
G1 X100.776 Y50.105 E26.75026 F1200
G1 X100.318 Y50.369 E26.76922 F1200
G1 X99.871 Y50.656 E26.78830 F1200
G1 X99.437 Y50.963 E26.80737 F1200
G1 X99.025 Y51.283 E26.82609 F1200
G1 X98.625 Y51.621 E26.84487 F1200
G1 X98.232 Y51.987 E26.86416 F1200
G1 X97.864 Y52.362 E26.88302 F1200
G1 X97.507 Y52.756 E26.90209 F1200
G1 X97.171 Y53.164 E26.92106 F1200
G1 X96.851 Y53.590 E26.94017 F1200
G1 X96.557 Y54.022 E26.95892 F1200
G1 X96.281 Y54.464 E26.97764 F1200
G1 X96.019 Y54.933 E26.99693 F1200
G1 X95.780 Y55.406 E27.01593 F1200
G1 X95.563 Y55.891 E27.03500 F1200
G1 X95.371 Y56.380 E27.05386 F1200
G1 X95.200 Y56.874 E27.07261 F1200
G1 X95.049 Y57.387 E27.09179 F1200
G1 X94.921 Y57.898 E27.11069 F1200
G1 X94.814 Y58.421 E27.12983 F1200
G1 X94.735 Y58.945 E27.14884 F1200
G1 X94.679 Y59.463 E27.16755 F1200
G1 X94.642 Y59.988 E27.18644 F1200
G1 X94.632 Y60.515 E27.20537 F1200
G1 X94.645 Y61.054 E27.22474 F1200
G1 X94.682 Y61.581 E27.24370 F1200
G1 X94.741 Y62.104 E27.26260 F1200
G1 X94.823 Y62.622 E27.28142 F1200
G1 X94.923 Y63.110 E27.29931 F1200
G1 X95.060 Y63.658 E27.31957 F1200
G1 X95.212 Y64.167 E27.33864 F1200
G1 X95.387 Y64.663 E27.35750 F1200
G1 X95.581 Y65.148 E27.37625 F1200
G1 X95.802 Y65.637 E27.39550 F1200
G1 X96.041 Y66.108 E27.41447 F1200
G1 X96.300 Y66.567 E27.43340 F1200
G1 X96.582 Y67.020 E27.45255 F1200
G1 X96.885 Y67.456 E27.47159 F1200
G1 X97.200 Y67.871 E27.49030 F1200
G1 X97.534 Y68.277 E27.50916 F1200
G1 X97.894 Y68.671 E27.52830 F1200
G1 X98.267 Y69.047 E27.54731 F1200
G1 X98.657 Y69.406 E27.56634 F1200
G1 X99.061 Y69.746 E27.58531 F1200
G1 X99.483 Y70.070 E27.60442 F1200
G1 X99.913 Y70.371 E27.62324 F1200
G1 X100.357 Y70.653 E27.64210 F1200
G1 X100.811 Y70.916 E27.66092 F1200
G1 X101.286 Y71.161 E27.68011 F1200
G1 X101.770 Y71.386 E27.69925 F1200
G1 X102.257 Y71.583 E27.71811 F1200
G1 X102.750 Y71.759 E27.73690 F1200
G1 X103.260 Y71.916 E27.75604 F1200
G1 X103.770 Y72.048 E27.77494 F1200
G1 X104.292 Y72.161 E27.79412 F1200
G1 X104.812 Y72.247 E27.81305 F1200
G1 X105.334 Y72.310 E27.83191 F1200
G1 X105.858 Y72.352 E27.85077 F1200
G1 X106.390 Y72.367 E27.86988 F1200
G1 X106.921 Y72.361 E27.88895 F1200
G1 X107.450 Y72.329 E27.90795 F1200
G1 X107.969 Y72.275 E27.92667 F1200
G1 X108.493 Y72.201 E27.94567 F1200
G1 X109.014 Y72.097 E27.96474 F1200
G1 X109.530 Y71.975 E27.98378 F1200
G1 X110.044 Y71.828 E28.00296 F1200
G1 X110.539 Y71.659 E28.02175 F1200
G1 X111.025 Y71.472 E28.04043 F1200
G1 X111.517 Y71.255 E28.05972 F1200
G1 X111.993 Y71.020 E28.07876 F1200
G1 X112.455 Y70.765 E28.09769 F1200
G1 X112.906 Y70.489 E28.11665 F1200
G1 X113.347 Y70.194 E28.13569 F1200
G1 X113.762 Y69.886 E28.15423 F1200
G1 X114.181 Y69.547 E28.17355 F1200
G1 X114.571 Y69.201 E28.19227 F1200
G1 X114.954 Y68.828 E28.21145 F1200
G1 X115.318 Y68.442 E28.23049 F1200
G1 X115.662 Y68.041 E28.24945 F1200
G1 X115.989 Y67.627 E28.26838 F1200
G1 X116.294 Y67.203 E28.28713 F1200
G1 X116.585 Y66.754 E28.30635 F1200
G1 X116.851 Y66.305 E28.32507 F1200
G1 X117.103 Y65.831 E28.34432 F1200
G1 X117.330 Y65.352 E28.36336 F1200
G1 X117.536 Y64.864 E28.38236 F1200
G1 X117.718 Y64.373 E28.40115 F1200
G1 X117.880 Y63.873 E28.42001 F1200
G1 X118.020 Y63.355 E28.43926 F1200
G1 X118.134 Y62.841 E28.45815 F1200
G1 X118.230 Y62.316 E28.47730 F1200
G1 X118.296 Y61.800 E28.49598 F1200
G1 X118.345 Y61.275 E28.51491 F1200
G1 X118.365 Y60.776 E28.53283 F1200
G1 Y60.216 E28.55295 F1200
G1 X118.342 Y59.677 E28.57231 F1200
G1 X118.290 Y59.159 E28.59099 F1200
G1 X118.220 Y58.634 E28.60999 F1200
G1 X118.128 Y58.123 E28.62863 F1200
G1 X118.009 Y57.598 E28.64796 F1200
G1 X117.868 Y57.086 E28.66703 F1200
G1 X117.703 Y56.581 E28.68611 F1200
G1 X117.517 Y56.091 E28.70493 F1200
G1 X117.315 Y55.612 E28.72357 F1200
G1 X117.081 Y55.124 E28.74301 F1200
G1 X116.833 Y54.660 E28.76190 F1200
G1 X116.562 Y54.205 E28.78090 F1200
G1 X116.270 Y53.761 E28.79998 F1200
G1 X115.965 Y53.341 E28.81862 F1200
G1 X115.632 Y52.922 E28.83784 F1200
G1 X115.291 Y52.528 E28.85655 F1200
G1 X114.921 Y52.139 E28.87581 F1200
G1 X114.542 Y51.772 E28.89474 F1200
G1 X114.144 Y51.421 E28.91378 F1200
G1 X113.732 Y51.089 E28.93278 F1200
G1 X113.312 Y50.781 E28.95146 F1200
G1 X112.867 Y50.486 E28.97060 F1200
G1 X112.423 Y50.217 E28.98925 F1200
G1 X111.948 Y49.955 E29.00871 F1200
G1 X111.769 Y49.868 E29.01586 F1200
G1 X121.645 E29.37062 F1200
G0 X122.221 Y49.292 F7200
G1 X122.213 Y54.333 E29.55170 F1200
G1 Y77.667 E30.38987 F1200
G1 X122.221 Y82.708 E30.57095 F1200
G1 X90.779 E31.70038 F1200
G1 X90.787 Y77.667 E31.88146 F1200
G1 Y54.333 E32.71964 F1200
G1 X90.779 Y49.292 E32.90071 F1200
G1 X105.145 E33.41675 F1200
G1 X104.862 Y49.329 E33.42699 F1200
G1 X104.372 Y49.410 E33.44481 F1200
G1 X103.870 Y49.519 E33.46323 F1200
G1 X103.386 Y49.647 E33.48120 F1200
G1 X102.904 Y49.795 E33.49930 F1200
G1 X102.431 Y49.967 E33.51737 F1200
G1 X101.973 Y50.154 E33.53511 F1200
G1 X101.510 Y50.370 E33.55343 F1200
G1 X101.064 Y50.603 E33.57150 F1200
G1 X100.628 Y50.855 E33.58957 F1200
G1 X100.203 Y51.126 E33.60767 F1200
G1 X99.791 Y51.417 E33.62578 F1200
G1 X99.397 Y51.723 E33.64367 F1200
G1 X99.017 Y52.043 E33.66148 F1200
G1 X98.642 Y52.391 E33.67984 F1200
G1 X98.290 Y52.748 E33.69783 F1200
G1 X97.951 Y53.122 E33.71594 F1200
G1 X97.631 Y53.510 E33.73397 F1200
G1 X97.327 Y53.914 E33.75211 F1200
G1 X97.045 Y54.327 E33.77007 F1200
G1 X96.783 Y54.746 E33.78782 F1200
G1 X96.533 Y55.193 E33.80621 F1200
G1 X96.306 Y55.642 E33.82428 F1200
G1 X96.099 Y56.103 E33.84242 F1200
G1 X95.915 Y56.569 E33.86041 F1200
G1 X95.752 Y57.038 E33.87823 F1200
G1 X95.607 Y57.527 E33.89655 F1200
G1 X95.485 Y58.014 E33.91458 F1200
G1 X95.384 Y58.508 E33.93269 F1200
G1 X95.307 Y59.007 E33.95079 F1200
G1 X95.253 Y59.503 E33.96868 F1200
G1 X95.218 Y60 E33.98657 F1200
G1 X95.208 Y60.502 E34.00460 F1200
G1 X95.219 Y61.014 E34.02299 F1200
G1 X95.254 Y61.517 E34.04109 F1200
G1 X95.310 Y62.014 E34.05906 F1200
G1 X95.387 Y62.506 E34.07691 F1200
G1 X95.487 Y62.994 E34.09480 F1200
G1 X95.612 Y63.494 E34.11330 F1200
G1 X95.756 Y63.977 E34.13140 F1200
G1 X95.922 Y64.450 E34.14940 F1200
G1 X96.105 Y64.910 E34.16718 F1200
G1 X96.316 Y65.377 E34.18557 F1200
G1 X96.543 Y65.826 E34.20364 F1200
G1 X96.789 Y66.263 E34.22163 F1200
G1 X97.056 Y66.692 E34.23977 F1200
G1 X97.343 Y67.108 E34.25791 F1200
G1 X97.644 Y67.505 E34.27580 F1200
G1 X97.960 Y67.889 E34.29366 F1200
G1 X98.304 Y68.266 E34.31197 F1200
G1 X98.657 Y68.624 E34.33001 F1200
G1 X99.027 Y68.966 E34.34808 F1200
G1 X99.412 Y69.290 E34.36614 F1200
G1 X99.813 Y69.598 E34.38428 F1200
G1 X100.223 Y69.885 E34.40224 F1200
G1 X100.646 Y70.155 E34.42024 F1200
G1 X101.075 Y70.404 E34.43806 F1200
G1 X101.529 Y70.639 E34.45641 F1200
G1 X101.986 Y70.852 E34.47452 F1200
G1 X102.451 Y71.041 E34.49251 F1200
G1 X102.918 Y71.209 E34.51033 F1200
G1 X103.406 Y71.358 E34.52865 F1200
G1 X103.892 Y71.486 E34.54668 F1200
G1 X104.386 Y71.593 E34.56482 F1200
G1 X104.882 Y71.675 E34.58285 F1200
G1 X105.380 Y71.736 E34.60085 F1200
G1 X105.874 Y71.776 E34.61863 F1200
G1 X106.384 Y71.791 E34.63695 F1200
G1 X106.887 Y71.786 E34.65502 F1200
G1 X107.391 Y71.756 E34.67312 F1200
G1 X107.889 Y71.705 E34.69108 F1200
G1 X108.381 Y71.636 E34.70890 F1200
G1 X108.882 Y71.537 E34.72722 F1200
G1 X109.372 Y71.421 E34.74529 F1200
G1 X109.858 Y71.283 E34.76343 F1200
G1 X110.333 Y71.121 E34.78143 F1200
G1 X110.794 Y70.944 E34.79913 F1200
G1 X111.263 Y70.739 E34.81749 F1200
G1 X111.715 Y70.516 E34.83559 F1200
G1 X112.155 Y70.273 E34.85363 F1200
G1 X112.586 Y70.011 E34.87173 F1200
G1 X113.004 Y69.731 E34.88980 F1200
G1 X113.400 Y69.438 E34.90747 F1200
G1 X113.799 Y69.117 E34.92586 F1200
G1 X114.169 Y68.788 E34.94364 F1200
G1 X114.536 Y68.432 E34.96200 F1200
G1 X114.882 Y68.066 E34.98007 F1200
G1 X115.210 Y67.685 E34.99810 F1200
G1 X115.521 Y67.291 E35.01610 F1200
G1 X115.811 Y66.889 E35.03388 F1200
G1 X116.090 Y66.460 E35.05223 F1200
G1 X116.343 Y66.035 E35.06998 F1200
G1 X116.583 Y65.584 E35.08830 F1200
G1 X116.800 Y65.128 E35.10644 F1200
G1 X116.996 Y64.664 E35.12451 F1200
G1 X117.170 Y64.195 E35.14247 F1200
G1 X117.324 Y63.723 E35.16028 F1200
G1 X117.458 Y63.229 E35.17864 F1200
G1 X117.568 Y62.738 E35.19671 F1200
G1 X117.658 Y62.242 E35.21481 F1200
G1 X117.722 Y61.746 E35.23277 F1200
G1 X117.769 Y61.251 E35.25063 F1200
G1 X117.789 Y60.752 E35.26855 F1200
G1 Y60.240 E35.28694 F1200
G1 X117.768 Y59.733 E35.30515 F1200
G1 X117.720 Y59.235 E35.32311 F1200
G1 X117.653 Y58.736 E35.34118 F1200
G1 X117.566 Y58.250 E35.35889 F1200
G1 X117.453 Y57.750 E35.37728 F1200
G1 X117.320 Y57.264 E35.39535 F1200
G1 X117.164 Y56.785 E35.41342 F1200
G1 X116.987 Y56.315 E35.43145 F1200
G1 X116.795 Y55.860 E35.44916 F1200
G1 X116.573 Y55.396 E35.46762 F1200
G1 X116.337 Y54.954 E35.48562 F1200
G1 X116.080 Y54.521 E35.50369 F1200
G1 X115.803 Y54.099 E35.52179 F1200
G1 X115.514 Y53.699 E35.53950 F1200
G1 X115.196 Y53.298 E35.55786 F1200
G1 X114.873 Y52.924 E35.57560 F1200
G1 X114.521 Y52.553 E35.59396 F1200
G1 X114.160 Y52.204 E35.61199 F1200
G1 X113.782 Y51.869 E35.63013 F1200
G1 X113.390 Y51.553 E35.64820 F1200
G1 X112.993 Y51.261 E35.66587 F1200
G1 X112.568 Y50.978 E35.68419 F1200
G1 X112.145 Y50.721 E35.70194 F1200
G1 X111.695 Y50.473 E35.72036 F1200
G1 X111.243 Y50.252 E35.73843 F1200
G1 X110.782 Y50.051 E35.75646 F1200
G1 X110.314 Y49.872 E35.77446 F1200
G1 X109.844 Y49.713 E35.79228 F1200
G1 X109.351 Y49.574 E35.81067 F1200
G1 X108.863 Y49.458 E35.82866 F1200
G1 X108.365 Y49.362 E35.84688 F1200
G1 X107.870 Y49.292 E35.86480 F1200
G1 X122.221 E36.38030 F1200
; Inset 0 
G0 X117.249 Y60.257 F7200
G1 X117.229 Y59.778 E36.39536 F1200
G1 X117.184 Y59.301 E36.41041 F1200
G1 X117.121 Y58.826 E36.42547 F1200
G1 X117.038 Y58.363 E36.44024 F1200
G1 X116.930 Y57.887 E36.45558 F1200
G1 X116.804 Y57.425 E36.47060 F1200
G1 X116.656 Y56.969 E36.48566 F1200
G1 X116.488 Y56.520 E36.50071 F1200
G1 X116.305 Y56.087 E36.51549 F1200
G1 X116.094 Y55.646 E36.53083 F1200
G1 X115.869 Y55.225 E36.54582 F1200
G1 X115.625 Y54.812 E36.56087 F1200
G1 X115.362 Y54.411 E36.57593 F1200
G1 X115.087 Y54.030 E36.59067 F1200
G1 X114.784 Y53.647 E36.60601 F1200
G1 X114.477 Y53.291 E36.62078 F1200
G1 X114.142 Y52.937 E36.63609 F1200
G1 X113.798 Y52.604 E36.65111 F1200
G1 X113.439 Y52.286 E36.66617 F1200
G1 X113.065 Y51.985 E36.68125 F1200
G1 X112.688 Y51.707 E36.69596 F1200
G1 X112.282 Y51.436 E36.71130 F1200
G1 X111.880 Y51.191 E36.72607 F1200
G1 X111.452 Y50.956 E36.74141 F1200
G1 X111.022 Y50.745 E36.75644 F1200
G1 X110.583 Y50.553 E36.77149 F1200
G1 X110.136 Y50.382 E36.78651 F1200
G1 X109.690 Y50.231 E36.80129 F1200
G1 X109.221 Y50.098 E36.81659 F1200
G1 X108.755 Y49.987 E36.83165 F1200
G1 X108.283 Y49.896 E36.84674 F1200
G1 X107.810 Y49.829 E36.86173 F1200
G1 X107.342 Y49.781 E36.87650 F1200
G1 X106.855 Y49.754 E36.89181 F1200
G1 X106.376 Y49.749 E36.90686 F1200
G1 X105.897 Y49.764 E36.92192 F1200
G1 X105.419 Y49.802 E36.93697 F1200
G1 X104.945 Y49.862 E36.95197 F1200
G1 X104.480 Y49.939 E36.96677 F1200
G1 X104.003 Y50.042 E36.98208 F1200
G1 X103.540 Y50.164 E36.99710 F1200
G1 X103.082 Y50.305 E37.01216 F1200
G1 X102.631 Y50.469 E37.02721 F1200
G1 X102.196 Y50.646 E37.04195 F1200
G1 X101.754 Y50.852 E37.05726 F1200
G1 X101.329 Y51.073 E37.07232 F1200
G1 X100.914 Y51.313 E37.08737 F1200
G1 X100.509 Y51.571 E37.10246 F1200
G1 X100.118 Y51.847 E37.11748 F1200
G1 X99.740 Y52.140 E37.13251 F1200
G1 X99.380 Y52.443 E37.14728 F1200
G1 X99.022 Y52.774 E37.16258 F1200
G1 X98.686 Y53.115 E37.17761 F1200
G1 X98.364 Y53.470 E37.19266 F1200
G1 X98.059 Y53.840 E37.20772 F1200
G1 X97.770 Y54.223 E37.22277 F1200
G1 X97.500 Y54.618 E37.23780 F1200
G1 X97.251 Y55.016 E37.25254 F1200
G1 X97.012 Y55.442 E37.26788 F1200
G1 X96.796 Y55.869 E37.28290 F1200
G1 X96.599 Y56.307 E37.29799 F1200
G1 X96.423 Y56.752 E37.31301 F1200
G1 X96.268 Y57.197 E37.32782 F1200
G1 X96.129 Y57.664 E37.34312 F1200
G1 X96.013 Y58.128 E37.35815 F1200
G1 X95.917 Y58.597 E37.37317 F1200
G1 X95.843 Y59.071 E37.38823 F1200
G1 X95.791 Y59.546 E37.40322 F1200
G1 X95.758 Y60.017 E37.41805 F1200
G1 X95.748 Y60.496 E37.43311 F1200
G1 X95.758 Y60.983 E37.44842 F1200
G1 X95.791 Y61.462 E37.46350 F1200
G1 X95.845 Y61.937 E37.47853 F1200
G1 X95.917 Y62.403 E37.49333 F1200
G1 X96.015 Y62.880 E37.50861 F1200
G1 X96.131 Y63.345 E37.52366 F1200
G1 X96.268 Y63.804 E37.53872 F1200
G1 X96.426 Y64.256 E37.55374 F1200
G1 X96.599 Y64.693 E37.56848 F1200
G1 X96.800 Y65.138 E37.58382 F1200
G1 X97.016 Y65.566 E37.59888 F1200
G1 X97.251 Y65.983 E37.61390 F1200
G1 X97.504 Y66.390 E37.62896 F1200
G1 X97.777 Y66.786 E37.64404 F1200
G1 X98.065 Y67.166 E37.65900 F1200
G1 X98.364 Y67.530 E37.67381 F1200
G1 X98.692 Y67.891 E37.68911 F1200
G1 X99.028 Y68.232 E37.70414 F1200
G1 X99.380 Y68.557 E37.71919 F1200
G1 X99.746 Y68.866 E37.73422 F1200
G1 X100.127 Y69.159 E37.74930 F1200
G1 X100.518 Y69.433 E37.76430 F1200
G1 X100.922 Y69.691 E37.77935 F1200
G1 X101.329 Y69.927 E37.79412 F1200
G1 X101.762 Y70.152 E37.80943 F1200
G1 X102.196 Y70.354 E37.82446 F1200
G1 X102.639 Y70.535 E37.83948 F1200
G1 X103.082 Y70.695 E37.85428 F1200
G1 X103.548 Y70.838 E37.86959 F1200
G1 X104.012 Y70.960 E37.88465 F1200
G1 X104.480 Y71.061 E37.89967 F1200
G1 X104.953 Y71.140 E37.91472 F1200
G1 X105.428 Y71.198 E37.92975 F1200
G1 X105.897 Y71.236 E37.94452 F1200
G1 X106.384 Y71.251 E37.95983 F1200
G1 X106.863 Y71.246 E37.97488 F1200
G1 X107.342 Y71.219 E37.98994 F1200
G1 X107.818 Y71.170 E38.00496 F1200
G1 X108.284 Y71.104 E38.01973 F1200
G1 X108.763 Y71.011 E38.03504 F1200
G1 X109.229 Y70.900 E38.05010 F1200
G1 X109.690 Y70.769 E38.06515 F1200
G1 X110.144 Y70.615 E38.08021 F1200
G1 X110.583 Y70.447 E38.09498 F1200
G1 X111.030 Y70.251 E38.11032 F1200
G1 X111.460 Y70.040 E38.12534 F1200
G1 X111.880 Y69.809 E38.14040 F1200
G1 X112.290 Y69.560 E38.15545 F1200
G1 X112.688 Y69.293 E38.17051 F1200
G1 X113.065 Y69.014 E38.18525 F1200
G1 X113.445 Y68.708 E38.20056 F1200
G1 X113.798 Y68.396 E38.21536 F1200
G1 X114.148 Y68.057 E38.23067 F1200
G1 X114.477 Y67.709 E38.24569 F1200
G1 X114.790 Y67.346 E38.26075 F1200
G1 X115.087 Y66.970 E38.27580 F1200
G1 X115.362 Y66.589 E38.29054 F1200
G1 X115.629 Y66.180 E38.30588 F1200
G1 X115.869 Y65.776 E38.32062 F1200
G1 X116.098 Y65.346 E38.33593 F1200
G1 X116.305 Y64.913 E38.35098 F1200
G1 X116.492 Y64.471 E38.36604 F1200
G1 X116.658 Y64.023 E38.38103 F1200
G1 X116.804 Y63.575 E38.39584 F1200
G1 X116.932 Y63.105 E38.41114 F1200
G1 X117.038 Y62.637 E38.42620 F1200
G1 X117.123 Y62.166 E38.44122 F1200
G1 X117.185 Y61.691 E38.45628 F1200
G1 X117.229 Y61.222 E38.47108 F1200
G1 X117.249 Y60.735 E38.48639 F1200
G1 Y60.257 E38.50141 F1200
G0 X122.761 Y48.752 F7200
G1 X122.753 Y54.333 E38.67683 F1200
G1 Y77.667 E39.41023 F1200
G1 X122.761 Y83.248 E39.58565 F1200
G1 X90.239 E40.60784 F1200
G1 X90.247 Y77.667 E40.78326 F1200
G1 Y54.333 E41.51667 F1200
G1 X90.239 Y48.752 E41.69208 F1200
G1 X122.761 E42.71427 F1200
; Solid infill 
G0 X121.355 Y50.486 F7200
G1 X121.024 Y50.155 E42.73109 F1200
G0 X120.210 F7200
G1 X121.355 Y51.301 E42.78924 F1200
G0 Y52.115 F7200
G1 X119.395 Y50.155 E42.88878 F1200
G0 X118.581 F7200
G1 X121.355 Y52.930 E43.02970 F1200
G0 Y53.745 F7200
G1 X117.766 Y50.155 E43.21203 F1200
G0 X116.952 Y50.156 F7200
G1 X121.355 Y54.559 E43.43568 F1200
G0 Y55.374 F7200
G1 X116.138 Y50.156 E43.70070 F1200
G0 X115.323 F7200
G1 X121.355 Y56.188 E44.00711 F1200
G0 Y57.003 F7200
G1 X114.508 Y50.156 E44.35493 F1200
G0 X113.694 F7200
G1 X121.355 Y57.818 E44.74410 F1200
G0 Y58.632 F7200
G1 X116.840 Y54.117 E44.97345 F1200
G0 X117.681 Y55.773 F7200
G1 X121.355 Y59.447 E45.16006 F1200
G0 Y60.261 F7200
G1 X118.158 Y57.064 E45.32246 F1200
G0 X118.420 Y58.141 F7200
G1 X121.355 Y61.076 E45.47153 F1200
G0 Y61.890 F7200
G1 X118.549 Y59.085 E45.61403 F1200
G0 X118.634 Y59.984 F7200
G1 X121.355 Y62.705 E45.75225 F1200
G0 Y63.520 F7200
G1 X118.650 Y60.814 E45.88969 F1200
G0 X118.584 Y61.563 F7200
G1 X121.355 Y64.334 E46.03042 F1200
G0 Y65.149 F7200
G1 X118.518 Y62.312 E46.17454 F1200
G0 X118.385 Y62.994 F7200
G1 X121.355 Y65.963 E46.32537 F1200
G0 Y66.778 F7200
G1 X118.230 Y63.653 E46.48411 F1200
G0 X118.044 Y64.281 F7200
G1 X121.355 Y67.593 E46.65232 F1200
G0 Y68.407 F7200
G1 X117.818 Y64.870 E46.83200 F1200
G0 X117.577 Y65.443 F7200
G1 X121.355 Y69.222 E47.02393 F1200
G0 Y70.036 F7200
G1 X117.328 Y66.009 E47.22850 F1200
G0 X117.027 Y66.523 F7200
G1 X121.355 Y70.851 E47.44833 F1200
G0 Y71.665 F7200
G1 X116.725 Y67.035 E47.68351 F1200
G0 X116.403 Y67.527 F7200
G1 X121.355 Y72.480 E47.93506 F1200
G0 Y73.295 F7200
G1 X116.044 Y67.984 E48.20483 F1200
G0 X115.686 Y68.440 F7200
G1 X121.355 Y74.109 E48.49281 F1200
G0 Y74.924 F7200
G1 X115.295 Y68.863 E48.80065 F1200
G0 X114.882 Y69.265 F7200
G1 X121.355 Y75.738 E49.12947 F1200
G0 Y76.553 F7200
G1 X114.468 Y69.666 E49.47930 F1200
G0 X114.013 Y70.026 F7200
G1 X121.355 Y77.368 E49.85227 F1200
G0 Y78.182 F7200
G1 X113.545 Y70.372 E50.24902 F1200
G0 X113.077 Y70.719 F7200
G1 X121.355 Y78.997 E50.66951 F1200
G0 Y79.811 F7200
G1 X112.553 Y71.009 E51.11662 F1200
G0 X112.029 Y71.299 F7200
G1 X121.355 Y80.626 E51.59038 F1200
G0 Y81.441 F7200
G1 X111.488 Y71.573 E52.09162 F1200
G0 X110.902 Y71.802 F7200
G1 X120.944 Y81.844 E52.60173 F1200
G0 X120.129 F7200
G1 X110.316 Y72.030 E53.10024 F1200
G0 X109.681 Y72.210 F7200
G1 X119.315 Y81.844 E53.58963 F1200
G0 X118.500 F7200
G1 X109.024 Y72.368 E54.07101 F1200
G0 X108.349 Y72.507 F7200
G1 X117.685 Y81.844 E54.54527 F1200
G0 X116.871 F7200
G1 X107.623 Y72.596 E55.01504 F1200
G0 X106.837 Y72.624 F7200
G1 X116.056 Y81.844 E55.48338 F1200
G0 X115.242 F7200
G1 X106.035 Y72.637 E55.95107 F1200
G0 X105.155 Y72.571 F7200
G1 X114.427 Y81.844 E56.42210 F1200
G0 X113.612 F7200
G1 X104.173 Y72.404 E56.90161 F1200
G0 X103.127 Y72.173 F7200
G1 X112.798 Y81.844 E57.39287 F1200
G0 X111.983 F7200
G1 X101.863 Y71.723 E57.90697 F1200
G0 X100.216 Y70.890 F7200
G1 X111.169 Y81.844 E58.46338 F1200
G0 X110.354 F7200
G1 X91.643 Y63.132 E59.41392 F1200
G0 Y62.318 F7200
G1 X96.131 Y66.806 E59.64188 F1200
G0 X95.300 Y65.160 F7200
G1 X91.643 Y61.503 E59.82762 F1200
G0 Y60.688 F7200
G1 X94.835 Y63.881 E59.98977 F1200
G0 X94.584 Y62.815 F7200
G1 X91.643 Y59.874 E60.13917 F1200
G0 Y59.059 F7200
G1 X94.431 Y61.848 E60.28080 F1200
G0 X94.379 Y60.981 F7200
G1 X91.643 Y58.245 E60.41978 F1200
G0 Y57.430 F7200
G1 X94.358 Y60.145 E60.55768 F1200
G0 X94.417 Y59.390 F7200
G1 X91.643 Y56.615 E60.69860 F1200
G0 Y55.801 F7200
G1 X94.497 Y58.655 E60.84358 F1200
G0 X94.628 Y57.972 F7200
G1 X91.643 Y54.986 E60.99523 F1200
G0 Y54.172 F7200
G1 X94.791 Y57.320 E61.15512 F1200
G0 X94.967 Y56.681 F7200
G1 X91.643 Y53.357 E61.32395 F1200
G0 Y52.542 F7200
G1 X95.197 Y56.097 E61.50449 F1200
G0 X95.428 Y55.513 F7200
G1 X91.643 Y51.728 E61.69673 F1200
G0 Y50.913 F7200
G1 X95.689 Y54.960 E61.90227 F1200
G0 X95.972 Y54.428 F7200
G1 X91.699 Y50.155 E62.11931 F1200
G0 X92.514 F7200
G1 X96.294 Y53.935 E62.31131 F1200
G0 X96.624 Y53.451 F7200
G1 X93.328 Y50.155 E62.47873 F1200
G0 X94.143 F7200
G1 X96.958 Y52.970 E62.62173 F1200
G0 X97.343 Y52.541 F7200
G1 X94.958 Y50.155 E62.74290 F1200
G0 X95.772 F7200
G1 X97.729 Y52.113 E62.84233 F1200
G0 X98.125 Y51.694 F7200
G1 X96.587 Y50.155 E62.92045 F1200
G0 X97.401 F7200
G1 X98.557 Y51.311 E62.97915 F1200
G0 X99.005 Y50.944 F7200
G1 X98.623 Y50.155 E63.01920 F1200
G1 X99.480 Y50.605 E63.04201 F1200
G0 X105.580 Y49.374 F7200
G1 X105.675 Y49.281 E63.04534 F1200
G1 X105.688 Y49.266 E63.04595 F1200
G1 X106.361 Y49.250 E63.06731 F1200
G1 X106.386 E63.06808 F1200
G1 X107.314 Y49.276 E63.09806 F1200
G1 X107.451 Y49.162 E63.10282 F1200
G1 F1500 E55.10282
G0 X91.643 Y63.947 F7200
G1 F1500 E63.10282
G1 X109.540 Y81.844 E64.01198 F1200
G0 X108.725 F7200
G1 X91.643 Y64.761 E64.87976 F1200
G0 Y65.576 F7200
G1 X107.910 Y81.844 E65.70612 F1200
G0 X107.096 F7200
G1 X91.643 Y66.390 E66.49113 F1200
G0 Y67.205 F7200
G1 X106.281 Y81.844 E67.23473 F1200
G0 X105.467 F7200
G1 X91.643 Y68.020 E67.93699 F1200
G0 Y68.834 F7200
G1 X104.652 Y81.844 E68.59786 F1200
G0 X103.837 F7200
G1 X91.643 Y69.649 E69.21732 F1200
G0 Y70.463 F7200
G1 X103.023 Y81.844 E69.79543 F1200
G0 X102.208 F7200
G1 X91.643 Y71.278 E70.33212 F1200
G0 Y72.093 F7200
G1 X101.394 Y81.844 E70.82744 F1200
G0 X100.579 F7200
G1 X91.643 Y72.907 E71.28141 F1200
G0 Y73.722 F7200
G1 X99.764 Y81.844 E71.69396 F1200
G0 X98.950 F7200
G1 X91.643 Y74.536 E72.06517 F1200
G0 Y75.351 F7200
G1 X98.135 Y81.844 E72.39496 F1200
G0 X97.321 F7200
G1 X91.643 Y76.166 E72.68337 F1200
G0 Y76.980 F7200
G1 X96.506 Y81.844 E72.93043 F1200
G0 X95.692 F7200
G1 X91.643 Y77.795 E73.13611 F1200
G0 Y78.609 F7200
G1 X94.877 Y81.844 E73.30042 F1200
G0 X94.062 F7200
G1 X91.643 Y79.424 E73.42330 F1200
G0 Y80.238 F7200
G1 X93.248 Y81.844 E73.50484 F1200
G0 X92.433 F7200
G1 X91.643 Y81.053 E73.54497 F1200
; Inset XP 
G1 F1500 E65.54497
G0 X121.645 Y88.868 F7200
G1 F1500 E73.54497
G1 X121.637 Y93.333 E73.70535 F1200
G1 Y116.667 E74.54353 F1200
G1 X121.645 Y121.132 E74.70392 F1200
G1 X91.355 E75.79196 F1200
G1 X91.363 Y116.667 E75.95235 F1200
G1 Y93.333 E76.79053 F1200
G1 X91.355 Y88.868 E76.95092 F1200
G1 X101.229 E77.30560 F1200
G1 X100.776 Y89.105 E77.32396 F1200
G1 X100.318 Y89.369 E77.34292 F1200
G1 X99.871 Y89.656 E77.36200 F1200
G1 X99.437 Y89.963 E77.38107 F1200
G1 X99.025 Y90.283 E77.39979 F1200
G1 X98.625 Y90.621 E77.41857 F1200
G1 X98.232 Y90.987 E77.43786 F1200
G1 X97.864 Y91.362 E77.45672 F1200
G1 X97.507 Y91.756 E77.47579 F1200
G1 X97.171 Y92.164 E77.49476 F1200
G1 X96.851 Y92.590 E77.51387 F1200
G1 X96.557 Y93.022 E77.53262 F1200
G1 X96.281 Y93.464 E77.55134 F1200
G1 X96.019 Y93.933 E77.57063 F1200
G1 X95.780 Y94.406 E77.58963 F1200
G1 X95.563 Y94.891 E77.60870 F1200
G1 X95.371 Y95.380 E77.62756 F1200
G1 X95.200 Y95.874 E77.64631 F1200
G1 X95.049 Y96.387 E77.66549 F1200
G1 X94.921 Y96.898 E77.68439 F1200
G1 X94.814 Y97.421 E77.70353 F1200
G1 X94.735 Y97.945 E77.72254 F1200
G1 X94.679 Y98.463 E77.74125 F1200
G1 X94.642 Y98.988 E77.76014 F1200
G1 X94.632 Y99.515 E77.77908 F1200
G1 X94.645 Y100.054 E77.79844 F1200
G1 X94.682 Y100.581 E77.81740 F1200
G1 X94.741 Y101.104 E77.83630 F1200
G1 X94.823 Y101.622 E77.85512 F1200
G1 X94.923 Y102.110 E77.87301 F1200
G1 X95.060 Y102.658 E77.89327 F1200
G1 X95.212 Y103.167 E77.91234 F1200
G1 X95.386 Y103.663 E77.93120 F1200
G1 X95.580 Y104.147 E77.94992 F1200
G1 X95.802 Y104.638 E77.96924 F1200
G1 X96.041 Y105.108 E77.98817 F1200
G1 X96.300 Y105.567 E78.00710 F1200
G1 X96.582 Y106.020 E78.02625 F1200
G1 X96.885 Y106.456 E78.04529 F1200
G1 X97.200 Y106.871 E78.06400 F1200
G1 X97.534 Y107.277 E78.08286 F1200
G1 X97.894 Y107.671 E78.10200 F1200
G1 X98.267 Y108.047 E78.12101 F1200
G1 X98.657 Y108.406 E78.14004 F1200
G1 X99.061 Y108.746 E78.15901 F1200
G1 X99.483 Y109.070 E78.17812 F1200
G1 X99.913 Y109.371 E78.19694 F1200
G1 X100.357 Y109.653 E78.21580 F1200
G1 X100.811 Y109.916 E78.23462 F1200
G1 X101.286 Y110.161 E78.25381 F1200
G1 X101.770 Y110.386 E78.27295 F1200
G1 X102.257 Y110.583 E78.29181 F1200
G1 X102.750 Y110.759 E78.31060 F1200
G1 X103.260 Y110.916 E78.32974 F1200
G1 X103.770 Y111.048 E78.34864 F1200
G1 X104.292 Y111.161 E78.36782 F1200
G1 X104.812 Y111.247 E78.38675 F1200
G1 X105.334 Y111.310 E78.40561 F1200
G1 X105.858 Y111.352 E78.42447 F1200
G1 X106.390 Y111.367 E78.44358 F1200
G1 X106.921 Y111.361 E78.46265 F1200
G1 X107.450 Y111.329 E78.48165 F1200
G1 X107.969 Y111.275 E78.50037 F1200
G1 X108.493 Y111.201 E78.51937 F1200
G1 X109.014 Y111.097 E78.53844 F1200
G1 X109.530 Y110.975 E78.55748 F1200
G1 X110.044 Y110.828 E78.57666 F1200
G1 X110.539 Y110.659 E78.59545 F1200
G1 X111.025 Y110.472 E78.61413 F1200
G1 X111.517 Y110.255 E78.63342 F1200
G1 X111.993 Y110.020 E78.65246 F1200
G1 X112.455 Y109.765 E78.67139 F1200
G1 X112.906 Y109.489 E78.69035 F1200
G1 X113.347 Y109.194 E78.70939 F1200
G1 X113.762 Y108.886 E78.72793 F1200
G1 X114.181 Y108.547 E78.74725 F1200
G1 X114.571 Y108.201 E78.76597 F1200
G1 X114.954 Y107.828 E78.78515 F1200
G1 X115.318 Y107.442 E78.80419 F1200
G1 X115.662 Y107.041 E78.82315 F1200
G1 X115.989 Y106.627 E78.84208 F1200
G1 X116.294 Y106.203 E78.86083 F1200
G1 X116.585 Y105.754 E78.88005 F1200
G1 X116.851 Y105.305 E78.89877 F1200
G1 X117.103 Y104.832 E78.91798 F1200
G1 X117.330 Y104.353 E78.93702 F1200
G1 X117.536 Y103.865 E78.95602 F1200
G1 X117.718 Y103.373 E78.97485 F1200
G1 X117.880 Y102.873 E78.99371 F1200
G1 X118.020 Y102.355 E79.01296 F1200
G1 X118.134 Y101.841 E79.03185 F1200
G1 X118.230 Y101.316 E79.05100 F1200
G1 X118.296 Y100.800 E79.06968 F1200
G1 X118.345 Y100.275 E79.08861 F1200
G1 X118.365 Y99.776 E79.10653 F1200
G1 Y99.216 E79.12665 F1200
G1 X118.342 Y98.677 E79.14601 F1200
G1 X118.290 Y98.159 E79.16469 F1200
G1 X118.220 Y97.634 E79.18369 F1200
G1 X118.128 Y97.123 E79.20233 F1200
G1 X118.009 Y96.598 E79.22166 F1200
G1 X117.868 Y96.086 E79.24073 F1200
G1 X117.703 Y95.581 E79.25981 F1200
G1 X117.517 Y95.091 E79.27863 F1200
G1 X117.315 Y94.612 E79.29727 F1200
G1 X117.081 Y94.124 E79.31671 F1200
G1 X116.833 Y93.660 E79.33560 F1200
G1 X116.562 Y93.205 E79.35460 F1200
G1 X116.270 Y92.761 E79.37368 F1200
G1 X115.965 Y92.341 E79.39232 F1200
G1 X115.632 Y91.922 E79.41154 F1200
G1 X115.291 Y91.528 E79.43025 F1200
G1 X114.921 Y91.139 E79.44951 F1200
G1 X114.542 Y90.772 E79.46844 F1200
G1 X114.144 Y90.421 E79.48748 F1200
G1 X113.732 Y90.089 E79.50648 F1200
G1 X113.312 Y89.781 E79.52516 F1200
G1 X112.867 Y89.486 E79.54430 F1200
G1 X112.423 Y89.217 E79.56295 F1200
G1 X111.948 Y88.955 E79.58241 F1200
G1 X111.769 Y88.868 E79.58956 F1200
G1 X121.645 E79.94432 F1200
G0 X122.221 Y88.292 F7200
G1 X122.213 Y93.333 E80.12540 F1200
G1 Y116.667 E80.96357 F1200
G1 X122.221 Y121.708 E81.14465 F1200
G1 X90.779 E82.27408 F1200
G1 X90.787 Y116.667 E82.45516 F1200
G1 Y93.333 E83.29334 F1200
G1 X90.779 Y88.292 E83.47441 F1200
G1 X105.145 E83.99045 F1200
G1 X104.862 Y88.329 E84.00069 F1200
G1 X104.372 Y88.410 E84.01851 F1200
G1 X103.870 Y88.519 E84.03694 F1200
G1 X103.386 Y88.647 E84.05490 F1200
G1 X102.904 Y88.795 E84.07300 F1200
G1 X102.431 Y88.967 E84.09107 F1200
G1 X101.973 Y89.154 E84.10881 F1200
G1 X101.510 Y89.370 E84.12713 F1200
G1 X101.064 Y89.603 E84.14520 F1200
G1 X100.628 Y89.855 E84.16327 F1200
G1 X100.203 Y90.126 E84.18137 F1200
G1 X99.791 Y90.417 E84.19948 F1200
G1 X99.397 Y90.723 E84.21737 F1200
G1 X99.017 Y91.043 E84.23518 F1200
G1 X98.642 Y91.391 E84.25354 F1200
G1 X98.290 Y91.748 E84.27153 F1200
G1 X97.951 Y92.122 E84.28964 F1200
G1 X97.631 Y92.510 E84.30767 F1200
G1 X97.327 Y92.914 E84.32581 F1200
G1 X97.045 Y93.327 E84.34377 F1200
G1 X96.783 Y93.746 E84.36152 F1200
G1 X96.533 Y94.193 E84.37991 F1200
G1 X96.306 Y94.642 E84.39798 F1200
G1 X96.099 Y95.103 E84.41612 F1200
G1 X95.915 Y95.569 E84.43411 F1200
G1 X95.752 Y96.038 E84.45193 F1200
G1 X95.607 Y96.527 E84.47025 F1200
G1 X95.485 Y97.014 E84.48828 F1200
G1 X95.384 Y97.508 E84.50639 F1200
G1 X95.307 Y98.007 E84.52449 F1200
G1 X95.253 Y98.503 E84.54238 F1200
G1 X95.218 Y99 E84.56027 F1200
G1 X95.208 Y99.502 E84.57830 F1200
G1 X95.219 Y100.014 E84.59669 F1200
G1 X95.254 Y100.517 E84.61480 F1200
G1 X95.310 Y101.014 E84.63276 F1200
G1 X95.387 Y101.506 E84.65061 F1200
G1 X95.487 Y101.994 E84.66850 F1200
G1 X95.612 Y102.494 E84.68700 F1200
G1 X95.756 Y102.977 E84.70510 F1200
G1 X95.922 Y103.450 E84.72310 F1200
G1 X96.104 Y103.909 E84.74081 F1200
G1 X96.316 Y104.378 E84.75927 F1200
G1 X96.543 Y104.826 E84.77730 F1200
G1 X96.789 Y105.263 E84.79530 F1200
G1 X97.056 Y105.692 E84.81344 F1200
G1 X97.343 Y106.108 E84.83158 F1200
G1 X97.644 Y106.505 E84.84947 F1200
G1 X97.960 Y106.889 E84.86732 F1200
G1 X98.304 Y107.266 E84.88564 F1200
G1 X98.657 Y107.624 E84.90367 F1200
G1 X99.027 Y107.966 E84.92174 F1200
G1 X99.412 Y108.290 E84.93981 F1200
G1 X99.813 Y108.598 E84.95795 F1200
G1 X100.223 Y108.885 E84.97591 F1200
G1 X100.646 Y109.155 E84.99390 F1200
G1 X101.075 Y109.404 E85.01172 F1200
G1 X101.529 Y109.639 E85.03008 F1200
G1 X101.986 Y109.852 E85.04818 F1200
G1 X102.451 Y110.041 E85.06618 F1200
G1 X102.918 Y110.209 E85.08399 F1200
G1 X103.406 Y110.358 E85.10231 F1200
G1 X103.892 Y110.486 E85.12035 F1200
G1 X104.386 Y110.593 E85.13849 F1200
G1 X104.882 Y110.675 E85.15652 F1200
G1 X105.380 Y110.736 E85.17452 F1200
G1 X105.874 Y110.776 E85.19230 F1200
G1 X106.384 Y110.791 E85.21062 F1200
G1 X106.887 Y110.786 E85.22868 F1200
G1 X107.391 Y110.756 E85.24679 F1200
G1 X107.889 Y110.705 E85.26475 F1200
G1 X108.381 Y110.636 E85.28257 F1200
G1 X108.882 Y110.537 E85.30089 F1200
G1 X109.372 Y110.421 E85.31895 F1200
G1 X109.858 Y110.283 E85.33709 F1200
G1 X110.333 Y110.121 E85.35509 F1200
G1 X110.794 Y109.944 E85.37280 F1200
G1 X111.263 Y109.739 E85.39115 F1200
G1 X111.715 Y109.516 E85.40926 F1200
G1 X112.155 Y109.273 E85.42729 F1200
G1 X112.586 Y109.011 E85.44540 F1200
G1 X113.004 Y108.731 E85.46346 F1200
G1 X113.400 Y108.438 E85.48114 F1200
G1 X113.799 Y108.117 E85.49953 F1200
G1 X114.169 Y107.788 E85.51731 F1200
G1 X114.536 Y107.432 E85.53566 F1200
G1 X114.882 Y107.066 E85.55373 F1200
G1 X115.210 Y106.685 E85.57177 F1200
G1 X115.521 Y106.291 E85.58976 F1200
G1 X115.811 Y105.889 E85.60754 F1200
G1 X116.090 Y105.460 E85.62590 F1200
G1 X116.343 Y105.035 E85.64364 F1200
G1 X116.583 Y104.584 E85.66196 F1200
G1 X116.800 Y104.129 E85.68007 F1200
G1 X116.996 Y103.665 E85.69814 F1200
G1 X117.170 Y103.195 E85.71613 F1200
G1 X117.324 Y102.723 E85.73395 F1200
G1 X117.458 Y102.229 E85.75230 F1200
G1 X117.568 Y101.738 E85.77037 F1200
G1 X117.658 Y101.242 E85.78848 F1200
G1 X117.722 Y100.746 E85.80644 F1200
G1 X117.769 Y100.251 E85.82429 F1200
G1 X117.789 Y99.752 E85.84221 F1200
G1 Y99.240 E85.86061 F1200
G1 X117.768 Y98.733 E85.87882 F1200
G1 X117.720 Y98.235 E85.89678 F1200
G1 X117.653 Y97.736 E85.91485 F1200
G1 X117.566 Y97.250 E85.93256 F1200
G1 X117.453 Y96.750 E85.95095 F1200
G1 X117.320 Y96.264 E85.96901 F1200
G1 X117.164 Y95.785 E85.98708 F1200
G1 X116.987 Y95.315 E86.00512 F1200
G1 X116.795 Y94.860 E86.02282 F1200
G1 X116.573 Y94.396 E86.04129 F1200
G1 X116.337 Y93.954 E86.05928 F1200
G1 X116.080 Y93.521 E86.07735 F1200
G1 X115.803 Y93.099 E86.09546 F1200
G1 X115.514 Y92.699 E86.11317 F1200
G1 X115.196 Y92.298 E86.13152 F1200
G1 X114.873 Y91.924 E86.14927 F1200
G1 X114.521 Y91.553 E86.16762 F1200
G1 X114.160 Y91.204 E86.18565 F1200
G1 X113.782 Y90.869 E86.20379 F1200
G1 X113.390 Y90.553 E86.22186 F1200
G1 X112.993 Y90.261 E86.23954 F1200
G1 X112.568 Y89.978 E86.25786 F1200
G1 X112.145 Y89.721 E86.27560 F1200
G1 X111.695 Y89.473 E86.29403 F1200
G1 X111.243 Y89.252 E86.31210 F1200
G1 X110.782 Y89.051 E86.33013 F1200
G1 X110.314 Y88.872 E86.34812 F1200
G1 X109.844 Y88.713 E86.36594 F1200
G1 X109.351 Y88.574 E86.38433 F1200
G1 X108.863 Y88.458 E86.40233 F1200
G1 X108.365 Y88.362 E86.42054 F1200
G1 X107.870 Y88.292 E86.43847 F1200
G1 X122.221 E86.95397 F1200
; Inset 0 
G0 X117.249 Y99.257 F7200
G1 X117.229 Y98.778 E86.96902 F1200
G1 X117.184 Y98.301 E86.98408 F1200
G1 X117.121 Y97.826 E86.99913 F1200
G1 X117.038 Y97.363 E87.01391 F1200
G1 X116.930 Y96.887 E87.02924 F1200
G1 X116.804 Y96.425 E87.04427 F1200
G1 X116.656 Y95.969 E87.05932 F1200
G1 X116.488 Y95.520 E87.07438 F1200
G1 X116.305 Y95.087 E87.08915 F1200
G1 X116.094 Y94.646 E87.10449 F1200
G1 X115.869 Y94.225 E87.11948 F1200
G1 X115.625 Y93.812 E87.13454 F1200
G1 X115.362 Y93.411 E87.14959 F1200
G1 X115.087 Y93.030 E87.16433 F1200
G1 X114.784 Y92.647 E87.17967 F1200
G1 X114.477 Y92.291 E87.19444 F1200
G1 X114.142 Y91.937 E87.20975 F1200
G1 X113.798 Y91.604 E87.22478 F1200
G1 X113.439 Y91.286 E87.23983 F1200
G1 X113.065 Y90.985 E87.25492 F1200
G1 X112.688 Y90.707 E87.26963 F1200
G1 X112.282 Y90.436 E87.28497 F1200
G1 X111.880 Y90.191 E87.29974 F1200
G1 X111.452 Y89.956 E87.31508 F1200
G1 X111.022 Y89.745 E87.33010 F1200
G1 X110.583 Y89.553 E87.34516 F1200
G1 X110.136 Y89.382 E87.36018 F1200
G1 X109.690 Y89.231 E87.37495 F1200
G1 X109.221 Y89.098 E87.39026 F1200
G1 X108.755 Y88.987 E87.40531 F1200
G1 X108.283 Y88.896 E87.42040 F1200
G1 X107.810 Y88.829 E87.43539 F1200
G1 X107.342 Y88.781 E87.45017 F1200
G1 X106.855 Y88.754 E87.46547 F1200
G1 X106.376 Y88.749 E87.48053 F1200
G1 X105.897 Y88.764 E87.49558 F1200
G1 X105.419 Y88.802 E87.51064 F1200
G1 X104.945 Y88.862 E87.52563 F1200
G1 X104.480 Y88.939 E87.54044 F1200
G1 X104.003 Y89.042 E87.55574 F1200
G1 X103.540 Y89.164 E87.57077 F1200
G1 X103.082 Y89.305 E87.58582 F1200
G1 X102.631 Y89.469 E87.60088 F1200
G1 X102.196 Y89.646 E87.61562 F1200
G1 X101.754 Y89.852 E87.63092 F1200
G1 X101.329 Y90.073 E87.64598 F1200
G1 X100.914 Y90.313 E87.66104 F1200
G1 X100.509 Y90.571 E87.67612 F1200
G1 X100.118 Y90.847 E87.69115 F1200
G1 X99.740 Y91.140 E87.70617 F1200
G1 X99.380 Y91.443 E87.72094 F1200
G1 X99.022 Y91.774 E87.73625 F1200
G1 X98.686 Y92.115 E87.75127 F1200
G1 X98.364 Y92.470 E87.76633 F1200
G1 X98.059 Y92.840 E87.78138 F1200
G1 X97.770 Y93.223 E87.79644 F1200
G1 X97.500 Y93.618 E87.81146 F1200
G1 X97.251 Y94.016 E87.82620 F1200
G1 X97.012 Y94.442 E87.84154 F1200
G1 X96.796 Y94.869 E87.85657 F1200
G1 X96.599 Y95.307 E87.87165 F1200
G1 X96.423 Y95.752 E87.88668 F1200
G1 X96.268 Y96.197 E87.90148 F1200
G1 X96.129 Y96.664 E87.91679 F1200
G1 X96.013 Y97.128 E87.93181 F1200
G1 X95.917 Y97.597 E87.94684 F1200
G1 X95.843 Y98.071 E87.96189 F1200
G1 X95.791 Y98.546 E87.97688 F1200
G1 X95.758 Y99.017 E87.99172 F1200
G1 X95.748 Y99.496 E88.00677 F1200
G1 X95.758 Y99.983 E88.02208 F1200
G1 X95.791 Y100.462 E88.03717 F1200
G1 X95.845 Y100.937 E88.05219 F1200
G1 X95.917 Y101.403 E88.06700 F1200
G1 X96.015 Y101.880 E88.08227 F1200
G1 X96.131 Y102.345 E88.09733 F1200
G1 X96.268 Y102.804 E88.11238 F1200
G1 X96.426 Y103.256 E88.12741 F1200
G1 X96.599 Y103.693 E88.14215 F1200
G1 X96.800 Y104.139 E88.15752 F1200
G1 X97.016 Y104.566 E88.17254 F1200
G1 X97.251 Y104.983 E88.18756 F1200
G1 X97.504 Y105.390 E88.20262 F1200
G1 X97.777 Y105.786 E88.21771 F1200
G1 X98.065 Y106.166 E88.23267 F1200
G1 X98.364 Y106.530 E88.24747 F1200
G1 X98.692 Y106.891 E88.26278 F1200
G1 X99.028 Y107.232 E88.27780 F1200
G1 X99.380 Y107.557 E88.29286 F1200
G1 X99.746 Y107.866 E88.30788 F1200
G1 X100.127 Y108.159 E88.32297 F1200
G1 X100.518 Y108.433 E88.33796 F1200
G1 X100.922 Y108.691 E88.35302 F1200
G1 X101.329 Y108.927 E88.36779 F1200
G1 X101.762 Y109.152 E88.38310 F1200
G1 X102.196 Y109.354 E88.39812 F1200
G1 X102.639 Y109.535 E88.41314 F1200
G1 X103.082 Y109.695 E88.42795 F1200
G1 X103.548 Y109.838 E88.44325 F1200
G1 X104.012 Y109.960 E88.45831 F1200
G1 X104.480 Y110.061 E88.47333 F1200
G1 X104.953 Y110.140 E88.48839 F1200
G1 X105.428 Y110.198 E88.50341 F1200
G1 X105.897 Y110.236 E88.51819 F1200
G1 X106.384 Y110.251 E88.53349 F1200
G1 X106.863 Y110.246 E88.54855 F1200
G1 X107.342 Y110.219 E88.56360 F1200
G1 X107.818 Y110.170 E88.57863 F1200
G1 X108.284 Y110.104 E88.59340 F1200
G1 X108.763 Y110.011 E88.60871 F1200
G1 X109.229 Y109.900 E88.62376 F1200
G1 X109.690 Y109.769 E88.63882 F1200
G1 X110.144 Y109.615 E88.65387 F1200
G1 X110.583 Y109.447 E88.66864 F1200
G1 X111.030 Y109.251 E88.68398 F1200
G1 X111.460 Y109.040 E88.69901 F1200
G1 X111.880 Y108.809 E88.71406 F1200
G1 X112.290 Y108.560 E88.72912 F1200
G1 X112.688 Y108.293 E88.74417 F1200
G1 X113.065 Y108.014 E88.75891 F1200
G1 X113.445 Y107.708 E88.77422 F1200
G1 X113.798 Y107.396 E88.78902 F1200
G1 X114.148 Y107.057 E88.80433 F1200
G1 X114.477 Y106.709 E88.81936 F1200
G1 X114.790 Y106.346 E88.83441 F1200
G1 X115.087 Y105.970 E88.84947 F1200
G1 X115.362 Y105.589 E88.86421 F1200
G1 X115.629 Y105.180 E88.87955 F1200
G1 X115.869 Y104.776 E88.89429 F1200
G1 X116.098 Y104.346 E88.90959 F1200
G1 X116.305 Y103.913 E88.92465 F1200
G1 X116.492 Y103.472 E88.93970 F1200
G1 X116.658 Y103.023 E88.95473 F1200
G1 X116.804 Y102.575 E88.96953 F1200
G1 X116.932 Y102.105 E88.98484 F1200
G1 X117.038 Y101.637 E88.99989 F1200
G1 X117.123 Y101.166 E89.01492 F1200
G1 X117.185 Y100.691 E89.02997 F1200
G1 X117.229 Y100.222 E89.04478 F1200
G1 X117.249 Y99.735 E89.06008 F1200
G1 Y99.257 E89.07511 F1200
G0 X122.761 Y87.752 F7200
G1 X122.753 Y93.333 E89.25052 F1200
G1 Y116.667 E89.98393 F1200
G1 X122.761 Y122.248 E90.15935 F1200
G1 X90.239 E91.18154 F1200
G1 X90.247 Y116.667 E91.35695 F1200
G1 Y93.333 E92.09036 F1200
G1 X90.239 Y87.752 E92.26578 F1200
G1 X122.761 E93.28797 F1200
; Solid infill 
G0 X121.355 Y89.586 F7200
G1 X120.925 Y89.156 E93.30981 F1200
G0 X120.110 F7200
G1 X121.355 Y90.400 E93.37300 F1200
G0 Y91.215 F7200
G1 X119.295 Y89.156 E93.47760 F1200
G0 X118.481 F7200
G1 X121.355 Y92.029 E93.62354 F1200
G0 Y92.844 F7200
G1 X117.666 Y89.156 E93.81091 F1200
G0 X116.852 F7200
G1 X121.355 Y93.659 E94.03965 F1200
G0 Y94.473 F7200
G1 X116.037 Y89.156 E94.30978 F1200
G0 X115.223 F7200
G1 X121.355 Y95.288 E94.62125 F1200
G0 Y96.102 F7200
G1 X114.408 Y89.156 E94.97410 F1200
G0 X113.653 Y89.215 F7200
G1 X121.355 Y96.917 E95.36535 F1200
G0 Y97.732 F7200
G1 X116.956 Y93.333 E95.58881 F1200
G0 X117.741 Y94.933 F7200
G1 X121.355 Y98.546 E95.77237 F1200
G0 Y99.361 F7200
G1 X118.192 Y96.198 E95.93305 F1200
G0 X118.435 Y97.256 F7200
G1 X121.355 Y100.175 E96.08133 F1200
G0 Y100.990 F7200
G1 X118.566 Y98.202 E96.22296 F1200
G0 X118.637 Y99.087 F7200
G1 X121.355 Y101.804 E96.36101 F1200
G0 Y102.619 F7200
G1 X118.641 Y99.906 E96.49884 F1200
G0 X118.576 Y100.655 F7200
G1 X121.355 Y103.434 E96.64001 F1200
G0 Y104.248 F7200
G1 X118.506 Y101.399 E96.78473 F1200
G0 X118.368 Y102.077 F7200
G1 X121.355 Y105.064 E96.93646 F1200
G0 Y105.878 F7200
G1 X118.207 Y102.730 E97.09635 F1200
G0 X118.021 Y103.359 F7200
G1 X121.355 Y106.693 E97.26568 F1200
G0 Y107.507 F7200
G1 X117.789 Y103.941 E97.44683 F1200
G0 X117.548 Y104.514 F7200
G1 X121.355 Y108.322 E97.64022 F1200
G0 Y109.136 F7200
G1 X117.292 Y105.073 E97.84659 F1200
G0 X116.990 Y105.586 F7200
G1 X121.355 Y109.951 E98.06833 F1200
G0 Y110.766 F7200
G1 X116.688 Y106.099 E98.30541 F1200
G0 X116.359 Y106.584 F7200
G1 X121.355 Y111.580 E98.55919 F1200
G0 Y112.395 F7200
G1 X116 Y107.039 E98.83122 F1200
G0 X115.641 Y107.495 F7200
G1 X121.355 Y113.209 E99.12146 F1200
G0 Y114.024 F7200
G1 X115.244 Y107.912 E99.43189 F1200
G0 X114.831 Y108.314 F7200
G1 X121.355 Y114.839 E99.76333 F1200
G0 Y115.653 F7200
G1 X114.417 Y108.715 E100.11575 F1200
G0 X113.955 Y109.068 F7200
G1 X121.355 Y116.468 E100.49166 F1200
G0 Y117.282 F7200
G1 X113.487 Y109.414 E100.89136 F1200
G0 X113.014 Y109.755 F7200
G1 X121.355 Y118.097 E101.31508 F1200
G0 Y118.912 F7200
G1 X112.489 Y110.045 E101.76549 F1200
G0 X111.964 Y110.335 F7200
G1 X121.355 Y119.726 E102.24252 F1200
G0 Y120.541 F7200
G1 X111.416 Y110.602 E102.74739 F1200
G0 X110.830 Y110.830 F7200
G1 X120.843 Y120.843 E103.25603 F1200
G0 X120.029 F7200
G1 X110.244 Y111.058 E103.75311 F1200
G0 X109.600 Y111.229 F7200
G1 X119.214 Y120.843 E104.24149 F1200
G0 X118.400 F7200
G1 X108.943 Y111.387 E104.72186 F1200
G0 X108.259 Y111.517 F7200
G1 X117.585 Y120.843 E105.19558 F1200
G0 X116.770 F7200
G1 X107.534 Y111.607 E105.66475 F1200
G0 X106.738 Y111.625 F7200
G1 X115.956 Y120.843 E106.13301 F1200
G0 X115.141 F7200
G1 X105.935 Y111.638 E106.60063 F1200
G0 X105.042 Y111.559 F7200
G1 X114.327 Y120.843 E107.07227 F1200
G0 X113.512 F7200
G1 X104.045 Y111.376 E107.55318 F1200
G0 X102.971 Y111.117 F7200
G1 X112.697 Y120.843 E108.04724 F1200
G0 X111.883 F7200
G1 X101.708 Y110.668 E108.56411 F1200
G0 X99.958 Y109.733 F7200
G1 X111.068 Y120.843 E109.12846 F1200
G0 X110.254 F7200
G1 X91.643 Y102.232 E110.07386 F1200
G0 Y101.418 F7200
G1 X96.264 Y106.039 E110.30861 F1200
G0 X95.368 Y104.328 F7200
G1 X91.643 Y100.603 E110.49780 F1200
G0 Y99.789 F7200
G1 X94.874 Y103.020 E110.66193 F1200
G0 X94.604 Y101.935 F7200
G1 X91.643 Y98.974 E110.81233 F1200
G0 Y98.159 F7200
G1 X94.451 Y100.968 E110.95497 F1200
G0 X94.382 Y100.084 F7200
G1 X91.643 Y97.345 E111.09409 F1200
G0 Y96.530 F7200
G1 X94.361 Y99.249 E111.23217 F1200
G0 X94.408 Y98.481 F7200
G1 X91.643 Y95.716 E111.37262 F1200
G0 Y94.901 F7200
G1 X94.488 Y97.746 E111.51713 F1200
G0 X94.609 Y97.053 F7200
G1 X91.643 Y94.086 E111.66782 F1200
G0 Y93.272 F7200
G1 X94.772 Y96.401 E111.82677 F1200
G0 X94.940 Y95.754 F7200
G1 X91.643 Y92.457 E111.99423 F1200
G0 Y91.643 F7200
G1 X95.170 Y95.170 E112.17337 F1200
G0 X95.400 Y94.585 F7200
G1 X91.643 Y90.828 E112.36422 F1200
G0 Y90.013 F7200
G1 X95.655 Y94.026 E112.56804 F1200
G0 X95.938 Y93.494 F7200
G1 X91.643 Y89.199 E112.78622 F1200
G0 X92.413 Y89.155 F7200
G1 X96.253 Y92.995 E112.98127 F1200
G0 X96.584 Y92.511 F7200
G1 X93.228 Y89.155 E113.15175 F1200
G0 X94.043 F7200
G1 X96.915 Y92.027 E113.29763 F1200
G0 X97.297 Y91.595 F7200
G1 X94.857 Y89.155 E113.42155 F1200
G0 X95.672 F7200
G1 X97.682 Y91.165 E113.52364 F1200
G0 X98.072 Y90.741 F7200
G1 X96.486 Y89.155 E113.60417 F1200
G0 X97.301 F7200
G1 X98.504 Y90.358 E113.66528 F1200
G0 X98.946 Y89.986 F7200
G1 X98.116 Y89.155 E113.70745 F1200
G0 X98.930 F7200
G1 X99.422 Y89.647 E113.73241 F1200
G0 X105.580 Y88.374 F7200
G1 X105.675 Y88.281 E113.73575 F1200
G1 X105.688 Y88.266 E113.73635 F1200
G1 X106.361 Y88.250 E113.75771 F1200
G1 X106.386 E113.75848 F1200
G1 X107.314 Y88.276 E113.78846 F1200
G1 X107.451 Y88.162 E113.79322 F1200
G1 F1500 E105.79322
G0 X91.643 Y103.047 F7200
G1 F1500 E113.79322
G1 X109.439 Y120.843 E114.69724 F1200
G0 X108.625 F7200
G1 X91.643 Y103.861 E115.55992 F1200
G0 Y104.676 F7200
G1 X107.810 Y120.843 E116.38118 F1200
G0 X106.995 F7200
G1 X91.643 Y105.491 E117.16106 F1200
G0 Y106.306 F7200
G1 X106.180 Y120.843 E117.89952 F1200
G0 X105.365 F7200
G1 X91.643 Y107.121 E118.59657 F1200
G0 Y107.935 F7200
G1 X104.551 Y120.843 E119.25227 F1200
G0 X103.736 F7200
G1 X91.643 Y108.750 E119.86659 F1200
G0 Y109.564 F7200
G1 X102.922 Y120.843 E120.43953 F1200
G0 X102.107 F7200
G1 X91.643 Y110.379 E120.97109 F1200
G0 Y111.193 F7200
G1 X101.293 Y120.843 E121.46130 F1200
G0 X100.478 F7200
G1 X91.643 Y112.008 E121.91010 F1200
G0 Y112.823 F7200
G1 X99.663 Y120.843 E122.31748 F1200
G0 X98.849 F7200
G1 X91.643 Y113.637 E122.68351 F1200
G0 Y114.452 F7200
G1 X98.034 Y120.843 E123.00817 F1200
G0 X97.220 F7200
G1 X91.643 Y115.266 E123.29147 F1200
G0 Y116.081 F7200
G1 X96.405 Y120.843 E123.53337 F1200
G0 X95.590 F7200
G1 X91.643 Y116.896 E123.73384 F1200
G0 Y117.710 F7200
G1 X94.776 Y120.843 E123.89297 F1200
G0 X93.961 F7200
G1 X91.643 Y118.525 E124.01072 F1200
G0 Y119.339 F7200
G1 X93.147 Y120.843 E124.08709 F1200
G0 X92.332 F7200
G1 X91.643 Y120.154 E124.12207 F1200
; Inset XP 
G1 F1500 E116.12207
G0 X163.645 Y88.868 F7200
G1 F1500 E124.12207
G1 X163.637 Y93.333 E124.28246 F1200
G1 Y116.667 E125.12064 F1200
G1 X163.645 Y121.132 E125.28103 F1200
G1 X133.355 E126.36907 F1200
G1 X133.363 Y116.667 E126.52946 F1200
G1 Y93.333 E127.36764 F1200
G1 X133.355 Y88.868 E127.52803 F1200
G1 X143.229 E127.88271 F1200
G1 X142.776 Y89.105 E127.90107 F1200
G1 X142.318 Y89.369 E127.92003 F1200
G1 X141.871 Y89.656 E127.93911 F1200
G1 X141.437 Y89.963 E127.95818 F1200
G1 X141.025 Y90.283 E127.97689 F1200
G1 X140.625 Y90.621 E127.99568 F1200
G1 X140.232 Y90.987 E128.01497 F1200
G1 X139.864 Y91.362 E128.03383 F1200
G1 X139.507 Y91.756 E128.05290 F1200
G1 X139.171 Y92.164 E128.07187 F1200
G1 X138.851 Y92.590 E128.09098 F1200
G1 X138.557 Y93.022 E128.10973 F1200
G1 X138.281 Y93.464 E128.12844 F1200
G1 X138.019 Y93.933 E128.14773 F1200
G1 X137.780 Y94.406 E128.16674 F1200
G1 X137.563 Y94.891 E128.18581 F1200
G1 X137.371 Y95.380 E128.20467 F1200
G1 X137.200 Y95.874 E128.22342 F1200
G1 X137.049 Y96.387 E128.24260 F1200
G1 X136.921 Y96.898 E128.26150 F1200
G1 X136.814 Y97.421 E128.28064 F1200
G1 X136.735 Y97.945 E128.29964 F1200
G1 X136.679 Y98.463 E128.31836 F1200
G1 X136.642 Y98.988 E128.33725 F1200
G1 X136.632 Y99.515 E128.35618 F1200
G1 X136.645 Y100.054 E128.37554 F1200
G1 X136.682 Y100.581 E128.39451 F1200
G1 X136.741 Y101.104 E128.41341 F1200
G1 X136.823 Y101.622 E128.43223 F1200
G1 X136.923 Y102.110 E128.45012 F1200
G1 X137.060 Y102.658 E128.47038 F1200
G1 X137.212 Y103.167 E128.48945 F1200
G1 X137.386 Y103.663 E128.50831 F1200
G1 X137.580 Y104.147 E128.52702 F1200
G1 X137.802 Y104.638 E128.54635 F1200
G1 X138.041 Y105.108 E128.56528 F1200
G1 X138.300 Y105.567 E128.58421 F1200
G1 X138.582 Y106.020 E128.60336 F1200
G1 X138.885 Y106.456 E128.62239 F1200
G1 X139.200 Y106.871 E128.64111 F1200
G1 X139.534 Y107.277 E128.65997 F1200
G1 X139.894 Y107.671 E128.67911 F1200
G1 X140.267 Y108.047 E128.69811 F1200
G1 X140.657 Y108.406 E128.71715 F1200
G1 X141.061 Y108.746 E128.73612 F1200
G1 X141.483 Y109.070 E128.75523 F1200
G1 X141.913 Y109.371 E128.77405 F1200
G1 X142.357 Y109.653 E128.79291 F1200
G1 X142.811 Y109.916 E128.81173 F1200
G1 X143.286 Y110.161 E128.83091 F1200
G1 X143.770 Y110.386 E128.85006 F1200
G1 X144.257 Y110.583 E128.86892 F1200
G1 X144.750 Y110.759 E128.88771 F1200
G1 X145.260 Y110.916 E128.90685 F1200
G1 X145.770 Y111.048 E128.92575 F1200
G1 X146.292 Y111.161 E128.94493 F1200
G1 X146.812 Y111.247 E128.96386 F1200
G1 X147.334 Y111.310 E128.98272 F1200
G1 X147.858 Y111.352 E129.00158 F1200
G1 X148.390 Y111.367 E129.02069 F1200
G1 X148.921 Y111.361 E129.03976 F1200
G1 X149.450 Y111.329 E129.05876 F1200
G1 X149.969 Y111.275 E129.07748 F1200
G1 X150.493 Y111.201 E129.09648 F1200
G1 X151.014 Y111.097 E129.11555 F1200
G1 X151.530 Y110.975 E129.13459 F1200
G1 X152.044 Y110.828 E129.15377 F1200
G1 X152.539 Y110.659 E129.17256 F1200
G1 X153.025 Y110.472 E129.19124 F1200
G1 X153.517 Y110.255 E129.21053 F1200
G1 X153.993 Y110.020 E129.22957 F1200
G1 X154.455 Y109.765 E129.24850 F1200
G1 X154.906 Y109.489 E129.26746 F1200
G1 X155.347 Y109.194 E129.28650 F1200
G1 X155.762 Y108.886 E129.30504 F1200
G1 X156.181 Y108.547 E129.32436 F1200
G1 X156.571 Y108.201 E129.34308 F1200
G1 X156.954 Y107.828 E129.36226 F1200
G1 X157.318 Y107.442 E129.38130 F1200
G1 X157.662 Y107.041 E129.40026 F1200
G1 X157.989 Y106.627 E129.41919 F1200
G1 X158.294 Y106.203 E129.43794 F1200
G1 X158.585 Y105.754 E129.45716 F1200
G1 X158.851 Y105.305 E129.47588 F1200
G1 X159.103 Y104.832 E129.49509 F1200
G1 X159.330 Y104.353 E129.51413 F1200
G1 X159.536 Y103.865 E129.53313 F1200
G1 X159.718 Y103.373 E129.55196 F1200
G1 X159.880 Y102.873 E129.57081 F1200
G1 X160.020 Y102.355 E129.59007 F1200
G1 X160.134 Y101.841 E129.60896 F1200
G1 X160.230 Y101.316 E129.62811 F1200
G1 X160.296 Y100.800 E129.64679 F1200
G1 X160.345 Y100.275 E129.66572 F1200
G1 X160.365 Y99.776 E129.68364 F1200
G1 Y99.216 E129.70376 F1200
G1 X160.342 Y98.677 E129.72312 F1200
G1 X160.290 Y98.159 E129.74180 F1200
G1 X160.220 Y97.634 E129.76080 F1200
G1 X160.128 Y97.123 E129.77944 F1200
G1 X160.009 Y96.598 E129.79877 F1200
G1 X159.868 Y96.086 E129.81784 F1200
G1 X159.703 Y95.581 E129.83692 F1200
G1 X159.517 Y95.091 E129.85574 F1200
G1 X159.315 Y94.612 E129.87438 F1200
G1 X159.081 Y94.124 E129.89382 F1200
G1 X158.833 Y93.660 E129.91271 F1200
G1 X158.562 Y93.205 E129.93171 F1200
G1 X158.270 Y92.761 E129.95079 F1200
G1 X157.965 Y92.341 E129.96943 F1200
G1 X157.632 Y91.922 E129.98865 F1200
G1 X157.291 Y91.528 E130.00736 F1200
G1 X156.921 Y91.139 E130.02662 F1200
G1 X156.542 Y90.772 E130.04555 F1200
G1 X156.144 Y90.421 E130.06458 F1200
G1 X155.732 Y90.089 E130.08359 F1200
G1 X155.312 Y89.781 E130.10226 F1200
G1 X154.867 Y89.486 E130.12141 F1200
G1 X154.423 Y89.217 E130.14005 F1200
G1 X153.948 Y88.955 E130.15952 F1200
G1 X153.769 Y88.868 E130.16667 F1200
G1 X163.645 E130.52143 F1200
G0 X164.221 Y88.292 F7200
G1 X164.213 Y93.333 E130.70250 F1200
G1 Y116.667 E131.54068 F1200
G1 X164.221 Y121.708 E131.72176 F1200
G1 X132.779 E132.85119 F1200
G1 X132.787 Y116.667 E133.03226 F1200
G1 Y93.333 E133.87044 F1200
G1 X132.779 Y88.292 E134.05152 F1200
G1 X147.145 E134.56756 F1200
G1 X146.862 Y88.329 E134.57780 F1200
G1 X146.372 Y88.410 E134.59562 F1200
G1 X145.870 Y88.519 E134.61404 F1200
G1 X145.386 Y88.647 E134.63200 F1200
G1 X144.904 Y88.795 E134.65011 F1200
G1 X144.431 Y88.967 E134.66818 F1200
G1 X143.973 Y89.154 E134.68592 F1200
G1 X143.510 Y89.370 E134.70424 F1200
G1 X143.064 Y89.603 E134.72231 F1200
G1 X142.628 Y89.855 E134.74038 F1200
G1 X142.203 Y90.126 E134.75848 F1200
G1 X141.791 Y90.417 E134.77659 F1200
G1 X141.397 Y90.723 E134.79447 F1200
G1 X141.017 Y91.043 E134.81229 F1200
G1 X140.642 Y91.391 E134.83065 F1200
G1 X140.290 Y91.748 E134.84864 F1200
G1 X139.951 Y92.122 E134.86675 F1200
G1 X139.631 Y92.510 E134.88478 F1200
G1 X139.327 Y92.914 E134.90292 F1200
G1 X139.045 Y93.327 E134.92088 F1200
G1 X138.783 Y93.746 E134.93862 F1200
G1 X138.533 Y94.193 E134.95702 F1200
G1 X138.306 Y94.642 E134.97508 F1200
G1 X138.099 Y95.103 E134.99322 F1200
G1 X137.915 Y95.569 E135.01122 F1200
G1 X137.752 Y96.038 E135.02904 F1200
G1 X137.607 Y96.527 E135.04736 F1200
G1 X137.485 Y97.014 E135.06539 F1200
G1 X137.384 Y97.508 E135.08349 F1200
G1 X137.307 Y98.007 E135.10160 F1200
G1 X137.253 Y98.503 E135.11949 F1200
G1 X137.218 Y99 E135.13738 F1200
G1 X137.208 Y99.502 E135.15541 F1200
G1 X137.219 Y100.014 E135.17380 F1200
G1 X137.254 Y100.517 E135.19190 F1200
G1 X137.310 Y101.014 E135.20986 F1200
G1 X137.387 Y101.506 E135.22772 F1200
G1 X137.487 Y101.994 E135.24561 F1200
G1 X137.612 Y102.494 E135.26410 F1200
G1 X137.756 Y102.977 E135.28221 F1200
G1 X137.922 Y103.450 E135.30021 F1200
G1 X138.104 Y103.909 E135.31791 F1200
G1 X138.316 Y104.378 E135.33638 F1200
G1 X138.543 Y104.826 E135.35441 F1200
G1 X138.789 Y105.263 E135.37241 F1200
G1 X139.056 Y105.692 E135.39055 F1200
G1 X139.343 Y106.108 E135.40869 F1200
G1 X139.644 Y106.505 E135.42658 F1200
G1 X139.960 Y106.889 E135.44443 F1200
G1 X140.304 Y107.266 E135.46275 F1200
G1 X140.657 Y107.624 E135.48078 F1200
G1 X141.027 Y107.966 E135.49885 F1200
G1 X141.412 Y108.290 E135.51692 F1200
G1 X141.813 Y108.598 E135.53506 F1200
G1 X142.223 Y108.885 E135.55302 F1200
G1 X142.646 Y109.155 E135.57101 F1200
G1 X143.075 Y109.404 E135.58883 F1200
G1 X143.529 Y109.639 E135.60719 F1200
G1 X143.986 Y109.852 E135.62529 F1200
G1 X144.451 Y110.041 E135.64329 F1200
G1 X144.918 Y110.209 E135.66110 F1200
G1 X145.406 Y110.358 E135.67942 F1200
G1 X145.892 Y110.486 E135.69745 F1200
G1 X146.386 Y110.593 E135.71560 F1200
G1 X146.882 Y110.675 E135.73363 F1200
G1 X147.380 Y110.736 E135.75162 F1200
G1 X147.874 Y110.776 E135.76940 F1200
G1 X148.384 Y110.791 E135.78772 F1200
G1 X148.887 Y110.786 E135.80579 F1200
G1 X149.391 Y110.756 E135.82390 F1200
G1 X149.889 Y110.705 E135.84186 F1200
G1 X150.381 Y110.636 E135.85967 F1200
G1 X150.882 Y110.537 E135.87799 F1200
G1 X151.372 Y110.421 E135.89606 F1200
G1 X151.858 Y110.283 E135.91420 F1200
G1 X152.333 Y110.121 E135.93220 F1200
G1 X152.794 Y109.944 E135.94991 F1200
G1 X153.263 Y109.739 E135.96826 F1200
G1 X153.715 Y109.516 E135.98637 F1200
G1 X154.155 Y109.273 E136.00440 F1200
G1 X154.586 Y109.011 E136.02250 F1200
G1 X155.004 Y108.731 E136.04057 F1200
G1 X155.400 Y108.438 E136.05824 F1200
G1 X155.799 Y108.117 E136.07664 F1200
G1 X156.169 Y107.788 E136.09442 F1200
G1 X156.536 Y107.432 E136.11277 F1200
G1 X156.882 Y107.066 E136.13084 F1200
G1 X157.210 Y106.685 E136.14887 F1200
G1 X157.521 Y106.291 E136.16687 F1200
G1 X157.811 Y105.889 E136.18465 F1200
G1 X158.090 Y105.460 E136.20301 F1200
G1 X158.343 Y105.035 E136.22075 F1200
G1 X158.583 Y104.584 E136.23907 F1200
G1 X158.800 Y104.129 E136.25718 F1200
G1 X158.996 Y103.665 E136.27524 F1200
G1 X159.170 Y103.195 E136.29324 F1200
G1 X159.324 Y102.723 E136.31106 F1200
G1 X159.458 Y102.229 E136.32941 F1200
G1 X159.568 Y101.738 E136.34748 F1200
G1 X159.658 Y101.242 E136.36558 F1200
G1 X159.722 Y100.746 E136.38355 F1200
G1 X159.769 Y100.251 E136.40140 F1200
G1 X159.789 Y99.752 E136.41932 F1200
G1 Y99.240 E136.43771 F1200
G1 X159.768 Y98.733 E136.45593 F1200
G1 X159.720 Y98.235 E136.47389 F1200
G1 X159.653 Y97.736 E136.49195 F1200
G1 X159.566 Y97.250 E136.50966 F1200
G1 X159.453 Y96.750 E136.52805 F1200
G1 X159.320 Y96.264 E136.54612 F1200
G1 X159.164 Y95.785 E136.56419 F1200
G1 X158.987 Y95.315 E136.58222 F1200
G1 X158.795 Y94.860 E136.59993 F1200
G1 X158.573 Y94.396 E136.61840 F1200
G1 X158.337 Y93.954 E136.63639 F1200
G1 X158.080 Y93.521 E136.65446 F1200
G1 X157.803 Y93.099 E136.67256 F1200
G1 X157.514 Y92.699 E136.69027 F1200
G1 X157.196 Y92.298 E136.70863 F1200
G1 X156.873 Y91.924 E136.72637 F1200
G1 X156.521 Y91.553 E136.74473 F1200
G1 X156.160 Y91.204 E136.76276 F1200
G1 X155.782 Y90.869 E136.78090 F1200
G1 X155.390 Y90.553 E136.79897 F1200
G1 X154.993 Y90.261 E136.81664 F1200
G1 X154.568 Y89.978 E136.83496 F1200
G1 X154.145 Y89.721 E136.85271 F1200
G1 X153.695 Y89.473 E136.87114 F1200
G1 X153.243 Y89.252 E136.88920 F1200
G1 X152.782 Y89.051 E136.90724 F1200
G1 X152.314 Y88.872 E136.92523 F1200
G1 X151.844 Y88.713 E136.94305 F1200
G1 X151.351 Y88.574 E136.96144 F1200
G1 X150.863 Y88.458 E136.97944 F1200
G1 X150.365 Y88.362 E136.99765 F1200
G1 X149.870 Y88.292 E137.01557 F1200
G1 X164.221 E137.53108 F1200
; Inset 0 
G0 X159.249 Y99.257 F7200
G1 X159.229 Y98.778 E137.54613 F1200
G1 X159.184 Y98.301 E137.56119 F1200
G1 X159.121 Y97.826 E137.57624 F1200
G1 X159.038 Y97.363 E137.59101 F1200
G1 X158.930 Y96.887 E137.60635 F1200
G1 X158.804 Y96.425 E137.62138 F1200
G1 X158.656 Y95.969 E137.63643 F1200
G1 X158.488 Y95.520 E137.65149 F1200
G1 X158.305 Y95.087 E137.66626 F1200
G1 X158.094 Y94.646 E137.68160 F1200
G1 X157.869 Y94.225 E137.69659 F1200
G1 X157.625 Y93.812 E137.71165 F1200
G1 X157.362 Y93.411 E137.72670 F1200
G1 X157.087 Y93.030 E137.74144 F1200
G1 X156.784 Y92.647 E137.75678 F1200
G1 X156.477 Y92.291 E137.77155 F1200
G1 X156.142 Y91.937 E137.78686 F1200
G1 X155.798 Y91.604 E137.80188 F1200
G1 X155.439 Y91.286 E137.81694 F1200
G1 X155.065 Y90.985 E137.83203 F1200
G1 X154.688 Y90.707 E137.84674 F1200
G1 X154.282 Y90.436 E137.86207 F1200
G1 X153.880 Y90.191 E137.87685 F1200
G1 X153.452 Y89.956 E137.89218 F1200
G1 X153.022 Y89.745 E137.90721 F1200
G1 X152.583 Y89.553 E137.92226 F1200
G1 X152.136 Y89.382 E137.93729 F1200
G1 X151.690 Y89.231 E137.95206 F1200
G1 X151.221 Y89.098 E137.96737 F1200
G1 X150.755 Y88.987 E137.98242 F1200
G1 X150.283 Y88.896 E137.99751 F1200
G1 X149.810 Y88.829 E138.01250 F1200
G1 X149.342 Y88.781 E138.02727 F1200
G1 X148.855 Y88.754 E138.04258 F1200
G1 X148.376 Y88.749 E138.05764 F1200
G1 X147.897 Y88.764 E138.07269 F1200
G1 X147.419 Y88.802 E138.08775 F1200
G1 X146.945 Y88.862 E138.10274 F1200
G1 X146.480 Y88.939 E138.11754 F1200
G1 X146.003 Y89.042 E138.13285 F1200
G1 X145.540 Y89.164 E138.14787 F1200
G1 X145.082 Y89.305 E138.16293 F1200
G1 X144.631 Y89.469 E138.17798 F1200
G1 X144.196 Y89.646 E138.19273 F1200
G1 X143.754 Y89.852 E138.20803 F1200
G1 X143.329 Y90.073 E138.22309 F1200
G1 X142.914 Y90.313 E138.23814 F1200
G1 X142.509 Y90.571 E138.25323 F1200
G1 X142.118 Y90.847 E138.26825 F1200
G1 X141.740 Y91.140 E138.28328 F1200
G1 X141.380 Y91.443 E138.29805 F1200
G1 X141.022 Y91.774 E138.31336 F1200
G1 X140.686 Y92.115 E138.32838 F1200
G1 X140.364 Y92.470 E138.34344 F1200
G1 X140.059 Y92.840 E138.35849 F1200
G1 X139.770 Y93.223 E138.37355 F1200
G1 X139.500 Y93.618 E138.38857 F1200
G1 X139.251 Y94.016 E138.40331 F1200
G1 X139.012 Y94.442 E138.41865 F1200
G1 X138.796 Y94.869 E138.43367 F1200
G1 X138.599 Y95.307 E138.44876 F1200
G1 X138.423 Y95.752 E138.46379 F1200
G1 X138.268 Y96.197 E138.47859 F1200
G1 X138.129 Y96.664 E138.49390 F1200
G1 X138.013 Y97.128 E138.50892 F1200
G1 X137.917 Y97.597 E138.52394 F1200
G1 X137.843 Y98.071 E138.53900 F1200
G1 X137.791 Y98.546 E138.55399 F1200
G1 X137.758 Y99.017 E138.56883 F1200
G1 X137.748 Y99.496 E138.58388 F1200
G1 X137.758 Y99.983 E138.59919 F1200
G1 X137.791 Y100.462 E138.61428 F1200
G1 X137.845 Y100.937 E138.62930 F1200
G1 X137.917 Y101.403 E138.64410 F1200
G1 X138.015 Y101.880 E138.65938 F1200
G1 X138.131 Y102.345 E138.67443 F1200
G1 X138.268 Y102.804 E138.68949 F1200
G1 X138.426 Y103.256 E138.70451 F1200
G1 X138.599 Y103.693 E138.71926 F1200
G1 X138.800 Y104.139 E138.73462 F1200
G1 X139.016 Y104.566 E138.74965 F1200
G1 X139.251 Y104.983 E138.76467 F1200
G1 X139.504 Y105.390 E138.77973 F1200
G1 X139.777 Y105.786 E138.79481 F1200
G1 X140.065 Y106.166 E138.80978 F1200
G1 X140.364 Y106.530 E138.82458 F1200
G1 X140.692 Y106.891 E138.83989 F1200
G1 X141.028 Y107.232 E138.85491 F1200
G1 X141.380 Y107.557 E138.86997 F1200
G1 X141.746 Y107.866 E138.88499 F1200
G1 X142.127 Y108.159 E138.90008 F1200
G1 X142.518 Y108.433 E138.91507 F1200
G1 X142.922 Y108.691 E138.93012 F1200
G1 X143.329 Y108.927 E138.94490 F1200
G1 X143.762 Y109.152 E138.96020 F1200
G1 X144.196 Y109.354 E138.97523 F1200
G1 X144.639 Y109.535 E138.99025 F1200
G1 X145.082 Y109.695 E139.00506 F1200
G1 X145.548 Y109.838 E139.02036 F1200
G1 X146.012 Y109.960 E139.03542 F1200
G1 X146.480 Y110.061 E139.05044 F1200
G1 X146.953 Y110.140 E139.06550 F1200
G1 X147.428 Y110.198 E139.08052 F1200
G1 X147.897 Y110.236 E139.09529 F1200
G1 X148.384 Y110.251 E139.11060 F1200
G1 X148.863 Y110.246 E139.12566 F1200
G1 X149.342 Y110.219 E139.14071 F1200
G1 X149.818 Y110.170 E139.15574 F1200
G1 X150.284 Y110.104 E139.17051 F1200
G1 X150.763 Y110.011 E139.18581 F1200
G1 X151.229 Y109.900 E139.20087 F1200
G1 X151.690 Y109.769 E139.21593 F1200
G1 X152.144 Y109.615 E139.23098 F1200
G1 X152.583 Y109.447 E139.24575 F1200
G1 X153.030 Y109.251 E139.26109 F1200
G1 X153.460 Y109.040 E139.27612 F1200
G1 X153.880 Y108.809 E139.29117 F1200
G1 X154.290 Y108.560 E139.30623 F1200
G1 X154.688 Y108.293 E139.32128 F1200
G1 X155.065 Y108.014 E139.33602 F1200
G1 X155.445 Y107.708 E139.35133 F1200
G1 X155.798 Y107.396 E139.36613 F1200
G1 X156.148 Y107.057 E139.38144 F1200
G1 X156.477 Y106.709 E139.39646 F1200
G1 X156.790 Y106.346 E139.41152 F1200
G1 X157.087 Y105.970 E139.42657 F1200
G1 X157.362 Y105.589 E139.44132 F1200
G1 X157.629 Y105.180 E139.45665 F1200
G1 X157.869 Y104.776 E139.47139 F1200
G1 X158.098 Y104.346 E139.48670 F1200
G1 X158.305 Y103.913 E139.50176 F1200
G1 X158.492 Y103.472 E139.51681 F1200
G1 X158.658 Y103.023 E139.53184 F1200
G1 X158.804 Y102.575 E139.54664 F1200
G1 X158.932 Y102.105 E139.56195 F1200
G1 X159.038 Y101.637 E139.57700 F1200
G1 X159.123 Y101.166 E139.59203 F1200
G1 X159.185 Y100.691 E139.60708 F1200
G1 X159.229 Y100.222 E139.62189 F1200
G1 X159.249 Y99.735 E139.63719 F1200
G1 Y99.257 E139.65222 F1200
G0 X164.761 Y87.752 F7200
G1 X164.753 Y93.333 E139.82763 F1200
G1 Y116.667 E140.56104 F1200
G1 X164.761 Y122.248 E140.73645 F1200
G1 X132.239 E141.75865 F1200
G1 X132.247 Y116.667 E141.93406 F1200
G1 Y93.333 E142.66747 F1200
G1 X132.239 Y87.752 E142.84289 F1200
G1 X164.761 E143.86508 F1200
; Solid infill 
G0 X163.355 Y90.042 F7200
G1 X162.468 Y89.155 E143.91012 F1200
G0 X161.653 F7200
G1 X163.355 Y90.856 E143.99655 F1200
G0 Y91.671 F7200
G1 X160.839 Y89.155 E144.12436 F1200
G0 X160.024 F7200
G1 X163.355 Y92.486 E144.29354 F1200
G0 Y93.300 F7200
G1 X159.210 Y89.155 E144.50408 F1200
G0 X158.395 F7200
G1 X163.355 Y94.115 E144.75603 F1200
G0 Y94.929 F7200
G1 X157.580 Y89.155 E145.04936 F1200
G0 X156.766 F7200
G1 X163.355 Y95.744 E145.38407 F1200
G0 Y96.558 F7200
G1 X155.951 Y89.155 E145.76016 F1200
G0 X158.203 Y92.222 F7200
G1 X163.355 Y97.373 E146.02184 F1200
G0 Y98.188 F7200
G1 X159.482 Y94.315 E146.21858 F1200
G0 X160.014 Y95.662 F7200
G1 X163.355 Y99.002 E146.38827 F1200
G0 Y99.817 F7200
G1 X160.345 Y96.807 E146.54115 F1200
G0 X160.509 Y97.786 F7200
G1 X163.355 Y100.631 E146.68570 F1200
G0 Y101.446 F7200
G1 X160.629 Y98.721 E146.82414 F1200
G0 X160.646 Y99.552 F7200
G1 X163.355 Y102.261 E146.96175 F1200
G0 Y103.075 F7200
G1 X160.605 Y100.325 E147.10145 F1200
G0 X160.539 Y101.074 F7200
G1 X163.355 Y103.890 E147.24449 F1200
G0 Y104.704 F7200
G1 X160.429 Y101.778 E147.39309 F1200
G0 X160.289 Y102.453 F7200
G1 X163.355 Y105.519 E147.54881 F1200
G0 Y106.334 F7200
G1 X160.103 Y103.082 E147.71401 F1200
G0 X159.895 Y103.688 F7200
G1 X163.355 Y107.148 E147.88977 F1200
G0 Y107.963 F7200
G1 X159.654 Y104.262 E148.07778 F1200
G0 X159.412 Y104.835 F7200
G1 X163.355 Y108.777 E148.27804 F1200
G0 Y109.592 F7200
G1 X159.123 Y105.361 E148.49299 F1200
G0 X158.821 Y105.873 F7200
G1 X163.355 Y110.406 E148.72328 F1200
G0 Y111.221 F7200
G1 X158.517 Y106.383 E148.96901 F1200
G0 X158.158 Y106.839 F7200
G1 X163.355 Y112.036 E149.23300 F1200
G0 Y112.850 F7200
G1 X157.800 Y107.295 E149.51516 F1200
G0 X157.426 Y107.736 F7200
G1 X163.355 Y113.665 E149.81632 F1200
G0 Y114.479 F7200
G1 X157.013 Y108.137 E150.13846 F1200
G0 X156.600 Y108.539 F7200
G1 X163.355 Y115.294 E150.48161 F1200
G0 Y116.109 F7200
G1 X156.162 Y108.916 E150.84700 F1200
G0 X155.694 Y109.262 F7200
G1 X163.355 Y116.923 E151.23616 F1200
G0 Y117.738 F7200
G1 X155.226 Y109.609 E151.64911 F1200
G0 X154.720 Y109.918 F7200
G1 X163.355 Y118.552 E152.08774 F1200
G0 Y119.367 F7200
G1 X154.195 Y110.207 E152.55306 F1200
G0 X153.670 Y110.497 F7200
G1 X163.355 Y120.181 E153.04500 F1200
G0 X163.202 Y120.843 F7200
G1 X153.088 Y110.730 E153.55874 F1200
G0 X152.502 Y110.958 F7200
G1 X162.387 Y120.843 E154.06088 F1200
G0 X161.573 F7200
G1 X151.890 Y111.160 E154.55275 F1200
G0 X151.233 Y111.318 F7200
G1 X160.758 Y120.843 E155.03660 F1200
G0 X159.944 F7200
G1 X150.576 Y111.476 E155.51245 F1200
G0 X149.853 Y111.568 F7200
G1 X159.129 Y120.843 E155.98362 F1200
G0 X158.314 F7200
G1 X149.091 Y111.620 E156.45214 F1200
G0 X148.289 Y111.633 F7200
G1 X157.500 Y120.843 E156.92001 F1200
G0 X156.685 F7200
G1 X147.441 Y111.599 E157.38957 F1200
G0 X146.501 Y111.473 F7200
G1 X155.871 Y120.843 E157.86555 F1200
G0 X155.056 F7200
G1 X145.466 Y111.254 E158.35268 F1200
G0 X144.265 Y110.867 F7200
G1 X154.241 Y120.843 E158.85945 F1200
G0 X153.427 F7200
G1 X142.828 Y110.245 E159.39783 F1200
G0 X137.793 Y105.209 F7200
G1 X133.643 Y101.059 E159.60862 F1200
G0 Y100.245 F7200
G1 X137.127 Y103.729 E159.78560 F1200
G0 X136.739 Y102.526 F7200
G1 X133.643 Y99.430 E159.94286 F1200
G0 Y98.615 F7200
G1 X136.536 Y101.509 E160.08985 F1200
G0 X136.393 Y100.551 F7200
G1 X133.643 Y97.801 E160.22955 F1200
G0 Y96.986 F7200
G1 X136.372 Y99.716 E160.36820 F1200
G0 X136.364 Y98.893 F7200
G1 X133.643 Y96.172 E160.50643 F1200
G0 Y95.357 F7200
G1 X136.444 Y98.158 E160.64871 F1200
G0 X136.523 Y97.423 F7200
G1 X133.643 Y94.543 E160.79498 F1200
G0 Y93.728 F7200
G1 X136.680 Y96.766 E160.94926 F1200
G0 X136.843 Y96.114 F7200
G1 X133.643 Y92.913 E161.11184 F1200
G0 Y92.099 F7200
G1 X137.040 Y95.496 E161.28440 F1200
G0 X137.270 Y94.912 F7200
G1 X133.643 Y91.284 E161.46868 F1200
G0 Y90.470 F7200
G1 X137.501 Y94.328 E161.66466 F1200
G0 X137.779 Y93.792 F7200
G1 X133.643 Y89.655 E161.87476 F1200
G0 X133.958 Y89.156 F7200
G1 X138.068 Y93.266 E162.08354 F1200
G0 X138.399 Y92.783 F7200
G1 X134.773 Y89.156 E162.26774 F1200
G0 X135.587 F7200
G1 X138.730 Y92.298 E162.42737 F1200
G0 X139.080 Y91.834 F7200
G1 X136.402 Y89.156 E162.56340 F1200
G0 X137.216 F7200
G1 X139.466 Y91.405 E162.67767 F1200
G0 X139.852 Y90.977 F7200
G1 X138.031 Y89.156 E162.77016 F1200
G0 X138.846 F7200
G1 X140.263 Y90.573 E162.84211 F1200
G0 X140.694 Y90.190 F7200
G1 X139.660 Y89.156 E162.89463 F1200
G0 X140.475 F7200
G1 X141.156 Y89.837 E162.92922 F1200
G0 X147.580 Y88.374 F7200
G1 X147.675 Y88.281 E162.93256 F1200
G1 X147.688 Y88.266 E162.93316 F1200
G1 X148.361 Y88.250 E162.95452 F1200
G1 X148.386 E162.95529 F1200
G1 X149.314 Y88.276 E162.98527 F1200
G1 X149.451 Y88.162 E162.99003 F1200
G1 F1500 E154.99003
G0 X133.643 Y101.874 F7200
G1 F1500 E162.99003
G1 X152.612 Y120.843 E163.95365 F1200
G0 X151.798 F7200
G1 X133.643 Y102.688 E164.87592 F1200
G0 Y103.503 F7200
G1 X150.983 Y120.843 E165.75677 F1200
G0 X150.168 F7200
G1 X133.643 Y104.318 E166.59621 F1200
G0 Y105.132 F7200
G1 X149.354 Y120.843 E167.39430 F1200
G0 X148.539 F7200
G1 X133.643 Y105.947 E168.15101 F1200
G0 Y106.761 F7200
G1 X147.725 Y120.844 E168.86637 F1200
G0 X146.911 F7200
G1 X133.643 Y107.576 E169.54036 F1200
G0 Y108.390 F7200
G1 X146.096 Y120.844 E170.17296 F1200
G0 X145.282 F7200
G1 X133.643 Y109.205 E170.76422 F1200
G0 Y110.020 F7200
G1 X144.467 Y120.844 E171.31406 F1200
G0 X143.652 F7200
G1 X133.643 Y110.834 E171.82252 F1200
G0 Y111.649 F7200
G1 X142.838 Y120.844 E172.28961 F1200
G0 X142.023 F7200
G1 X133.643 Y112.463 E172.71530 F1200
G0 Y113.278 F7200
G1 X141.209 Y120.844 E173.09962 F1200
G0 X140.394 F7200
G1 X133.643 Y114.093 E173.44256 F1200
G0 Y114.907 F7200
G1 X139.580 Y120.844 E173.74415 F1200
G0 X138.765 F7200
G1 X133.643 Y115.722 E174.00433 F1200
G0 Y116.536 F7200
G1 X137.950 Y120.844 E174.22312 F1200
G0 X137.136 F7200
G1 X133.643 Y117.351 E174.40054 F1200
G0 Y118.166 F7200
G1 X136.321 Y120.844 E174.53657 F1200
G0 X135.507 F7200
G1 X133.643 Y118.980 E174.63126 F1200
G0 Y119.795 F7200
G1 X134.692 Y120.844 E174.68453 F1200
; Inset XP 
G1 F1500 E166.68453
G0 X163.645 Y49.868 F7200
G1 F1500 E174.68453
G1 X163.637 Y54.333 E174.84491 F1200
G1 Y77.667 E175.68309 F1200
G1 X163.645 Y82.132 E175.84348 F1200
G1 X133.355 E176.93153 F1200
G1 X133.363 Y77.667 E177.09191 F1200
G1 Y54.333 E177.93009 F1200
G1 X133.355 Y49.868 E178.09048 F1200
G1 X143.229 E178.44516 F1200
G1 X142.776 Y50.105 E178.46352 F1200
G1 X142.318 Y50.369 E178.48248 F1200
G1 X141.871 Y50.656 E178.50156 F1200
G1 X141.437 Y50.963 E178.52063 F1200
G1 X141.025 Y51.283 E178.53935 F1200
G1 X140.625 Y51.621 E178.55813 F1200
G1 X140.232 Y51.987 E178.57742 F1200
G1 X139.864 Y52.362 E178.59628 F1200
G1 X139.507 Y52.756 E178.61536 F1200
G1 X139.171 Y53.164 E178.63432 F1200
G1 X138.851 Y53.590 E178.65343 F1200
G1 X138.557 Y54.022 E178.67218 F1200
G1 X138.281 Y54.464 E178.69090 F1200
G1 X138.019 Y54.933 E178.71019 F1200
G1 X137.780 Y55.406 E178.72919 F1200
G1 X137.563 Y55.891 E178.74826 F1200
G1 X137.371 Y56.380 E178.76712 F1200
G1 X137.200 Y56.874 E178.78587 F1200
G1 X137.049 Y57.387 E178.80505 F1200
G1 X136.921 Y57.898 E178.82395 F1200
G1 X136.814 Y58.421 E178.84309 F1200
G1 X136.735 Y58.945 E178.86210 F1200
G1 X136.679 Y59.463 E178.88081 F1200
G1 X136.642 Y59.988 E178.89971 F1200
G1 X136.632 Y60.515 E178.91864 F1200
G1 X136.645 Y61.054 E178.93800 F1200
G1 X136.682 Y61.581 E178.95696 F1200
G1 X136.741 Y62.104 E178.97586 F1200
G1 X136.823 Y62.622 E178.99468 F1200
G1 X136.923 Y63.110 E179.01257 F1200
G1 X137.060 Y63.658 E179.03283 F1200
G1 X137.212 Y64.167 E179.05190 F1200
G1 X137.387 Y64.663 E179.07076 F1200
G1 X137.581 Y65.148 E179.08951 F1200
G1 X137.802 Y65.637 E179.10877 F1200
G1 X138.041 Y66.108 E179.12773 F1200
G1 X138.300 Y66.567 E179.14666 F1200
G1 X138.582 Y67.020 E179.16581 F1200
G1 X138.885 Y67.456 E179.18485 F1200
G1 X139.200 Y67.871 E179.20356 F1200
G1 X139.534 Y68.277 E179.22242 F1200
G1 X139.894 Y68.671 E179.24157 F1200
G1 X140.267 Y69.047 E179.26057 F1200
G1 X140.657 Y69.406 E179.27961 F1200
G1 X141.061 Y69.746 E179.29857 F1200
G1 X141.483 Y70.070 E179.31768 F1200
G1 X141.913 Y70.371 E179.33650 F1200
G1 X142.357 Y70.653 E179.35536 F1200
G1 X142.811 Y70.916 E179.37419 F1200
G1 X143.286 Y71.161 E179.39337 F1200
G1 X143.770 Y71.386 E179.41251 F1200
G1 X144.257 Y71.583 E179.43137 F1200
G1 X144.750 Y71.759 E179.45016 F1200
G1 X145.260 Y71.916 E179.46930 F1200
G1 X145.770 Y72.048 E179.48820 F1200
G1 X146.292 Y72.161 E179.50738 F1200
G1 X146.812 Y72.247 E179.52631 F1200
G1 X147.334 Y72.310 E179.54517 F1200
G1 X147.858 Y72.352 E179.56403 F1200
G1 X148.390 Y72.367 E179.58314 F1200
G1 X148.921 Y72.361 E179.60221 F1200
G1 X149.450 Y72.329 E179.62121 F1200
G1 X149.969 Y72.275 E179.63993 F1200
G1 X150.493 Y72.201 E179.65893 F1200
G1 X151.014 Y72.097 E179.67800 F1200
G1 X151.530 Y71.975 E179.69704 F1200
G1 X152.044 Y71.828 E179.71622 F1200
G1 X152.539 Y71.659 E179.73501 F1200
G1 X153.025 Y71.472 E179.75369 F1200
G1 X153.517 Y71.255 E179.77298 F1200
G1 X153.993 Y71.020 E179.79202 F1200
G1 X154.455 Y70.765 E179.81095 F1200
G1 X154.906 Y70.489 E179.82991 F1200
G1 X155.347 Y70.194 E179.84895 F1200
G1 X155.762 Y69.886 E179.86749 F1200
G1 X156.181 Y69.547 E179.88681 F1200
G1 X156.571 Y69.201 E179.90553 F1200
G1 X156.954 Y68.828 E179.92471 F1200
G1 X157.318 Y68.442 E179.94375 F1200
G1 X157.662 Y68.041 E179.96271 F1200
G1 X157.989 Y67.627 E179.98164 F1200
G1 X158.294 Y67.203 E180.00040 F1200
G1 X158.585 Y66.754 E180.01961 F1200
G1 X158.851 Y66.305 E180.03833 F1200
G1 X159.103 Y65.831 E180.05758 F1200
G1 X159.330 Y65.352 E180.07662 F1200
G1 X159.536 Y64.864 E180.09562 F1200
G1 X159.718 Y64.373 E180.11441 F1200
G1 X159.880 Y63.873 E180.13327 F1200
G1 X160.020 Y63.355 E180.15252 F1200
G1 X160.134 Y62.841 E180.17141 F1200
G1 X160.230 Y62.316 E180.19056 F1200
G1 X160.296 Y61.800 E180.20924 F1200
G1 X160.345 Y61.275 E180.22817 F1200
G1 X160.365 Y60.776 E180.24609 F1200
G1 Y60.216 E180.26621 F1200
G1 X160.342 Y59.677 E180.28557 F1200
G1 X160.290 Y59.159 E180.30425 F1200
G1 X160.220 Y58.634 E180.32325 F1200
G1 X160.128 Y58.123 E180.34190 F1200
G1 X160.009 Y57.598 E180.36122 F1200
G1 X159.868 Y57.086 E180.38030 F1200
G1 X159.703 Y56.581 E180.39937 F1200
G1 X159.517 Y56.091 E180.41819 F1200
G1 X159.315 Y55.612 E180.43683 F1200
G1 X159.081 Y55.124 E180.45627 F1200
G1 X158.833 Y54.660 E180.47516 F1200
G1 X158.562 Y54.205 E180.49416 F1200
G1 X158.270 Y53.761 E180.51324 F1200
G1 X157.965 Y53.341 E180.53188 F1200
G1 X157.632 Y52.922 E180.55110 F1200
G1 X157.291 Y52.528 E180.56981 F1200
G1 X156.921 Y52.139 E180.58907 F1200
G1 X156.542 Y51.772 E180.60800 F1200
G1 X156.144 Y51.421 E180.62704 F1200
G1 X155.732 Y51.089 E180.64604 F1200
G1 X155.312 Y50.781 E180.66472 F1200
G1 X154.867 Y50.486 E180.68386 F1200
G1 X154.423 Y50.217 E180.70251 F1200
G1 X153.948 Y49.955 E180.72198 F1200
G1 X153.769 Y49.868 E180.72912 F1200
G1 X163.645 E181.08388 F1200
G0 X164.221 Y49.292 F7200
G1 X164.213 Y54.333 E181.26496 F1200
G1 Y77.667 E182.10314 F1200
G1 X164.221 Y82.708 E182.28421 F1200
G1 X132.779 E183.41364 F1200
G1 X132.787 Y77.667 E183.59472 F1200
G1 Y54.333 E184.43290 F1200
G1 X132.779 Y49.292 E184.61397 F1200
G1 X147.145 E185.13001 F1200
G1 X146.862 Y49.329 E185.14025 F1200
G1 X146.372 Y49.410 E185.15807 F1200
G1 X145.870 Y49.519 E185.17650 F1200
G1 X145.386 Y49.647 E185.19446 F1200
G1 X144.904 Y49.795 E185.21256 F1200
G1 X144.431 Y49.967 E185.23063 F1200
G1 X143.973 Y50.154 E185.24837 F1200
G1 X143.510 Y50.370 E185.26669 F1200
G1 X143.064 Y50.603 E185.28476 F1200
G1 X142.628 Y50.855 E185.30283 F1200
G1 X142.203 Y51.126 E185.32093 F1200
G1 X141.791 Y51.417 E185.33904 F1200
G1 X141.397 Y51.723 E185.35693 F1200
G1 X141.017 Y52.043 E185.37474 F1200
G1 X140.642 Y52.391 E185.39310 F1200
G1 X140.290 Y52.748 E185.41110 F1200
G1 X139.951 Y53.122 E185.42920 F1200
G1 X139.631 Y53.510 E185.44723 F1200
G1 X139.327 Y53.914 E185.46537 F1200
G1 X139.045 Y54.327 E185.48333 F1200
G1 X138.783 Y54.746 E185.50108 F1200
G1 X138.533 Y55.193 E185.51947 F1200
G1 X138.306 Y55.642 E185.53754 F1200
G1 X138.099 Y56.103 E185.55568 F1200
G1 X137.915 Y56.569 E185.57367 F1200
G1 X137.752 Y57.038 E185.59149 F1200
G1 X137.607 Y57.527 E185.60981 F1200
G1 X137.485 Y58.014 E185.62784 F1200
G1 X137.384 Y58.508 E185.64595 F1200
G1 X137.307 Y59.007 E185.66405 F1200
G1 X137.253 Y59.503 E185.68194 F1200
G1 X137.218 Y60 E185.69983 F1200
G1 X137.208 Y60.502 E185.71786 F1200
G1 X137.219 Y61.014 E185.73625 F1200
G1 X137.254 Y61.517 E185.75436 F1200
G1 X137.310 Y62.014 E185.77232 F1200
G1 X137.387 Y62.506 E185.79017 F1200
G1 X137.487 Y62.994 E185.80806 F1200
G1 X137.612 Y63.494 E185.82656 F1200
G1 X137.756 Y63.977 E185.84466 F1200
G1 X137.922 Y64.450 E185.86266 F1200
G1 X138.105 Y64.910 E185.88044 F1200
G1 X138.316 Y65.377 E185.89883 F1200
G1 X138.543 Y65.826 E185.91690 F1200
G1 X138.789 Y66.263 E185.93489 F1200
G1 X139.056 Y66.692 E185.95303 F1200
G1 X139.343 Y67.108 E185.97117 F1200
G1 X139.644 Y67.505 E185.98906 F1200
G1 X139.960 Y67.889 E186.00692 F1200
G1 X140.304 Y68.266 E186.02524 F1200
G1 X140.657 Y68.624 E186.04327 F1200
G1 X141.027 Y68.966 E186.06134 F1200
G1 X141.412 Y69.290 E186.07940 F1200
G1 X141.813 Y69.598 E186.09754 F1200
G1 X142.223 Y69.885 E186.11551 F1200
G1 X142.646 Y70.155 E186.13350 F1200
G1 X143.075 Y70.404 E186.15132 F1200
G1 X143.529 Y70.639 E186.16967 F1200
G1 X143.986 Y70.852 E186.18778 F1200
G1 X144.451 Y71.041 E186.20577 F1200
G1 X144.918 Y71.209 E186.22359 F1200
G1 X145.406 Y71.358 E186.24191 F1200
G1 X145.892 Y71.486 E186.25994 F1200
G1 X146.386 Y71.593 E186.27808 F1200
G1 X146.882 Y71.675 E186.29612 F1200
G1 X147.380 Y71.736 E186.31411 F1200
G1 X147.874 Y71.776 E186.33189 F1200
G1 X148.384 Y71.791 E186.35021 F1200
G1 X148.887 Y71.786 E186.36828 F1200
G1 X149.391 Y71.756 E186.38639 F1200
G1 X149.889 Y71.705 E186.40435 F1200
G1 X150.381 Y71.636 E186.42216 F1200
G1 X150.882 Y71.537 E186.44048 F1200
G1 X151.372 Y71.421 E186.45855 F1200
G1 X151.858 Y71.283 E186.47669 F1200
G1 X152.333 Y71.121 E186.49469 F1200
G1 X152.794 Y70.944 E186.51240 F1200
G1 X153.263 Y70.739 E186.53075 F1200
G1 X153.715 Y70.516 E186.54886 F1200
G1 X154.155 Y70.273 E186.56689 F1200
G1 X154.586 Y70.011 E186.58499 F1200
G1 X155.004 Y69.731 E186.60306 F1200
G1 X155.400 Y69.438 E186.62073 F1200
G1 X155.799 Y69.117 E186.63912 F1200
G1 X156.169 Y68.788 E186.65691 F1200
G1 X156.536 Y68.432 E186.67526 F1200
G1 X156.882 Y68.066 E186.69333 F1200
G1 X157.210 Y67.685 E186.71136 F1200
G1 X157.521 Y67.291 E186.72936 F1200
G1 X157.811 Y66.889 E186.74714 F1200
G1 X158.090 Y66.460 E186.76549 F1200
G1 X158.343 Y66.035 E186.78324 F1200
G1 X158.583 Y65.584 E186.80156 F1200
G1 X158.800 Y65.128 E186.81970 F1200
G1 X158.996 Y64.664 E186.83777 F1200
G1 X159.170 Y64.195 E186.85573 F1200
G1 X159.324 Y63.723 E186.87354 F1200
G1 X159.458 Y63.229 E186.89190 F1200
G1 X159.568 Y62.738 E186.90997 F1200
G1 X159.658 Y62.242 E186.92807 F1200
G1 X159.722 Y61.746 E186.94603 F1200
G1 X159.769 Y61.251 E186.96389 F1200
G1 X159.789 Y60.752 E186.98181 F1200
G1 Y60.240 E187.00020 F1200
G1 X159.768 Y59.733 E187.01841 F1200
G1 X159.720 Y59.235 E187.03637 F1200
G1 X159.653 Y58.736 E187.05444 F1200
G1 X159.566 Y58.250 E187.07215 F1200
G1 X159.453 Y57.750 E187.09054 F1200
G1 X159.320 Y57.264 E187.10861 F1200
G1 X159.164 Y56.785 E187.12668 F1200
G1 X158.987 Y56.315 E187.14471 F1200
G1 X158.795 Y55.860 E187.16242 F1200
G1 X158.573 Y55.396 E187.18088 F1200
G1 X158.337 Y54.954 E187.19888 F1200
G1 X158.080 Y54.521 E187.21695 F1200
G1 X157.803 Y54.099 E187.23505 F1200
G1 X157.514 Y53.699 E187.25276 F1200
G1 X157.196 Y53.298 E187.27112 F1200
G1 X156.873 Y52.924 E187.28886 F1200
G1 X156.521 Y52.553 E187.30722 F1200
G1 X156.160 Y52.204 E187.32525 F1200
G1 X155.782 Y51.869 E187.34339 F1200
G1 X155.390 Y51.553 E187.36146 F1200
G1 X154.993 Y51.261 E187.37913 F1200
G1 X154.568 Y50.978 E187.39745 F1200
G1 X154.145 Y50.721 E187.41520 F1200
G1 X153.695 Y50.473 E187.43362 F1200
G1 X153.243 Y50.252 E187.45169 F1200
G1 X152.782 Y50.051 E187.46972 F1200
G1 X152.314 Y49.872 E187.48772 F1200
G1 X151.844 Y49.713 E187.50554 F1200
G1 X151.351 Y49.574 E187.52393 F1200
G1 X150.863 Y49.458 E187.54193 F1200
G1 X150.365 Y49.362 E187.56014 F1200
G1 X149.870 Y49.292 E187.57806 F1200
G1 X164.221 E188.09356 F1200
; Inset 0 
G0 X159.249 Y60.257 F7200
G1 X159.229 Y59.778 E188.10862 F1200
G1 X159.184 Y59.301 E188.12367 F1200
G1 X159.121 Y58.826 E188.13873 F1200
G1 X159.038 Y58.363 E188.15350 F1200
G1 X158.930 Y57.887 E188.16884 F1200
G1 X158.804 Y57.425 E188.18386 F1200
G1 X158.656 Y56.969 E188.19892 F1200
G1 X158.488 Y56.520 E188.21398 F1200
G1 X158.305 Y56.087 E188.22875 F1200
G1 X158.094 Y55.646 E188.24409 F1200
G1 X157.869 Y55.225 E188.25908 F1200
G1 X157.625 Y54.812 E188.27413 F1200
G1 X157.362 Y54.411 E188.28919 F1200
G1 X157.087 Y54.030 E188.30393 F1200
G1 X156.784 Y53.647 E188.31927 F1200
G1 X156.477 Y53.291 E188.33404 F1200
G1 X156.142 Y52.937 E188.34935 F1200
G1 X155.798 Y52.604 E188.36437 F1200
G1 X155.439 Y52.286 E188.37943 F1200
G1 X155.065 Y51.985 E188.39451 F1200
G1 X154.688 Y51.707 E188.40922 F1200
G1 X154.282 Y51.436 E188.42456 F1200
G1 X153.880 Y51.191 E188.43933 F1200
G1 X153.452 Y50.956 E188.45467 F1200
G1 X153.022 Y50.745 E188.46970 F1200
G1 X152.583 Y50.553 E188.48475 F1200
G1 X152.136 Y50.382 E188.49978 F1200
G1 X151.690 Y50.231 E188.51455 F1200
G1 X151.221 Y50.098 E188.52986 F1200
G1 X150.755 Y49.987 E188.54491 F1200
G1 X150.283 Y49.896 E188.56000 F1200
G1 X149.810 Y49.829 E188.57499 F1200
G1 X149.342 Y49.781 E188.58976 F1200
G1 X148.855 Y49.754 E188.60507 F1200
G1 X148.376 Y49.749 E188.62012 F1200
G1 X147.897 Y49.764 E188.63518 F1200
G1 X147.419 Y49.802 E188.65024 F1200
G1 X146.945 Y49.862 E188.66523 F1200
G1 X146.480 Y49.939 E188.68003 F1200
G1 X146.003 Y50.042 E188.69534 F1200
G1 X145.540 Y50.164 E188.71036 F1200
G1 X145.082 Y50.305 E188.72542 F1200
G1 X144.631 Y50.469 E188.74047 F1200
G1 X144.196 Y50.646 E188.75521 F1200
G1 X143.754 Y50.852 E188.77052 F1200
G1 X143.329 Y51.073 E188.78558 F1200
G1 X142.914 Y51.313 E188.80063 F1200
G1 X142.509 Y51.571 E188.81572 F1200
G1 X142.118 Y51.847 E188.83074 F1200
G1 X141.740 Y52.140 E188.84577 F1200
G1 X141.380 Y52.443 E188.86054 F1200
G1 X141.022 Y52.774 E188.87585 F1200
G1 X140.686 Y53.115 E188.89087 F1200
G1 X140.364 Y53.470 E188.90593 F1200
G1 X140.059 Y53.840 E188.92098 F1200
G1 X139.770 Y54.223 E188.93604 F1200
G1 X139.500 Y54.618 E188.95106 F1200
G1 X139.251 Y55.016 E188.96580 F1200
G1 X139.012 Y55.442 E188.98114 F1200
G1 X138.796 Y55.869 E188.99616 F1200
G1 X138.599 Y56.307 E189.01125 F1200
G1 X138.423 Y56.752 E189.02627 F1200
G1 X138.268 Y57.197 E189.04108 F1200
G1 X138.129 Y57.664 E189.05638 F1200
G1 X138.013 Y58.128 E189.07141 F1200
G1 X137.917 Y58.597 E189.08643 F1200
G1 X137.843 Y59.071 E189.10149 F1200
G1 X137.791 Y59.546 E189.11648 F1200
G1 X137.758 Y60.017 E189.13132 F1200
G1 X137.748 Y60.496 E189.14637 F1200
G1 X137.758 Y60.983 E189.16168 F1200
G1 X137.791 Y61.462 E189.17676 F1200
G1 X137.845 Y61.937 E189.19179 F1200
G1 X137.917 Y62.403 E189.20659 F1200
G1 X138.015 Y62.880 E189.22187 F1200
G1 X138.131 Y63.345 E189.23692 F1200
G1 X138.268 Y63.804 E189.25198 F1200
G1 X138.426 Y64.256 E189.26700 F1200
G1 X138.599 Y64.693 E189.28174 F1200
G1 X138.800 Y65.138 E189.29708 F1200
G1 X139.016 Y65.566 E189.31214 F1200
G1 X139.251 Y65.983 E189.32716 F1200
G1 X139.504 Y66.390 E189.34222 F1200
G1 X139.777 Y66.786 E189.35730 F1200
G1 X140.065 Y67.166 E189.37226 F1200
G1 X140.364 Y67.530 E189.38707 F1200
G1 X140.692 Y67.891 E189.40238 F1200
G1 X141.028 Y68.232 E189.41740 F1200
G1 X141.380 Y68.557 E189.43245 F1200
G1 X141.746 Y68.866 E189.44748 F1200
G1 X142.127 Y69.159 E189.46257 F1200
G1 X142.518 Y69.433 E189.47756 F1200
G1 X142.922 Y69.691 E189.49261 F1200
G1 X143.329 Y69.927 E189.50739 F1200
G1 X143.762 Y70.152 E189.52269 F1200
G1 X144.196 Y70.354 E189.53772 F1200
G1 X144.639 Y70.535 E189.55274 F1200
G1 X145.082 Y70.695 E189.56754 F1200
G1 X145.548 Y70.838 E189.58285 F1200
G1 X146.012 Y70.960 E189.59791 F1200
G1 X146.480 Y71.061 E189.61293 F1200
G1 X146.953 Y71.140 E189.62799 F1200
G1 X147.428 Y71.198 E189.64301 F1200
G1 X147.897 Y71.236 E189.65778 F1200
G1 X148.384 Y71.251 E189.67309 F1200
G1 X148.863 Y71.246 E189.68814 F1200
G1 X149.342 Y71.219 E189.70320 F1200
G1 X149.818 Y71.170 E189.71822 F1200
G1 X150.284 Y71.104 E189.73300 F1200
G1 X150.763 Y71.011 E189.74830 F1200
G1 X151.229 Y70.900 E189.76336 F1200
G1 X151.690 Y70.769 E189.77841 F1200
G1 X152.144 Y70.615 E189.79347 F1200
G1 X152.583 Y70.447 E189.80824 F1200
G1 X153.030 Y70.251 E189.82358 F1200
G1 X153.460 Y70.040 E189.83860 F1200
G1 X153.880 Y69.809 E189.85366 F1200
G1 X154.290 Y69.560 E189.86871 F1200
G1 X154.688 Y69.293 E189.88377 F1200
G1 X155.065 Y69.014 E189.89851 F1200
G1 X155.445 Y68.708 E189.91382 F1200
G1 X155.798 Y68.396 E189.92862 F1200
G1 X156.148 Y68.057 E189.94393 F1200
G1 X156.477 Y67.709 E189.95895 F1200
G1 X156.790 Y67.346 E189.97401 F1200
G1 X157.087 Y66.970 E189.98906 F1200
G1 X157.362 Y66.589 E190.00380 F1200
G1 X157.629 Y66.180 E190.01914 F1200
G1 X157.869 Y65.776 E190.03388 F1200
G1 X158.098 Y65.346 E190.04919 F1200
G1 X158.305 Y64.913 E190.06425 F1200
G1 X158.492 Y64.471 E190.07930 F1200
G1 X158.658 Y64.023 E190.09429 F1200
G1 X158.804 Y63.575 E190.10910 F1200
G1 X158.932 Y63.105 E190.12440 F1200
G1 X159.038 Y62.637 E190.13946 F1200
G1 X159.123 Y62.166 E190.15448 F1200
G1 X159.185 Y61.691 E190.16954 F1200
G1 X159.229 Y61.222 E190.18434 F1200
G1 X159.249 Y60.735 E190.19965 F1200
G1 Y60.257 E190.21467 F1200
G0 X164.761 Y48.752 F7200
G1 X164.753 Y54.333 E190.39009 F1200
G1 Y77.667 E191.12350 F1200
G1 X164.761 Y83.248 E191.29891 F1200
G1 X132.239 E192.32110 F1200
G1 X132.247 Y77.667 E192.49652 F1200
G1 Y54.333 E193.22993 F1200
G1 X132.239 Y48.752 E193.40534 F1200
G1 X164.761 E194.42754 F1200
; Solid infill 
G0 X163.355 Y50.942 F7200
G1 X162.568 Y50.155 E194.46748 F1200
G0 X161.754 F7200
G1 X163.355 Y51.756 E194.54880 F1200
G0 Y52.571 F7200
G1 X160.939 Y50.155 E194.67151 F1200
G0 X160.125 F7200
G1 X163.355 Y53.385 E194.83556 F1200
G0 Y54.200 F7200
G1 X159.310 Y50.155 E195.04103 F1200
G0 X158.495 F7200
G1 X163.355 Y55.015 E195.28791 F1200
G0 Y55.829 F7200
G1 X157.681 Y50.155 E195.57614 F1200
G0 X156.866 F7200
G1 X163.355 Y56.644 E195.90575 F1200
G0 Y57.458 F7200
G1 X156.052 Y50.155 E196.27675 F1200
G0 X155.559 Y50.478 F7200
G1 X156.251 Y51.169 E196.31184 F1200
G0 X157.937 Y52.856 F7200
G1 X163.355 Y58.273 E196.58703 F1200
G0 Y59.087 F7200
G1 X159.366 Y55.099 E196.78963 F1200
G0 X159.953 Y56.501 F7200
G1 X163.355 Y59.902 E196.96241 F1200
G0 Y60.717 F7200
G1 X160.311 Y57.673 E197.11701 F1200
G0 X160.493 Y58.670 F7200
G1 X163.355 Y61.531 E197.26235 F1200
G0 Y62.346 F7200
G1 X160.624 Y59.615 E197.40107 F1200
G0 X160.644 Y60.450 F7200
G1 X163.355 Y63.160 E197.53876 F1200
G0 Y63.975 F7200
G1 X160.612 Y61.233 E197.67806 F1200
G0 X160.547 Y61.982 F7200
G1 X163.355 Y64.790 E197.82070 F1200
G0 Y65.604 F7200
G1 X160.446 Y62.695 E197.96844 F1200
G0 X160.308 Y63.373 F7200
G1 X163.355 Y66.419 E198.12319 F1200
G0 Y67.233 F7200
G1 X160.126 Y64.005 E198.28717 F1200
G0 X159.924 Y64.618 F7200
G1 X163.355 Y68.048 E198.46142 F1200
G0 Y68.863 F7200
G1 X159.683 Y65.191 E198.64792 F1200
G0 X159.442 Y65.765 F7200
G1 X163.355 Y69.677 E198.84667 F1200
G0 Y70.492 F7200
G1 X159.160 Y66.297 E199.05976 F1200
G0 X158.858 Y66.810 F7200
G1 X163.355 Y71.306 E199.28818 F1200
G0 Y72.121 F7200
G1 X158.557 Y67.323 E199.53190 F1200
G0 X158.203 Y67.783 F7200
G1 X163.355 Y72.935 E199.79362 F1200
G0 Y73.750 F7200
G1 X157.843 Y68.239 E200.07359 F1200
G0 X157.477 Y68.687 F7200
G1 X163.355 Y74.565 E200.37216 F1200
G0 Y75.379 F7200
G1 X157.063 Y69.088 E200.69175 F1200
G0 X156.651 Y69.490 F7200
G1 X163.355 Y76.194 E201.03228 F1200
G0 Y77.008 F7200
G1 X156.220 Y69.874 E201.39469 F1200
G0 X155.752 Y70.220 F7200
G1 X163.355 Y77.823 E201.78091 F1200
G0 Y78.638 F7200
G1 X155.284 Y70.567 E202.19091 F1200
G0 X154.784 Y70.882 F7200
G1 X163.355 Y79.452 E202.62628 F1200
G0 Y80.267 F7200
G1 X154.260 Y71.172 E203.08829 F1200
G0 X153.735 Y71.462 F7200
G1 X163.355 Y81.081 E203.57696 F1200
G0 X163.302 Y81.844 F7200
G1 X153.160 Y71.701 E204.09217 F1200
G0 X152.574 Y71.930 F7200
G1 X162.488 Y81.844 E204.59579 F1200
G0 X161.673 F7200
G1 X151.970 Y72.141 E205.08869 F1200
G0 X151.313 Y72.298 F7200
G1 X160.859 Y81.844 E205.57363 F1200
G0 X160.044 F7200
G1 X150.656 Y72.456 E206.05051 F1200
G0 X149.942 Y72.556 F7200
G1 X159.229 Y81.844 E206.52230 F1200
G0 X158.415 F7200
G1 X149.190 Y72.619 E206.99092 F1200
G0 X148.387 Y72.631 F7200
G1 X157.600 Y81.844 E207.45894 F1200
G0 X156.786 F7200
G1 X147.552 Y72.610 E207.92799 F1200
G0 X146.628 Y72.501 F7200
G1 X155.971 Y81.844 E208.40258 F1200
G0 X155.156 F7200
G1 X145.594 Y72.281 E208.88834 F1200
G0 X144.421 Y71.923 F7200
G1 X154.342 Y81.844 E209.39231 F1200
G0 X153.527 F7200
G1 X143.024 Y71.340 E209.92588 F1200
G0 X140.574 Y69.705 F7200
G1 X152.713 Y81.844 E210.54253 F1200
G0 X151.898 F7200
G1 X133.643 Y63.588 E211.46991 F1200
G0 Y62.774 F7200
G1 X139.256 Y68.387 E211.75501 F1200
G0 X137.664 Y65.980 F7200
G1 X133.643 Y61.959 E211.95926 F1200
G0 Y61.144 F7200
G1 X137.059 Y64.560 E212.13275 F1200
G0 X136.701 Y63.388 F7200
G1 X133.643 Y60.330 E212.28808 F1200
G0 Y59.515 F7200
G1 X136.518 Y62.390 E212.43410 F1200
G0 X136.390 Y61.448 F7200
G1 X133.643 Y58.701 E212.57361 F1200
G0 Y57.886 F7200
G1 X136.369 Y60.613 E212.71209 F1200
G0 X136.374 Y59.802 F7200
G1 X133.643 Y57.072 E212.85078 F1200
G0 Y56.257 F7200
G1 X136.453 Y59.067 E212.99349 F1200
G0 X136.537 Y58.337 F7200
G1 X133.643 Y55.442 E213.14052 F1200
G0 Y54.628 F7200
G1 X136.700 Y57.685 E213.29580 F1200
G0 X136.863 Y57.033 F7200
G1 X133.643 Y53.813 E213.45935 F1200
G0 Y52.999 F7200
G1 X137.069 Y56.424 E213.63335 F1200
G0 X137.299 Y55.840 F7200
G1 X133.643 Y52.184 E213.81906 F1200
G0 Y51.369 F7200
G1 X137.531 Y55.258 E214.01659 F1200
G0 X137.815 Y54.727 F7200
G1 X133.643 Y50.555 E214.22853 F1200
G0 X134.058 Y50.156 F7200
G1 X138.109 Y54.207 E214.43428 F1200
G0 X138.440 Y53.723 F7200
G1 X134.873 Y50.156 E214.61547 F1200
G0 X135.688 F7200
G1 X138.771 Y53.239 E214.77208 F1200
G0 X139.128 Y52.781 F7200
G1 X136.502 Y50.156 E214.90546 F1200
G0 X137.317 F7200
G1 X139.514 Y52.353 E215.01706 F1200
G0 X139.899 Y51.924 F7200
G1 X138.131 Y50.156 E215.10687 F1200
G0 X138.946 F7200
G1 X140.316 Y51.526 E215.17644 F1200
G0 X140.747 Y51.142 F7200
G1 X139.761 Y50.156 E215.22652 F1200
G0 X140.575 F7200
G1 X141.214 Y50.795 E215.25895 F1200
G0 X147.580 Y49.374 F7200
G1 X147.675 Y49.281 E215.26229 F1200
G1 X147.688 Y49.266 E215.26289 F1200
G1 X148.361 Y49.250 E215.28425 F1200
G1 X148.386 E215.28502 F1200
G1 X149.314 Y49.276 E215.31500 F1200
G1 X149.451 Y49.162 E215.31976 F1200
G1 F1500 E207.31976
G0 X133.643 Y64.403 F7200
G1 F1500 E215.31976
G1 X151.083 Y81.844 E216.20572 F1200
G0 X150.269 F7200
G1 X133.643 Y65.217 E217.05033 F1200
G0 Y66.033 F7200
G1 X149.454 Y81.844 E217.85352 F1200
G0 X148.640 F7200
G1 X133.643 Y66.847 E218.61533 F1200
G0 Y67.662 F7200
G1 X147.825 Y81.844 E219.33576 F1200
G0 X147.011 F7200
G1 X133.643 Y68.476 E220.01485 F1200
G0 Y69.291 F7200
G1 X146.196 Y81.844 E220.65251 F1200
G0 X145.381 F7200
G1 X133.643 Y70.106 E221.24880 F1200
G0 Y70.920 F7200
G1 X144.567 Y81.844 E221.80371 F1200
G0 X143.752 F7200
G1 X133.643 Y71.735 E222.31724 F1200
G0 Y72.549 F7200
G1 X142.938 Y81.844 E222.78942 F1200
G0 X142.123 F7200
G1 X133.643 Y73.364 E223.22018 F1200
G0 Y74.179 F7200
G1 X141.308 Y81.844 E223.60953 F1200
G0 X140.494 F7200
G1 X133.643 Y74.993 E223.95753 F1200
G0 Y75.808 F7200
G1 X139.679 Y81.844 E224.26415 F1200
G0 X138.865 F7200
G1 X133.643 Y76.622 E224.52943 F1200
G0 Y77.437 F7200
G1 X138.050 Y81.844 E224.75329 F1200
G0 X137.235 F7200
G1 X133.643 Y78.251 E224.93576 F1200
G0 Y79.066 F7200
G1 X136.421 Y81.844 E225.07686 F1200
G0 X135.606 F7200
G1 X133.643 Y79.881 E225.17658 F1200
G0 Y80.695 F7200
G1 X134.792 Y81.844 E225.23491 F1200
G0 X133.977 F7200
G1 X133.643 Y81.510 E225.25187 F1200
;MACROLAYER:2
;LAYER:2
M532 L2
; Inset XP 
G1 F1500 E217.25187
G0 Z0.450 F1500
G0 X117.657 Y99.234 F7200
G1 F1500 E225.25187
G1 X117.637 Y98.762 E225.28013 F3000
G1 X117.592 Y98.269 E225.30976 F3000
G1 X117.523 Y97.747 E225.34125 F3000
G1 X117.433 Y97.259 E225.37095 F3000
G1 X117.322 Y96.773 E225.40076 F3000
G1 X117.197 Y96.320 E225.42884 F3000
G1 X117.036 Y95.823 E225.46009 F3000
G1 X116.872 Y95.379 E225.48841 F3000
G1 X116.677 Y94.924 E225.51804 F3000
G1 X116.451 Y94.449 E225.54953 F3000
G1 X116.230 Y94.036 E225.57755 F3000
G1 X115.977 Y93.606 E225.60737 F3000
G1 X115.690 Y93.169 E225.63862 F3000
G1 X115.416 Y92.789 E225.66664 F3000
G1 X115.090 Y92.376 E225.69813 F3000
G1 X114.765 Y92.001 E225.72782 F3000
G1 X114.442 Y91.657 E225.75602 F3000
G1 X114.085 Y91.313 E225.78565 F3000
G1 X113.691 Y90.966 E225.81708 F3000
G1 X113.326 Y90.671 E225.84516 F3000
G1 X112.925 Y90.374 E225.87504 F3000
G1 X112.489 Y90.084 E225.90635 F3000
G1 X112.064 Y89.827 E225.93604 F3000
G1 X111.652 Y89.601 E225.96412 F3000
G1 X111.207 Y89.382 E225.99376 F3000
G1 X110.725 Y89.171 E226.02525 F3000
G1 X110.261 Y88.992 E226.05500 F3000
G1 X109.787 Y88.834 E226.08488 F3000
G1 X109.336 Y88.707 E226.11289 F3000
G1 X108.826 Y88.585 E226.14426 F3000
G1 X108.363 Y88.496 E226.17246 F3000
G1 X107.872 Y88.426 E226.20210 F3000
G1 X107.350 Y88.373 E226.23347 F3000
G1 X106.854 Y88.346 E226.26316 F3000
G1 X106.368 Y88.341 E226.29226 F3000
G1 X105.885 Y88.356 E226.32118 F3000
G1 X105.365 Y88.398 E226.35237 F3000
G1 X104.896 Y88.455 E226.38062 F3000
G1 X104.380 Y88.544 E226.41194 F3000
G1 X103.894 Y88.649 E226.44169 F3000
G1 X103.413 Y88.776 E226.47144 F3000
G1 X102.938 Y88.923 E226.50120 F3000
G1 X102.497 Y89.083 E226.52928 F3000
G1 X102.012 Y89.282 E226.56065 F3000
G1 X101.584 Y89.481 E226.58891 F3000
G1 X101.122 Y89.722 E226.62010 F3000
G1 X100.712 Y89.957 E226.64836 F3000
G1 X100.271 Y90.241 E226.67973 F3000
G1 X99.864 Y90.527 E226.70948 F3000
G1 X99.472 Y90.832 E226.73918 F3000
G1 X99.113 Y91.135 E226.76725 F3000
G1 X98.728 Y91.491 E226.79862 F3000
G1 X98.379 Y91.846 E226.82838 F3000
G1 X98.064 Y92.195 E226.85652 F3000
G1 X97.730 Y92.599 E226.88789 F3000
G1 X97.432 Y92.995 E226.91752 F3000
G1 X97.164 Y93.384 E226.94578 F3000
G1 X96.888 Y93.829 E226.97709 F3000
G1 X96.658 Y94.238 E227.00517 F3000
G1 X96.420 Y94.708 E227.03666 F3000
G1 X96.229 Y95.136 E227.06468 F3000
G1 X96.035 Y95.623 E227.09605 F3000
G1 X95.881 Y96.067 E227.12413 F3000
G1 X95.738 Y96.543 E227.15388 F3000
G1 X95.612 Y97.051 E227.18519 F3000
G1 X95.517 Y97.514 E227.21345 F3000
G1 X95.437 Y98.030 E227.24470 F3000
G1 X95.386 Y98.497 E227.27278 F3000
G1 X95.351 Y98.994 E227.30260 F3000
G1 X95.340 Y99.492 E227.33241 F3000
G1 X95.352 Y100.018 E227.36390 F3000
G1 X95.386 Y100.513 E227.39360 F3000
G1 X95.439 Y100.980 E227.42167 F3000
G1 X95.519 Y101.497 E227.45298 F3000
G1 X95.614 Y101.959 E227.48118 F3000
G1 X95.741 Y102.468 E227.51255 F3000
G1 X95.884 Y102.943 E227.54225 F3000
G1 X96.039 Y103.387 E227.57039 F3000
G1 X96.233 Y103.873 E227.60170 F3000
G1 X96.425 Y104.303 E227.62984 F3000
G1 X96.663 Y104.770 E227.66121 F3000
G1 X96.893 Y105.181 E227.68934 F3000
G1 X97.170 Y105.625 E227.72066 F3000
G1 X97.438 Y106.013 E227.74885 F3000
G1 X97.737 Y106.410 E227.77861 F3000
G1 X98.071 Y106.813 E227.80992 F3000
G1 X98.386 Y107.161 E227.83800 F3000
G1 X98.736 Y107.518 E227.86787 F3000
G1 X99.121 Y107.871 E227.89912 F3000
G1 X99.480 Y108.175 E227.92726 F3000
G1 X99.873 Y108.479 E227.95696 F3000
G1 X100.279 Y108.765 E227.98665 F3000
G1 X100.723 Y109.049 E228.01820 F3000
G1 X101.130 Y109.283 E228.04628 F3000
G1 X101.594 Y109.524 E228.07753 F3000
G1 X102.022 Y109.722 E228.10573 F3000
G1 X102.506 Y109.921 E228.13704 F3000
G1 X102.949 Y110.080 E228.16518 F3000
G1 X103.423 Y110.227 E228.19487 F3000
G1 X103.905 Y110.354 E228.22469 F3000
G1 X104.418 Y110.463 E228.25606 F3000
G1 X104.909 Y110.546 E228.28581 F3000
G1 X105.375 Y110.603 E228.31389 F3000
G1 X105.897 Y110.645 E228.34520 F3000
G1 X106.368 Y110.659 E228.37340 F3000
G1 X106.866 Y110.654 E228.40321 F3000
G1 X107.390 Y110.624 E228.43458 F3000
G1 X107.882 Y110.573 E228.46416 F3000
G1 X108.374 Y110.502 E228.49391 F3000
G1 X108.837 Y110.412 E228.52211 F3000
G1 X109.346 Y110.291 E228.55342 F3000
G1 X109.825 Y110.154 E228.58324 F3000
G1 X110.271 Y110.004 E228.61138 F3000
G1 X110.736 Y109.825 E228.64119 F3000
G1 X111.216 Y109.613 E228.67256 F3000
G1 X111.661 Y109.394 E228.70220 F3000
G1 X112.074 Y109.168 E228.73033 F3000
G1 X112.520 Y108.896 E228.76158 F3000
G1 X112.935 Y108.619 E228.79140 F3000
G1 X113.334 Y108.323 E228.82109 F3000
G1 X113.699 Y108.027 E228.84917 F3000
G1 X114.093 Y107.680 E228.88060 F3000
G1 X114.450 Y107.334 E228.91036 F3000
G1 X114.771 Y106.992 E228.93844 F3000
G1 X115.098 Y106.615 E228.96831 F3000
G1 X115.422 Y106.203 E228.99968 F3000
G1 X115.696 Y105.823 E229.02770 F3000
