; Generated with Anisoprint Aura v2.4.8 on 04/21/2024 at 11:50 
; LAYER_COUNT:17 
M530 L17

M104 S245 T0
M140 S100 
G21 
G90 
M82 
G28
M530 S1
G1 Z10 F900
; Start change extruder 
M400
M109 S245 T0
T0 R ; switch extruder 
; End change extruder 
G92 E0 ; reset extrusion
M190 S100 
;MACROLAYER:1
;LAYER:1
M532 L1
G0 Z0.150 F1500
G0 X108.560 Y101.664 F7200
G1 X109.292 Y100.944 E0.03455 F1200
G1 X110.067 Y100.313 E0.06819 F1200
G1 X110.627 Y99.924 E0.09113 F1200
G1 X111.231 Y99.563 E0.11480 F1200
G1 X111.894 Y99.222 E0.13989 F1200
G1 X112.547 Y98.939 E0.16383 F1200
G1 X113.181 Y98.715 E0.18646 F1200
G1 X113.989 Y98.486 E0.21472 F1200
G1 X114.874 Y98.313 E0.24506 F1200
G1 X115.828 Y98.212 E0.27735 F1200
G1 X116.063 Y98.200 E0.28527 F1200
G1 X116.926 Y98.198 E0.31433 F1200
G1 X117.592 Y98.245 E0.33679 F1200
G1 X118.016 Y98.303 E0.35117 F1200
G1 X118.560 Y97.664 E0.37943 F1200
G1 X119.292 Y96.944 E0.41398 F1200
G1 X120.067 Y96.313 E0.44762 F1200
G1 X120.627 Y95.924 E0.47055 F1200
G1 X121.231 Y95.563 E0.49423 F1200
G1 X121.894 Y95.222 E0.51932 F1200
G1 X122.547 Y94.939 E0.54326 F1200
G1 X123.181 Y94.715 E0.56589 F1200
G1 X123.989 Y94.486 E0.59414 F1200
G1 X124.874 Y94.313 E0.62449 F1200
G1 X125.828 Y94.212 E0.65678 F1200
G1 X126.063 Y94.200 E0.66469 F1200
G1 X126.926 Y94.198 E0.69376 F1200
G1 X127.592 Y94.245 E0.71622 F1200
G1 X128.371 Y94.354 E0.74269 F1200
G1 X128.958 Y94.474 E0.76286 F1200
G1 X129.556 Y94.631 E0.78367 F1200
G1 X130.398 Y94.917 E0.81361 F1200
G1 X130.871 Y95.115 E0.83085 F1200
G1 X131.506 Y95.421 E0.85456 F1200
G1 X131.894 Y95.222 E0.86924 F1200
G1 X132.547 Y94.939 E0.89319 F1200
G1 X133.181 Y94.715 E0.91582 F1200
G1 X133.989 Y94.486 E0.94407 F1200
G1 X134.874 Y94.313 E0.97441 F1200
G1 X135.828 Y94.212 E1.00671 F1200
G1 X136.063 Y94.200 E1.01462 F1200
G1 X136.926 Y94.198 E1.04368 F1200
G1 X137.592 Y94.245 E1.06614 F1200
G1 X138.371 Y94.354 E1.09261 F1200
G1 X138.958 Y94.474 E1.11279 F1200
G1 X139.556 Y94.631 E1.13360 F1200
G1 X140.398 Y94.917 E1.16354 F1200
G1 X140.867 Y95.113 E1.18064 F1200
G1 X141.506 Y95.421 E1.20452 F1200
G1 X141.894 Y95.222 E1.21920 F1200
G1 X142.547 Y94.939 E1.24315 F1200
G1 X143.181 Y94.715 E1.26578 F1200
G1 X143.989 Y94.486 E1.29403 F1200
G1 X144.874 Y94.313 E1.32437 F1200
G1 X145.828 Y94.212 E1.35667 F1200
G1 X146.063 Y94.200 E1.36458 F1200
G1 X146.926 Y94.198 E1.39364 F1200
G1 X147.592 Y94.245 E1.41610 F1200
G1 X148.371 Y94.354 E1.44257 F1200
G1 X148.958 Y94.474 E1.46275 F1200
G1 X149.556 Y94.631 E1.48356 F1200
G1 X150.398 Y94.917 E1.51350 F1200
G1 X150.867 Y95.113 E1.53060 F1200
G1 X151.506 Y95.421 E1.55448 F1200
G1 X151.894 Y95.222 E1.56916 F1200
G1 X152.547 Y94.939 E1.59311 F1200
G1 X153.181 Y94.715 E1.61574 F1200
G1 X153.989 Y94.486 E1.64399 F1200
G1 X154.874 Y94.313 E1.67433 F1200
G1 X155.828 Y94.212 E1.70663 F1200
G1 X156.063 Y94.200 E1.71454 F1200
G1 X156.926 Y94.198 E1.74360 F1200
G1 X157.592 Y94.245 E1.76606 F1200
G1 X158.371 Y94.354 E1.79253 F1200
G1 X158.958 Y94.474 E1.81271 F1200
G1 X159.556 Y94.631 E1.83352 F1200
G1 X160.398 Y94.917 E1.86346 F1200
G1 X160.867 Y95.113 E1.88056 F1200
G1 X161.506 Y95.421 E1.90444 F1200
G1 X161.894 Y95.222 E1.91912 F1200
G1 X162.547 Y94.939 E1.94306 F1200
G1 X163.181 Y94.715 E1.96570 F1200
G1 X163.989 Y94.486 E1.99395 F1200
G1 X164.874 Y94.313 E2.02429 F1200
G1 X165.828 Y94.212 E2.05659 F1200
G1 X166.063 Y94.200 E2.06450 F1200
G1 X166.887 Y94.197 E2.09225 F1200
G1 X167.592 Y94.245 E2.11602 F1200
G1 X168.371 Y94.354 E2.14249 F1200
G1 X168.958 Y94.474 E2.16267 F1200
G1 X169.556 Y94.631 E2.18348 F1200
G1 X170.398 Y94.917 E2.21342 F1200
G1 X170.867 Y95.113 E2.23052 F1200
G1 X171.454 Y95.393 E2.25241 F1200
G1 X172.118 Y95.765 E2.27804 F1200
G1 X172.699 Y96.146 E2.30141 F1200
G1 X173.250 Y96.557 E2.32455 F1200
G1 X173.836 Y97.060 E2.35054 F1200
G1 X174.556 Y97.792 E2.38509 F1200
G1 X175.187 Y98.567 E2.41874 F1200
G1 X175.576 Y99.127 E2.44167 F1200
G1 X175.937 Y99.731 E2.46534 F1200
G1 X176.278 Y100.394 E2.49043 F1200
G1 X176.561 Y101.047 E2.51438 F1200
G1 X176.785 Y101.681 E2.53701 F1200
G1 X177.014 Y102.489 E2.56526 F1200
G1 X177.187 Y103.374 E2.59560 F1200
G1 X177.289 Y104.337 E2.62820 F1200
G1 X177.309 Y104.928 E2.64810 F1200
G1 X177.302 Y105.426 E2.66487 F1200
G1 X177.255 Y106.092 E2.68734 F1200
G1 X177.146 Y106.871 E2.71381 F1200
G1 X177.026 Y107.458 E2.73398 F1200
G1 X176.869 Y108.056 E2.75479 F1200
G1 X176.583 Y108.898 E2.78473 F1200
G1 X176.387 Y109.367 E2.80183 F1200
G1 X176.107 Y109.954 E2.82372 F1200
G1 X175.735 Y110.618 E2.84935 F1200
G1 X175.354 Y111.199 E2.87272 F1200
G1 X174.943 Y111.750 E2.89586 F1200
G1 X174.440 Y112.336 E2.92185 F1200
G1 X173.708 Y113.056 E2.95641 F1200
G1 X172.933 Y113.687 E2.99005 F1200
G1 X172.373 Y114.076 E3.01298 F1200
G1 X171.769 Y114.437 E3.03666 F1200
G1 X171.106 Y114.778 E3.06174 F1200
G1 X170.453 Y115.061 E3.08569 F1200
G1 X169.819 Y115.285 E3.10832 F1200
G1 X169.011 Y115.514 E3.13657 F1200
G1 X168.129 Y115.687 E3.16681 F1200
G1 X167.230 Y115.785 E3.19726 F1200
G1 X166.226 Y115.805 E3.23107 F1200
G1 X165.585 Y115.770 E3.25265 F1200
G1 X164.819 Y115.676 E3.27862 F1200
G1 X164.042 Y115.526 E3.30525 F1200
G1 X163.444 Y115.369 E3.32607 F1200
G1 X162.602 Y115.083 E3.35600 F1200
G1 X162.133 Y114.887 E3.37311 F1200
G1 X161.494 Y114.579 E3.39699 F1200
G1 X161.106 Y114.778 E3.41167 F1200
G1 X160.453 Y115.061 E3.43561 F1200
G1 X159.819 Y115.285 E3.45824 F1200
G1 X159.011 Y115.514 E3.48650 F1200
G1 X158.129 Y115.687 E3.51674 F1200
G1 X157.230 Y115.785 E3.54718 F1200
G1 X156.226 Y115.805 E3.58099 F1200
G1 X155.585 Y115.770 E3.60258 F1200
G1 X154.819 Y115.676 E3.62854 F1200
G1 X154.042 Y115.526 E3.65518 F1200
G1 X153.444 Y115.369 E3.67599 F1200
G1 X152.602 Y115.083 E3.70593 F1200
G1 X152.133 Y114.887 E3.72304 F1200
G1 X151.494 Y114.579 E3.74691 F1200
G1 X151.106 Y114.778 E3.76160 F1200
G1 X150.453 Y115.061 E3.78554 F1200
G1 X149.819 Y115.285 E3.80817 F1200
G1 X149.011 Y115.514 E3.83642 F1200
G1 X148.129 Y115.687 E3.86667 F1200
G1 X147.230 Y115.785 E3.89711 F1200
G1 X146.226 Y115.805 E3.93092 F1200
G1 X145.585 Y115.770 E3.95251 F1200
G1 X144.819 Y115.676 E3.97847 F1200
G1 X144.042 Y115.526 E4.00511 F1200
G1 X143.444 Y115.369 E4.02592 F1200
G1 X142.602 Y115.083 E4.05586 F1200
G1 X142.133 Y114.887 E4.07296 F1200
G1 X141.494 Y114.579 E4.09684 F1200
G1 X141.106 Y114.778 E4.11152 F1200
G1 X140.453 Y115.061 E4.13547 F1200
G1 X139.819 Y115.285 E4.15810 F1200
G1 X139.011 Y115.514 E4.18635 F1200
G1 X138.129 Y115.687 E4.21659 F1200
G1 X137.230 Y115.785 E4.24703 F1200
G1 X136.226 Y115.805 E4.28085 F1200
G1 X135.585 Y115.770 E4.30243 F1200
G1 X134.819 Y115.676 E4.32840 F1200
G1 X134.042 Y115.526 E4.35503 F1200
G1 X133.444 Y115.369 E4.37584 F1200
G1 X132.602 Y115.083 E4.40578 F1200
G1 X132.133 Y114.887 E4.42289 F1200
G1 X131.494 Y114.578 E4.44677 F1200
G1 X131.106 Y114.778 E4.46145 F1200
G1 X130.453 Y115.061 E4.48539 F1200
G1 X129.819 Y115.285 E4.50802 F1200
G1 X129.011 Y115.514 E4.53628 F1200
G1 X128.129 Y115.687 E4.56652 F1200
G1 X127.230 Y115.785 E4.59696 F1200
G1 X126.226 Y115.805 E4.63077 F1200
G1 X125.585 Y115.770 E4.65236 F1200
G1 X124.984 Y115.698 E4.67273 F1200
G1 X124.440 Y116.336 E4.70095 F1200
G1 X123.708 Y117.056 E4.73550 F1200
G1 X122.933 Y117.687 E4.76915 F1200
G1 X122.373 Y118.076 E4.79208 F1200
G1 X121.769 Y118.437 E4.81575 F1200
G1 X121.106 Y118.778 E4.84084 F1200
G1 X120.453 Y119.061 E4.86478 F1200
G1 X119.819 Y119.285 E4.88742 F1200
G1 X119.011 Y119.514 E4.91567 F1200
G1 X118.126 Y119.687 E4.94601 F1200
G1 X117.163 Y119.789 E4.97861 F1200
G1 X116.572 Y119.809 E4.99851 F1200
G1 X116.074 Y119.802 E5.01528 F1200
G1 X115.408 Y119.755 E5.03774 F1200
G1 X114.629 Y119.646 E5.06421 F1200
G1 X114.042 Y119.526 E5.08439 F1200
G1 X113.444 Y119.369 E5.10520 F1200
G1 X112.602 Y119.083 E5.13513 F1200
G1 X112.133 Y118.887 E5.15224 F1200
G1 X111.546 Y118.607 E5.17413 F1200
G1 X110.882 Y118.235 E5.19976 F1200
G1 X110.301 Y117.854 E5.22313 F1200
G1 X109.750 Y117.443 E5.24627 F1200
G1 X109.164 Y116.940 E5.27226 F1200
G1 X108.444 Y116.208 E5.30681 F1200
G1 X107.813 Y115.433 E5.34046 F1200
G1 X107.424 Y114.873 E5.36339 F1200
G1 X107.063 Y114.269 E5.38706 F1200
G1 X106.722 Y113.606 E5.41215 F1200
G1 X106.439 Y112.953 E5.43610 F1200
G1 X106.215 Y112.319 E5.45873 F1200
G1 X105.986 Y111.511 E5.48698 F1200
G1 X105.813 Y110.629 E5.51722 F1200
G1 X105.715 Y109.730 E5.54766 F1200
G1 X105.695 Y108.726 E5.58148 F1200
G1 X105.730 Y108.085 E5.60306 F1200
G1 X105.824 Y107.319 E5.62903 F1200
G1 X105.974 Y106.542 E5.65566 F1200
G1 X106.131 Y105.944 E5.67647 F1200
G1 X106.417 Y105.102 E5.70641 F1200
G1 X106.613 Y104.633 E5.72352 F1200
G1 X106.893 Y104.046 E5.74541 F1200
G1 X107.265 Y103.382 E5.77104 F1200
G1 X107.646 Y102.801 E5.79441 F1200
G1 X108.057 Y102.250 E5.81754 F1200
G1 X108.560 Y101.664 E5.84354 F1200
G0 X108.940 Y102.048 F7200
G1 X109.633 Y101.362 E5.87637 F1200
G1 X110.376 Y100.756 E5.90864 F1200
G1 X110.905 Y100.387 E5.93032 F1200
G1 X111.479 Y100.043 E5.95285 F1200
G1 X112.110 Y99.717 E5.97676 F1200
G1 X112.728 Y99.448 E5.99946 F1200
G1 X113.329 Y99.234 E6.02091 F1200
G1 X114.094 Y99.016 E6.04768 F1200
G1 X114.931 Y98.850 E6.07641 F1200
G1 X115.856 Y98.751 E6.10773 F1200
G1 X116.065 Y98.740 E6.11477 F1200
G1 X116.889 Y98.737 E6.14252 F1200
G1 X117.518 Y98.780 E6.16373 F1200
G1 X118.258 Y98.882 E6.18885 F1200
G1 X118.467 Y98.601 E6.20064 F1200
G1 X118.940 Y98.048 E6.22512 F1200
G1 X119.633 Y97.362 E6.25796 F1200
G1 X120.376 Y96.756 E6.29022 F1200
G1 X120.905 Y96.387 E6.31191 F1200
G1 X121.479 Y96.043 E6.33443 F1200
G1 X122.110 Y95.717 E6.35834 F1200
G1 X122.728 Y95.448 E6.38104 F1200
G1 X123.329 Y95.234 E6.40249 F1200
G1 X124.094 Y95.016 E6.42927 F1200
G1 X124.931 Y94.850 E6.45799 F1200
G1 X125.856 Y94.751 E6.48931 F1200
G1 X126.065 Y94.740 E6.49635 F1200
G1 X126.889 Y94.737 E6.52410 F1200
G1 X127.518 Y94.780 E6.54531 F1200
G1 X128.263 Y94.883 E6.57064 F1200
G1 X128.822 Y94.997 E6.58983 F1200
G1 X129.383 Y95.143 E6.60933 F1200
G1 X130.191 Y95.416 E6.63802 F1200
G1 X130.636 Y95.601 E6.65422 F1200
G1 X131.276 Y95.910 E6.67813 F1200
G1 X131.497 Y96.034 E6.68665 F1200
G1 X132.110 Y95.717 E6.70989 F1200
G1 X132.728 Y95.448 E6.73258 F1200
G1 X133.329 Y95.234 E6.75404 F1200
G1 X134.094 Y95.016 E6.78081 F1200
G1 X134.931 Y94.850 E6.80953 F1200
G1 X135.856 Y94.751 E6.84085 F1200
G1 X136.065 Y94.740 E6.84789 F1200
G1 X136.889 Y94.737 E6.87564 F1200
G1 X137.518 Y94.780 E6.89686 F1200
G1 X138.263 Y94.883 E6.92218 F1200
G1 X138.822 Y94.997 E6.94137 F1200
G1 X139.383 Y95.143 E6.96087 F1200
G1 X140.191 Y95.416 E6.98956 F1200
G1 X140.636 Y95.601 E7.00576 F1200
G1 X141.191 Y95.864 E7.02644 F1200
G1 X141.496 Y96.034 E7.03819 F1200
G1 X142.110 Y95.717 E7.06146 F1200
G1 X142.728 Y95.448 E7.08416 F1200
G1 X143.329 Y95.234 E7.10561 F1200
G1 X144.094 Y95.016 E7.13238 F1200
G1 X144.931 Y94.850 E7.16111 F1200
G1 X145.856 Y94.751 E7.19243 F1200
G1 X146.065 Y94.740 E7.19947 F1200
G1 X146.889 Y94.737 E7.22722 F1200
G1 X147.518 Y94.780 E7.24843 F1200
G1 X148.263 Y94.883 E7.27376 F1200
G1 X148.822 Y94.997 E7.29295 F1200
G1 X149.383 Y95.143 E7.31245 F1200
G1 X150.191 Y95.416 E7.34114 F1200
G1 X150.636 Y95.601 E7.35734 F1200
G1 X151.191 Y95.864 E7.37802 F1200
G1 X151.496 Y96.034 E7.38977 F1200
G1 X152.110 Y95.717 E7.41304 F1200
G1 X152.728 Y95.448 E7.43574 F1200
G1 X153.329 Y95.234 E7.45719 F1200
G1 X154.094 Y95.016 E7.48396 F1200
G1 X154.931 Y94.850 E7.51269 F1200
G1 X155.856 Y94.751 E7.54400 F1200
G1 X156.065 Y94.740 E7.55104 F1200
G1 X156.889 Y94.737 E7.57879 F1200
G1 X157.518 Y94.780 E7.60001 F1200
G1 X158.263 Y94.883 E7.62533 F1200
G1 X158.822 Y94.997 E7.64453 F1200
G1 X159.383 Y95.143 E7.66403 F1200
G1 X160.191 Y95.416 E7.69272 F1200
G1 X160.636 Y95.601 E7.70892 F1200
G1 X161.191 Y95.864 E7.72959 F1200
G1 X161.496 Y96.034 E7.74135 F1200
G1 X162.110 Y95.717 E7.76462 F1200
G1 X162.728 Y95.448 E7.78731 F1200
G1 X163.329 Y95.234 E7.80876 F1200
G1 X164.094 Y95.016 E7.83554 F1200
G1 X164.931 Y94.850 E7.86426 F1200
G1 X165.856 Y94.751 E7.89558 F1200
G1 X166.065 Y94.740 E7.90262 F1200
G1 X166.889 Y94.737 E7.93037 F1200
G1 X167.518 Y94.780 E7.95158 F1200
G1 X168.263 Y94.883 E7.97691 F1200
G1 X168.822 Y94.997 E7.99610 F1200
G1 X169.383 Y95.143 E8.01560 F1200
G1 X170.191 Y95.416 E8.04429 F1200
G1 X170.636 Y95.601 E8.06049 F1200
G1 X171.191 Y95.864 E8.08117 F1200
G1 X171.823 Y96.217 E8.10552 F1200
G1 X172.377 Y96.579 E8.12778 F1200
G1 X172.899 Y96.967 E8.14967 F1200
G1 X173.452 Y97.440 E8.17415 F1200
G1 X174.138 Y98.133 E8.20698 F1200
G1 X174.744 Y98.876 E8.23924 F1200
G1 X175.113 Y99.405 E8.26093 F1200
G1 X175.457 Y99.979 E8.28346 F1200
G1 X175.783 Y100.610 E8.30737 F1200
G1 X176.052 Y101.228 E8.33007 F1200
G1 X176.266 Y101.829 E8.35152 F1200
G1 X176.484 Y102.594 E8.37829 F1200
G1 X176.650 Y103.431 E8.40702 F1200
G1 X176.749 Y104.356 E8.43834 F1200
G1 X176.769 Y104.921 E8.45736 F1200
G1 X176.763 Y105.389 E8.47312 F1200
G1 X176.720 Y106.018 E8.49434 F1200
G1 X176.617 Y106.763 E8.51966 F1200
G1 X176.503 Y107.322 E8.53886 F1200
G1 X176.357 Y107.883 E8.55836 F1200
G1 X176.084 Y108.691 E8.58705 F1200
G1 X175.899 Y109.136 E8.60325 F1200
G1 X175.636 Y109.691 E8.62392 F1200
G1 X175.283 Y110.323 E8.64827 F1200
G1 X174.921 Y110.877 E8.67053 F1200
G1 X174.533 Y111.399 E8.69242 F1200
G1 X174.060 Y111.952 E8.71690 F1200
G1 X173.367 Y112.638 E8.74974 F1200
G1 X172.624 Y113.244 E8.78200 F1200
G1 X172.095 Y113.613 E8.80369 F1200
G1 X171.521 Y113.957 E8.82621 F1200
G1 X170.890 Y114.283 E8.85012 F1200
G1 X170.272 Y114.552 E8.87282 F1200
G1 X169.671 Y114.766 E8.89427 F1200
G1 X168.906 Y114.984 E8.92105 F1200
G1 X168.069 Y115.150 E8.94977 F1200
G1 X167.218 Y115.245 E8.97860 F1200
G1 X166.255 Y115.266 E9.01103 F1200
G1 X165.650 Y115.234 E9.03140 F1200
G1 X164.921 Y115.146 E9.05612 F1200
G1 X164.178 Y115.003 E9.08158 F1200
G1 X163.617 Y114.857 E9.10108 F1200
G1 X162.809 Y114.584 E9.12977 F1200
G1 X162.364 Y114.399 E9.14597 F1200
G1 X161.809 Y114.136 E9.16664 F1200
G1 X161.504 Y113.966 E9.17840 F1200
G1 X160.890 Y114.283 E9.20167 F1200
G1 X160.272 Y114.552 E9.22436 F1200
G1 X159.671 Y114.766 E9.24582 F1200
G1 X158.906 Y114.984 E9.27259 F1200
G1 X158.069 Y115.150 E9.30131 F1200
G1 X157.218 Y115.245 E9.33014 F1200
G1 X156.255 Y115.266 E9.36257 F1200
G1 X155.650 Y115.234 E9.38294 F1200
G1 X154.921 Y115.146 E9.40766 F1200
G1 X154.178 Y115.003 E9.43312 F1200
G1 X153.617 Y114.857 E9.45262 F1200
G1 X152.809 Y114.584 E9.48131 F1200
G1 X152.364 Y114.399 E9.49751 F1200
G1 X151.809 Y114.136 E9.51819 F1200
G1 X151.504 Y113.966 E9.52994 F1200
G1 X150.890 Y114.283 E9.55321 F1200
G1 X150.272 Y114.552 E9.57591 F1200
G1 X149.671 Y114.766 E9.59736 F1200
G1 X148.906 Y114.984 E9.62413 F1200
G1 X148.069 Y115.150 E9.65286 F1200
G1 X147.218 Y115.245 E9.68168 F1200
G1 X146.255 Y115.266 E9.71411 F1200
G1 X145.650 Y115.234 E9.73449 F1200
G1 X144.921 Y115.146 E9.75920 F1200
G1 X144.178 Y115.003 E9.78466 F1200
G1 X143.617 Y114.857 E9.80416 F1200
G1 X142.809 Y114.584 E9.83285 F1200
G1 X142.364 Y114.399 E9.84905 F1200
G1 X141.809 Y114.136 E9.86973 F1200
G1 X141.504 Y113.966 E9.88148 F1200
G1 X140.890 Y114.283 E9.90475 F1200
G1 X140.272 Y114.552 E9.92745 F1200
G1 X139.671 Y114.766 E9.94890 F1200
G1 X138.906 Y114.984 E9.97567 F1200
G1 X138.069 Y115.150 E10.00440 F1200
G1 X137.218 Y115.245 E10.03323 F1200
G1 X136.255 Y115.266 E10.06566 F1200
G1 X135.650 Y115.234 E10.08603 F1200
G1 X134.921 Y115.146 E10.11075 F1200
G1 X134.178 Y115.003 E10.13621 F1200
G1 X133.617 Y114.857 E10.15570 F1200
G1 X132.809 Y114.584 E10.18440 F1200
G1 X132.364 Y114.399 E10.20059 F1200
G1 X131.809 Y114.136 E10.22127 F1200
G1 X131.503 Y113.965 E10.23306 F1200
G1 X130.890 Y114.283 E10.25629 F1200
G1 X130.272 Y114.552 E10.27899 F1200
G1 X129.671 Y114.766 E10.30044 F1200
G1 X128.906 Y114.984 E10.32722 F1200
G1 X128.069 Y115.150 E10.35594 F1200
G1 X127.218 Y115.245 E10.38477 F1200
G1 X126.255 Y115.266 E10.41720 F1200
G1 X125.650 Y115.234 E10.43757 F1200
G1 X124.921 Y115.146 E10.46229 F1200
G1 X124.746 Y115.112 E10.46828 F1200
G1 X124.533 Y115.399 E10.48031 F1200
G1 X124.060 Y115.952 E10.50479 F1200
G1 X123.367 Y116.638 E10.53762 F1200
G1 X122.624 Y117.244 E10.56988 F1200
G1 X122.095 Y117.613 E10.59157 F1200
G1 X121.521 Y117.957 E10.61410 F1200
G1 X120.890 Y118.283 E10.63801 F1200
G1 X120.272 Y118.552 E10.66071 F1200
G1 X119.671 Y118.766 E10.68216 F1200
G1 X118.906 Y118.984 E10.70893 F1200
G1 X118.069 Y119.150 E10.73766 F1200
G1 X117.144 Y119.249 E10.76898 F1200
G1 X116.579 Y119.269 E10.78800 F1200
G1 X116.111 Y119.263 E10.80376 F1200
G1 X115.482 Y119.220 E10.82498 F1200
G1 X114.737 Y119.117 E10.85030 F1200
G1 X114.178 Y119.003 E10.86950 F1200
G1 X113.617 Y118.857 E10.88900 F1200
G1 X112.809 Y118.584 E10.91769 F1200
G1 X112.364 Y118.399 E10.93389 F1200
G1 X111.809 Y118.136 E10.95456 F1200
G1 X111.177 Y117.783 E10.97891 F1200
G1 X110.623 Y117.421 E11.00117 F1200
G1 X110.101 Y117.033 E11.02306 F1200
G1 X109.548 Y116.560 E11.04754 F1200
G1 X108.862 Y115.867 E11.08038 F1200
G1 X108.256 Y115.124 E11.11264 F1200
G1 X107.887 Y114.595 E11.13433 F1200
G1 X107.543 Y114.021 E11.15685 F1200
G1 X107.217 Y113.390 E11.18076 F1200
G1 X106.948 Y112.772 E11.20346 F1200
G1 X106.734 Y112.171 E11.22491 F1200
G1 X106.516 Y111.406 E11.25169 F1200
G1 X106.350 Y110.569 E11.28041 F1200
G1 X106.255 Y109.718 E11.30924 F1200
G1 X106.234 Y108.755 E11.34167 F1200
G1 X106.266 Y108.150 E11.36204 F1200
G1 X106.354 Y107.421 E11.38676 F1200
G1 X106.497 Y106.678 E11.41222 F1200
G1 X106.643 Y106.117 E11.43172 F1200
G1 X106.916 Y105.309 E11.46041 F1200
G1 X107.101 Y104.864 E11.47661 F1200
G1 X107.364 Y104.309 E11.49728 F1200
G1 X107.717 Y103.677 E11.52163 F1200
G1 X108.079 Y103.123 E11.54389 F1200
G1 X108.467 Y102.601 E11.56578 F1200
G1 X108.940 Y102.048 E11.59026 F1200
; Inset 0 
G1 F1500 E3.59026
G0 X119.858 Y109.067 F7200
G1 F1500 E11.59026
G0 X119.502 Y109.050 F7200
G1 X119.493 Y108.762 E11.59932 F1200
G1 X119.453 Y108.456 E11.60900 F1200
G1 X119.425 Y108.322 E11.61327 F1200
G1 X119.363 Y108.094 E11.62069 F1200
G1 X119.252 Y107.799 E11.63059 F1200
G1 X119.045 Y107.407 E11.64451 F1200
G1 X118.734 Y106.993 E11.66076 F1200
G1 X118.489 Y106.751 E11.67158 F1200
G1 X118.284 Y106.584 E11.67987 F1200
G1 X118.003 Y106.401 E11.69040 F1200
G1 X117.815 Y106.301 E11.69707 F1200
G1 X117.577 Y106.197 E11.70521 F1200
G1 X117.401 Y106.136 E11.71105 F1200
G1 X117.173 Y106.074 E11.71847 F1200
G1 X116.865 Y106.020 E11.72828 F1200
G1 X116.552 Y105.998 E11.73811 F1200
G1 X116.267 Y106.006 E11.74707 F1200
G1 X116.129 Y106.020 E11.75141 F1200
G1 X115.824 Y106.074 E11.76112 F1200
G1 X115.544 Y106.153 E11.77024 F1200
G1 X115.182 Y106.301 E11.78253 F1200
G1 X114.841 Y106.497 E11.79488 F1200
G1 X114.509 Y106.751 E11.80802 F1200
G1 X114.199 Y107.071 E11.82200 F1200
G1 X113.941 Y107.429 E11.83586 F1200
G1 X113.791 Y107.706 E11.84576 F1200
G1 X113.714 Y107.879 E11.85171 F1200
G1 X113.622 Y108.146 E11.86057 F1200
G1 X113.574 Y108.328 E11.86648 F1200
G1 X113.520 Y108.635 E11.87625 F1200
G1 X113.498 Y108.947 E11.88606 F1200
G1 X113.506 Y109.236 E11.89514 F1200
G1 X113.535 Y109.470 E11.90253 F1200
G1 X113.574 Y109.677 E11.90913 F1200
G1 X113.636 Y109.903 E11.91648 F1200
G1 X113.707 Y110.102 E11.92312 F1200
G1 X113.803 Y110.319 E11.93057 F1200
G1 X113.954 Y110.593 E11.94037 F1200
G1 X114.166 Y110.890 E11.95181 F1200
G1 X114.378 Y111.124 E11.96171 F1200
G1 X114.612 Y111.335 E11.97161 F1200
G1 X114.929 Y111.559 E11.98381 F1200
G1 X115.183 Y111.698 E11.99289 F1200
G1 X115.400 Y111.795 E12.00034 F1200
G1 X115.599 Y111.864 E12.00694 F1200
G1 X115.827 Y111.926 E12.01436 F1200
G1 X116.135 Y111.980 E12.02417 F1200
G1 X116.448 Y112.002 E12.03400 F1200
G1 X116.736 Y111.994 E12.04306 F1200
G1 X116.970 Y111.965 E12.05044 F1200
G1 X117.178 Y111.925 E12.05707 F1200
G1 X117.456 Y111.847 E12.06613 F1200
G1 X117.818 Y111.699 E12.07842 F1200
G1 X118.157 Y111.505 E12.09067 F1200
G1 X118.388 Y111.335 E12.09966 F1200
G1 X118.493 Y111.246 E12.10397 F1200
G1 X118.715 Y111.027 E12.11374 F1200
G1 X118.913 Y110.786 E12.12352 F1200
G1 X119.061 Y110.567 E12.13182 F1200
G1 X119.198 Y110.318 E12.14074 F1200
G1 X119.276 Y110.145 E12.14668 F1200
G1 X119.378 Y109.854 E12.15636 F1200
G1 X119.426 Y109.674 E12.16221 F1200
G1 X119.461 Y109.493 E12.16799 F1200
G1 X119.491 Y109.262 E12.17529 F1200
G1 X119.502 Y109.050 E12.18195 F1200
G0 X120.247 Y108.908 F7200
G1 X120.246 Y109.138 E12.18918 F1200
G1 X120.232 Y109.351 E12.19587 F1200
G1 X120.203 Y109.580 E12.20310 F1200
G1 X120.168 Y109.772 E12.20923 F1200
G1 X120.113 Y109.998 E12.21652 F1200
G1 X120.012 Y110.309 E12.22677 F1200
G1 X119.853 Y110.676 E12.23931 F1200
G1 X119.698 Y110.955 E12.24934 F1200
G1 X119.623 Y111.073 E12.25371 F1200
G1 X119.459 Y111.301 E12.26251 F1200
G1 X119.285 Y111.509 E12.27102 F1200
G1 X119.011 Y111.783 E12.28319 F1200
G1 X118.751 Y111.997 E12.29375 F1200
G1 X118.534 Y112.149 E12.30205 F1200
G1 X118.405 Y112.229 E12.30679 F1200
G1 X118.180 Y112.351 E12.31481 F1200
G1 X117.930 Y112.465 E12.32342 F1200
G1 X117.761 Y112.530 E12.32911 F1200
G1 X117.440 Y112.628 E12.33964 F1200
G1 X117.081 Y112.703 E12.35114 F1200
G1 X116.801 Y112.736 E12.35997 F1200
G1 X116.593 Y112.747 E12.36651 F1200
G1 X116.362 Y112.746 E12.37377 F1200
G1 X116.149 Y112.732 E12.38047 F1200
G1 X115.916 Y112.702 E12.38782 F1200
G1 X115.721 Y112.666 E12.39404 F1200
G1 X115.502 Y112.613 E12.40112 F1200
G1 X115.184 Y112.509 E12.41161 F1200
G1 X114.824 Y112.353 E12.42393 F1200
G1 X114.545 Y112.198 E12.43396 F1200
G1 X114.427 Y112.123 E12.43833 F1200
G1 X114.197 Y111.958 E12.44723 F1200
G1 X113.991 Y111.785 E12.45568 F1200
G1 X113.717 Y111.511 E12.46784 F1200
G1 X113.500 Y111.247 E12.47856 F1200
G1 X113.351 Y111.034 E12.48670 F1200
G1 X113.267 Y110.898 E12.49170 F1200
G1 X113.148 Y110.678 E12.49956 F1200
G1 X113.033 Y110.426 E12.50826 F1200
G1 X112.970 Y110.259 E12.51386 F1200
G1 X112.872 Y109.940 E12.52432 F1200
G1 X112.797 Y109.580 E12.53586 F1200
G1 X112.764 Y109.299 E12.54472 F1200
G1 X112.752 Y108.964 E12.55525 F1200
G1 X112.758 Y108.780 E12.56104 F1200
G1 X112.785 Y108.502 E12.56981 F1200
G1 X112.832 Y108.228 E12.57854 F1200
G1 X112.887 Y108.002 E12.58584 F1200
G1 X112.988 Y107.691 E12.59608 F1200
G1 X113.149 Y107.320 E12.60878 F1200
G1 X113.302 Y107.045 E12.61865 F1200
G1 X113.377 Y106.927 E12.62302 F1200
G1 X113.541 Y106.699 E12.63182 F1200
G1 X113.715 Y106.491 E12.64034 F1200
G1 X113.989 Y106.217 E12.65250 F1200
G1 X114.249 Y106.003 E12.66306 F1200
G1 X114.466 Y105.851 E12.67136 F1200
G1 X114.595 Y105.771 E12.67610 F1200
G1 X114.820 Y105.649 E12.68412 F1200
G1 X115.070 Y105.535 E12.69273 F1200
G1 X115.239 Y105.470 E12.69842 F1200
G1 X115.560 Y105.372 E12.70895 F1200
G1 X115.919 Y105.297 E12.72045 F1200
G1 X116.199 Y105.264 E12.72929 F1200
G1 X116.407 Y105.253 E12.73582 F1200
G1 X116.638 Y105.254 E12.74308 F1200
G1 X116.851 Y105.268 E12.74978 F1200
G1 X117.084 Y105.298 E12.75713 F1200
G1 X117.279 Y105.334 E12.76336 F1200
G1 X117.498 Y105.387 E12.77043 F1200
G1 X117.816 Y105.491 E12.78093 F1200
G1 X118.176 Y105.647 E12.79325 F1200
G1 X118.455 Y105.802 E12.80327 F1200
G1 X118.573 Y105.877 E12.80764 F1200
G1 X118.801 Y106.041 E12.81644 F1200
G1 X119.009 Y106.215 E12.82496 F1200
G1 X119.283 Y106.489 E12.83712 F1200
G1 X119.500 Y106.753 E12.84784 F1200
G1 X119.649 Y106.966 E12.85598 F1200
G1 X119.726 Y107.090 E12.86054 F1200
G1 X119.851 Y107.320 E12.86874 F1200
G1 X119.967 Y107.574 E12.87751 F1200
G1 X120.030 Y107.739 E12.88304 F1200
G1 X120.128 Y108.060 E12.89357 F1200
G1 X120.203 Y108.419 E12.90508 F1200
G1 X120.236 Y108.699 E12.91391 F1200
G1 X120.247 Y108.908 E12.92048 F1200
; Solid infill 
G0 X119.862 Y108.746 F7200
G1 Y108.718 E12.92090 F1200
G1 X119.713 Y107.991 E12.93163 F1200
G1 X119.708 Y107.973 E12.93188 F1200
G1 X119.673 Y107.855 E12.93367 F1200
G1 X119.584 Y107.659 E12.93671 F1200
G1 X119.578 Y107.647 E12.93689 F1200
G1 X119.353 Y107.225 E12.94318 F1200
G1 X119.344 Y107.211 E12.94339 F1200
G1 X119.202 Y106.988 E12.94719 F1200
G1 X119.014 Y106.761 E12.95154 F1200
G1 X119 Y106.746 E12.95181 F1200
G1 X118.755 Y106.500 E12.95699 F1200
G1 X118.502 Y106.300 E12.96167 F1200
G1 X118.481 Y106.286 E12.96199 F1200
G1 X118.001 Y105.991 E12.97035 F1200
G1 X117.725 Y105.863 E12.97500 F1200
G1 X117.698 Y105.852 E12.97540 F1200
G1 X117.390 Y105.756 E12.98030 F1200
G1 X116.923 Y105.655 E12.98765 F1200
G1 X116.895 Y105.651 E12.98806 F1200
G1 X116.811 Y105.644 E12.98934 F1200
G1 X116.095 Y105.655 E13.00005 F1200
G1 X116.069 Y105.657 E13.00043 F1200
G1 X115.986 Y105.668 E13.00166 F1200
G1 X115.435 Y105.800 E13.01014 F1200
G1 X115.416 Y105.805 E13.01041 F1200
G1 X115.355 Y105.825 E13.01136 F1200
G1 X115.033 Y105.977 E13.01634 F1200
G1 X115.021 Y105.984 E13.01650 F1200
G1 X114.644 Y106.194 E13.02215 F1200
G1 X114.632 Y106.202 E13.02234 F1200
G1 X114.478 Y106.301 E13.02498 F1200
G1 X114.275 Y106.471 E13.02885 F1200
G1 X114.262 Y106.482 E13.02909 F1200
G1 X113.991 Y106.745 E13.03459 F1200
G1 X113.918 Y106.829 E13.03625 F1200
G1 X113.908 Y106.842 E13.03649 F1200
G1 X113.687 Y107.139 E13.04203 F1200
G1 X113.635 Y107.224 E13.04349 F1200
G1 X113.626 Y107.240 E13.04375 F1200
G1 X113.374 Y107.737 E13.05174 F1200
G1 X113.366 Y107.755 E13.05202 F1200
G1 X113.341 Y107.817 E13.05300 F1200
G1 X113.223 Y108.238 E13.05935 F1200
G1 X113.218 Y108.257 E13.05961 F1200
G1 X113.165 Y108.545 E13.06400 F1200
G1 X113.136 Y108.929 E13.06974 F1200
G1 Y108.954 E13.07009 F1200
G1 X113.148 Y109.273 E13.07492 F1200
G1 X113.223 Y109.744 E13.08196 F1200
G1 X113.228 Y109.769 E13.08229 F1200
G1 X113.330 Y110.125 E13.08773 F1200
G1 X113.474 Y110.468 E13.09325 F1200
G1 X113.485 Y110.490 E13.09358 F1200
G1 X113.673 Y110.826 E13.09935 F1200
G1 X113.879 Y111.106 E13.10443 F1200
G1 X113.894 Y111.124 E13.10473 F1200
G1 X114.244 Y111.501 E13.11220 F1200
G1 X114.370 Y111.613 E13.11474 F1200
G1 X114.390 Y111.629 E13.11510 F1200
G1 X114.640 Y111.805 E13.11980 F1200
G1 X115.010 Y112.016 E13.12619 F1200
G1 X115.033 Y112.027 E13.12653 F1200
G1 X115.318 Y112.149 E13.13119 F1200
G1 X115.732 Y112.283 E13.13794 F1200
G1 X115.757 Y112.290 E13.13831 F1200
G1 X115.788 Y112.296 E13.13878 F1200
G1 X116.431 Y112.356 E13.14787 F1200
G1 X116.454 Y112.357 E13.14817 F1200
G1 X116.779 Y112.350 E13.15295 F1200
G1 X117.247 Y112.275 E13.15994 F1200
G1 X117.271 Y112.270 E13.16026 F1200
G1 X117.641 Y112.165 E13.16586 F1200
G1 X117.965 Y112.021 E13.17100 F1200
G1 X117.988 Y112.009 E13.17132 F1200
G1 X118.515 Y111.691 E13.18030 F1200
G1 X118.723 Y111.527 E13.18433 F1200
G1 X118.743 Y111.510 E13.18469 F1200
G1 X119.004 Y111.249 E13.19024 F1200
G1 X119.201 Y111.015 E13.19490 F1200
G1 X119.216 Y110.994 E13.19526 F1200
G1 X119.307 Y110.857 E13.19777 F1200
G1 X119.611 Y110.291 E13.20746 F1200
G1 X119.623 Y110.266 E13.20784 F1200
G1 X119.658 Y110.176 E13.20927 F1200
G1 X119.797 Y109.692 E13.21711 F1200
G1 X119.818 Y109.565 E13.21902 F1200
G1 X119.821 Y109.539 E13.21938 F1200
G1 X119.862 Y108.746 E13.23077 F1200
; Inset 0 
G1 F1500 E5.23077
G0 X129.551 Y105.079 F7200
G1 F1500 E13.23077
G1 X129.549 Y104.867 E13.23744 F1200
G1 X129.536 Y104.679 E13.24335 F1200
G1 X129.497 Y104.418 E13.25161 F1200
G1 X129.448 Y104.205 E13.25846 F1200
G1 X129.331 Y103.857 E13.27000 F1200
G1 X129.207 Y103.588 E13.27930 F1200
G1 X129.016 Y103.270 E13.29093 F1200
G1 X128.803 Y102.996 E13.30184 F1200
G1 X128.545 Y102.734 E13.31337 F1200
G1 X128.417 Y102.625 E13.31865 F1200
G1 X128.183 Y102.454 E13.32774 F1200
G1 X127.957 Y102.317 E13.33604 F1200
G1 X127.764 Y102.221 E13.34279 F1200
G1 X127.569 Y102.141 E13.34939 F1200
G1 X127.392 Y102.081 E13.35524 F1200
G1 X127.211 Y102.032 E13.36112 F1200
G1 X126.978 Y101.985 E13.36857 F1200
G1 X126.816 Y101.964 E13.37369 F1200
G1 X126.553 Y101.948 E13.38196 F1200
G1 X126.313 Y101.953 E13.38950 F1200
G1 X126.073 Y101.977 E13.39707 F1200
G1 X125.787 Y102.032 E13.40622 F1200
G1 X125.556 Y102.097 E13.41373 F1200
G1 X125.330 Y102.180 E13.42128 F1200
G1 X125.087 Y102.294 E13.42970 F1200
G1 X124.727 Y102.514 E13.44293 F1200
G1 X124.438 Y102.749 E13.45462 F1200
G1 X124.267 Y102.919 E13.46220 F1200
G1 X124.109 Y103.102 E13.46977 F1200
G1 X123.911 Y103.382 E13.48052 F1200
G1 X123.745 Y103.686 E13.49140 F1200
G1 X123.641 Y103.932 E13.49979 F1200
G1 X123.551 Y104.211 E13.50900 F1200
G1 X123.485 Y104.520 E13.51890 F1200
G1 X123.464 Y104.684 E13.52409 F1200
G1 X123.448 Y104.947 E13.53235 F1200
G1 X123.453 Y105.187 E13.53990 F1200
G1 X123.477 Y105.427 E13.54747 F1200
G1 X123.531 Y105.712 E13.55659 F1200
G1 X123.581 Y105.894 E13.56249 F1200
G1 X123.641 Y106.071 E13.56834 F1200
G1 X123.735 Y106.293 E13.57592 F1200
G1 X123.911 Y106.619 E13.58754 F1200
G1 X124.141 Y106.939 E13.59993 F1200
G1 X124.252 Y107.066 E13.60521 F1200
G1 X124.458 Y107.270 E13.61429 F1200
G1 X124.684 Y107.454 E13.62344 F1200
G1 X124.882 Y107.589 E13.63095 F1200
G1 X125.069 Y107.696 E13.63771 F1200
G1 X125.334 Y107.822 E13.64692 F1200
G1 X125.660 Y107.935 E13.65776 F1200
G1 X126.019 Y108.014 E13.66930 F1200
G1 X126.186 Y108.036 E13.67458 F1200
G1 X126.552 Y108.052 E13.68608 F1200
G1 X126.793 Y108.038 E13.69366 F1200
G1 X127.003 Y108.011 E13.70029 F1200
G1 X127.163 Y107.980 E13.70538 F1200
G1 X127.393 Y107.919 E13.71283 F1200
G1 X127.571 Y107.859 E13.71871 F1200
G1 X127.793 Y107.765 E13.72628 F1200
G1 X128.117 Y107.590 E13.73785 F1200
G1 X128.340 Y107.436 E13.74636 F1200
G1 X128.621 Y107.195 E13.75799 F1200
G1 X128.857 Y106.940 E13.76890 F1200
G1 X129.089 Y106.619 E13.78135 F1200
G1 X129.221 Y106.383 E13.78983 F1200
G1 X129.350 Y106.093 E13.79980 F1200
G1 X129.435 Y105.839 E13.80819 F1200
G1 X129.510 Y105.506 E13.81891 F1200
G1 X129.536 Y105.317 E13.82488 F1200
G1 X129.551 Y105.079 E13.83236 F1200
G0 X130.247 Y104.908 F7200
G1 Y105.090 E13.83808 F1200
G1 X130.230 Y105.365 E13.84672 F1200
G1 X130.203 Y105.580 E13.85351 F1200
G1 X130.165 Y105.786 E13.86008 F1200
G1 X130.106 Y106.024 E13.86778 F1200
G1 X130.013 Y106.307 E13.87712 F1200
G1 X129.851 Y106.680 E13.88988 F1200
G1 X129.736 Y106.892 E13.89745 F1200
G1 X129.549 Y107.179 E13.90820 F1200
G1 X129.411 Y107.361 E13.91537 F1200
G1 X129.286 Y107.508 E13.92140 F1200
G1 X129.059 Y107.738 E13.93156 F1200
G1 X128.936 Y107.849 E13.93674 F1200
G1 X128.704 Y108.031 E13.94598 F1200
G1 X128.394 Y108.235 E13.95764 F1200
G1 X128.180 Y108.351 E13.96528 F1200
G1 X127.930 Y108.465 E13.97389 F1200
G1 X127.761 Y108.530 E13.97958 F1200
G1 X127.440 Y108.628 E13.99011 F1200
G1 X127.081 Y108.703 E14.00161 F1200
G1 X126.799 Y108.736 E14.01051 F1200
G1 X126.464 Y108.748 E14.02104 F1200
G1 X126.273 Y108.741 E14.02704 F1200
G1 X126.002 Y108.715 E14.03559 F1200
G1 X125.729 Y108.668 E14.04430 F1200
G1 X125.502 Y108.613 E14.05162 F1200
G1 X125.184 Y108.509 E14.06212 F1200
G1 X124.824 Y108.353 E14.07444 F1200
G1 X124.545 Y108.198 E14.08447 F1200
G1 X124.427 Y108.123 E14.08883 F1200
G1 X124.197 Y107.958 E14.09773 F1200
G1 X123.991 Y107.785 E14.10618 F1200
G1 X123.717 Y107.511 E14.11835 F1200
G1 X123.500 Y107.247 E14.12907 F1200
G1 X123.351 Y107.034 E14.13721 F1200
G1 X123.267 Y106.898 E14.14220 F1200
G1 X123.148 Y106.678 E14.15006 F1200
G1 X123.033 Y106.426 E14.15877 F1200
G1 X122.970 Y106.259 E14.16436 F1200
G1 X122.872 Y105.940 E14.17483 F1200
G1 X122.797 Y105.580 E14.18636 F1200
G1 X122.764 Y105.301 E14.19517 F1200
G1 X122.753 Y105.092 E14.20173 F1200
G1 X122.754 Y104.861 E14.20899 F1200
G1 X122.768 Y104.649 E14.21566 F1200
G1 X122.797 Y104.420 E14.22289 F1200
G1 X122.832 Y104.228 E14.22902 F1200
G1 X122.887 Y104.002 E14.23631 F1200
G1 X122.988 Y103.691 E14.24655 F1200
G1 X123.149 Y103.320 E14.25925 F1200
G1 X123.302 Y103.045 E14.26912 F1200
G1 X123.377 Y102.927 E14.27349 F1200
G1 X123.541 Y102.699 E14.28229 F1200
G1 X123.715 Y102.491 E14.29081 F1200
G1 X123.989 Y102.217 E14.30297 F1200
G1 X124.249 Y102.003 E14.31353 F1200
G1 X124.466 Y101.851 E14.32183 F1200
G1 X124.595 Y101.771 E14.32658 F1200
G1 X124.820 Y101.649 E14.33459 F1200
G1 X125.070 Y101.535 E14.34320 F1200
G1 X125.239 Y101.470 E14.34889 F1200
G1 X125.560 Y101.372 E14.35942 F1200
G1 X125.919 Y101.297 E14.37093 F1200
G1 X126.199 Y101.264 E14.37976 F1200
G1 X126.407 Y101.253 E14.38630 F1200
G1 X126.638 Y101.254 E14.39356 F1200
G1 X126.851 Y101.268 E14.40025 F1200
G1 X127.084 Y101.298 E14.40761 F1200
G1 X127.279 Y101.334 E14.41383 F1200
G1 X127.498 Y101.387 E14.42090 F1200
G1 X127.816 Y101.491 E14.43140 F1200
G1 X128.180 Y101.649 E14.44385 F1200
G1 X128.405 Y101.771 E14.45186 F1200
G1 X128.532 Y101.850 E14.45654 F1200
G1 X128.816 Y102.053 E14.46751 F1200
G1 X128.929 Y102.145 E14.47207 F1200
G1 X129.176 Y102.375 E14.48266 F1200
G1 X129.407 Y102.634 E14.49357 F1200
G1 X129.590 Y102.878 E14.50316 F1200
G1 X129.734 Y103.105 E14.51158 F1200
G1 X129.851 Y103.320 E14.51925 F1200
G1 X130.012 Y103.691 E14.53195 F1200
G1 X130.102 Y103.965 E14.54100 F1200
G1 X130.184 Y104.311 E14.55216 F1200
G1 X130.236 Y104.699 E14.56445 F1200
G1 X130.247 Y104.908 E14.57102 F1200
; Solid infill 
G0 X129.881 Y105.077 F7200
G1 X129.878 Y104.724 E14.57507 F1200
G1 X129.831 Y104.360 E14.57941 F1200
G1 X129.827 Y104.342 E14.57961 F1200
G1 X129.761 Y104.061 E14.58297 F1200
G1 X129.651 Y103.740 E14.58694 F1200
G1 X129.644 Y103.723 E14.58714 F1200
G1 X129.531 Y103.479 E14.59035 F1200
G1 X129.299 Y103.086 E14.59572 F1200
G1 X129.286 Y103.068 E14.59595 F1200
G1 X129.124 Y102.861 E14.59912 F1200
G1 X128.694 Y102.408 E14.60726 F1200
G1 X128.642 Y102.364 E14.60808 F1200
G1 X128.622 Y102.349 E14.60836 F1200
G1 X128.015 Y101.962 E14.61702 F1200
G1 X127.914 Y101.912 E14.61835 F1200
G1 X127.892 Y101.903 E14.61861 F1200
G1 X127.396 Y101.734 E14.62514 F1200
G1 X127.046 Y101.650 E14.62960 F1200
G1 X127.021 Y101.645 E14.62988 F1200
G1 X126.812 Y101.626 E14.63246 F1200
G1 X126.039 Y101.634 E14.64210 F1200
G1 X126.014 Y101.636 E14.64239 F1200
G1 X125.982 Y101.641 E14.64277 F1200
G1 X125.349 Y101.808 E14.65097 F1200
G1 X125.208 Y101.865 E14.65277 F1200
G1 X125.189 Y101.874 E14.65300 F1200
G1 X124.538 Y102.230 E14.66104 F1200
G1 X124.521 Y102.240 E14.66125 F1200
G1 X124.464 Y102.280 E14.66206 F1200
G1 X124.022 Y102.676 E14.66908 F1200
G1 X124.009 Y102.688 E14.66928 F1200
G1 X123.972 Y102.729 E14.66994 F1200
G1 X123.666 Y103.125 E14.67605 F1200
G1 X123.625 Y103.191 E14.67697 F1200
G1 X123.616 Y103.207 E14.67718 F1200
G1 X123.319 Y103.802 E14.68485 F1200
G1 X123.316 Y103.808 E14.68492 F1200
G1 X123.311 Y103.823 E14.68510 F1200
G1 X123.184 Y104.304 E14.69139 F1200
G1 X123.135 Y104.641 E14.69537 F1200
G1 X123.133 Y104.661 E14.69557 F1200
G1 X123.120 Y105.281 E14.70269 F1200
G1 X123.141 Y105.463 E14.70483 F1200
G1 X123.144 Y105.482 E14.70503 F1200
G1 X123.298 Y106.135 E14.71264 F1200
G1 X123.315 Y106.183 E14.71323 F1200
G1 X123.323 Y106.201 E14.71344 F1200
G1 X123.615 Y106.794 E14.72102 F1200
G1 X123.623 Y106.810 E14.72121 F1200
G1 X123.645 Y106.845 E14.72170 F1200
G1 X124.001 Y107.286 E14.72802 F1200
G1 X124.014 Y107.300 E14.72821 F1200
G1 X124.231 Y107.515 E14.73183 F1200
G1 X124.624 Y107.830 E14.73838 F1200
G1 X124.690 Y107.874 E14.73932 F1200
G1 X124.707 Y107.884 E14.73953 F1200
G1 X125.197 Y108.135 E14.74567 F1200
G1 X125.216 Y108.143 E14.74590 F1200
G1 X125.302 Y108.176 E14.74698 F1200
G1 X126.045 Y108.362 E14.75662 F1200
G1 X126.141 Y108.375 E14.75777 F1200
G1 X126.169 Y108.377 E14.75808 F1200
G1 X126.776 Y108.367 E14.76588 F1200
G1 X127.223 Y108.306 E14.77139 F1200
G1 X127.245 Y108.302 E14.77161 F1200
G1 X127.650 Y108.189 E14.77646 F1200
G1 X127.929 Y108.067 E14.77998 F1200
G1 X127.944 Y108.060 E14.78014 F1200
G1 X128.506 Y107.741 E14.78723 F1200
G1 X128.539 Y107.716 E14.78771 F1200
G1 X128.555 Y107.703 E14.78794 F1200
G1 X129.023 Y107.268 E14.79562 F1200
G1 X129.117 Y107.161 E14.79732 F1200
G1 X129.129 Y107.145 E14.79754 F1200
G1 X129.429 Y106.712 E14.80381 F1200
G1 X129.522 Y106.546 E14.80610 F1200
G1 X129.530 Y106.529 E14.80630 F1200
G1 X129.682 Y106.177 E14.81086 F1200
G1 X129.762 Y105.942 E14.81386 F1200
G1 X129.767 Y105.922 E14.81409 F1200
G1 X129.814 Y105.709 E14.81677 F1200
G1 X129.880 Y105.095 E14.82389 F1200
G1 X129.881 Y105.077 E14.82406 F1200
; Inset 0 
G1 F1500 E6.82406
G0 X139.602 Y104.944 F7200
G1 F1500 E14.82406
G1 X139.588 Y104.700 E14.83173 F1200
G1 X139.535 Y104.356 E14.84267 F1200
G1 X139.483 Y104.144 E14.84952 F1200
G1 X139.424 Y103.963 E14.85549 F1200
G1 X139.345 Y103.761 E14.86228 F1200
G1 X139.212 Y103.492 E14.87171 F1200
G1 X138.981 Y103.136 E14.88504 F1200
G1 X138.874 Y103.003 E14.89038 F1200
G1 X138.672 Y102.784 E14.89971 F1200
G1 X138.367 Y102.522 E14.91235 F1200
G1 X138.076 Y102.327 E14.92335 F1200
G1 X137.882 Y102.221 E14.93030 F1200
G1 X137.586 Y102.093 E14.94042 F1200
G1 X137.353 Y102.017 E14.94812 F1200
G1 X137.092 Y101.955 E14.95654 F1200
G1 X136.852 Y101.918 E14.96415 F1200
G1 X136.687 Y101.903 E14.96933 F1200
G1 X136.470 Y101.898 E14.97615 F1200
G1 X136.150 Y101.917 E14.98621 F1200
G1 X135.958 Y101.945 E14.99231 F1200
G1 X135.646 Y102.017 E15.00237 F1200
G1 X135.460 Y102.077 E15.00850 F1200
G1 X135.117 Y102.222 E15.02019 F1200
G1 X134.920 Y102.330 E15.02723 F1200
G1 X134.528 Y102.604 E15.04225 F1200
G1 X134.286 Y102.826 E15.05256 F1200
G1 X134.088 Y103.049 E15.06193 F1200
G1 X133.883 Y103.333 E15.07293 F1200
G1 X133.735 Y103.594 E15.08236 F1200
G1 X133.594 Y103.913 E15.09330 F1200
G1 X133.517 Y104.146 E15.10100 F1200
G1 X133.455 Y104.408 E15.10945 F1200
G1 X133.418 Y104.648 E15.11706 F1200
G1 X133.403 Y104.813 E15.12224 F1200
G1 X133.398 Y105.056 E15.12988 F1200
G1 X133.417 Y105.350 E15.13912 F1200
G1 X133.445 Y105.542 E15.14522 F1200
G1 X133.518 Y105.857 E15.15537 F1200
G1 X133.633 Y106.186 E15.16631 F1200
G1 X133.723 Y106.386 E15.17319 F1200
G1 X133.827 Y106.576 E15.17998 F1200
G1 X133.975 Y106.803 E15.18847 F1200
G1 X134.158 Y107.036 E15.19777 F1200
G1 X134.327 Y107.215 E15.20550 F1200
G1 X134.549 Y107.412 E15.21481 F1200
G1 X134.833 Y107.617 E15.22581 F1200
G1 X135.094 Y107.765 E15.23524 F1200
G1 X135.413 Y107.906 E15.24618 F1200
G1 X135.646 Y107.983 E15.25388 F1200
G1 X135.908 Y108.045 E15.26233 F1200
G1 X136.148 Y108.082 E15.26994 F1200
G1 X136.313 Y108.097 E15.27512 F1200
G1 X136.556 Y108.102 E15.28276 F1200
G1 X136.800 Y108.088 E15.29043 F1200
G1 X137.144 Y108.035 E15.30137 F1200
G1 X137.358 Y107.982 E15.30828 F1200
G1 X137.641 Y107.886 E15.31765 F1200
G1 X138.005 Y107.714 E15.33029 F1200
G1 X138.322 Y107.512 E15.34207 F1200
G1 X138.497 Y107.375 E15.34905 F1200
G1 X138.716 Y107.172 E15.35842 F1200
G1 X138.978 Y106.867 E15.37105 F1200
G1 X139.173 Y106.576 E15.38205 F1200
G1 X139.279 Y106.382 E15.38900 F1200
G1 X139.407 Y106.086 E15.39912 F1200
G1 X139.483 Y105.853 E15.40682 F1200
G1 X139.545 Y105.592 E15.41524 F1200
G1 X139.582 Y105.352 E15.42285 F1200
G1 X139.597 Y105.187 E15.42804 F1200
G1 X139.602 Y104.944 E15.43567 F1200
G0 X140.247 Y104.908 F7200
G1 X140.246 Y105.138 E15.44290 F1200
G1 X140.232 Y105.351 E15.44960 F1200
G1 X140.203 Y105.580 E15.45683 F1200
G1 X140.168 Y105.772 E15.46295 F1200
G1 X140.113 Y105.998 E15.47025 F1200
G1 X140.012 Y106.309 E15.48049 F1200
G1 X139.853 Y106.676 E15.49303 F1200
G1 X139.698 Y106.955 E15.50306 F1200
G1 X139.623 Y107.073 E15.50743 F1200
G1 X139.459 Y107.301 E15.51623 F1200
G1 X139.285 Y107.509 E15.52475 F1200
G1 X139.011 Y107.783 E15.53691 F1200
G1 X138.751 Y107.997 E15.54747 F1200
G1 X138.534 Y108.149 E15.55577 F1200
G1 X138.405 Y108.229 E15.56052 F1200
G1 X138.180 Y108.351 E15.56853 F1200
G1 X137.930 Y108.465 E15.57714 F1200
G1 X137.761 Y108.530 E15.58283 F1200
G1 X137.440 Y108.628 E15.59336 F1200
G1 X137.081 Y108.703 E15.60486 F1200
G1 X136.799 Y108.736 E15.61376 F1200
G1 X136.464 Y108.748 E15.62429 F1200
G1 X136.273 Y108.741 E15.63029 F1200
G1 X136.002 Y108.715 E15.63884 F1200
G1 X135.729 Y108.668 E15.64755 F1200
G1 X135.502 Y108.613 E15.65487 F1200
G1 X135.184 Y108.509 E15.66537 F1200
G1 X134.824 Y108.353 E15.67769 F1200
G1 X134.545 Y108.198 E15.68772 F1200
G1 X134.427 Y108.123 E15.69209 F1200
G1 X134.197 Y107.958 E15.70098 F1200
G1 X133.991 Y107.785 E15.70944 F1200
G1 X133.717 Y107.511 E15.72160 F1200
G1 X133.500 Y107.247 E15.73232 F1200
G1 X133.351 Y107.034 E15.74046 F1200
G1 X133.267 Y106.898 E15.74546 F1200
G1 X133.148 Y106.678 E15.75331 F1200
G1 X133.033 Y106.426 E15.76202 F1200
G1 X132.970 Y106.259 E15.76761 F1200
G1 X132.872 Y105.940 E15.77808 F1200
G1 X132.797 Y105.580 E15.78962 F1200
G1 X132.764 Y105.301 E15.79842 F1200
G1 X132.753 Y105.092 E15.80498 F1200
G1 X132.754 Y104.861 E15.81225 F1200
G1 X132.768 Y104.649 E15.81891 F1200
G1 X132.797 Y104.420 E15.82614 F1200
G1 X132.832 Y104.228 E15.83227 F1200
G1 X132.887 Y104.002 E15.83956 F1200
G1 X132.988 Y103.691 E15.84981 F1200
G1 X133.149 Y103.320 E15.86250 F1200
G1 X133.302 Y103.045 E15.87237 F1200
G1 X133.377 Y102.927 E15.87674 F1200
G1 X133.541 Y102.699 E15.88554 F1200
G1 X133.715 Y102.491 E15.89406 F1200
G1 X133.989 Y102.217 E15.90622 F1200
G1 X134.249 Y102.003 E15.91678 F1200
G1 X134.466 Y101.851 E15.92508 F1200
G1 X134.595 Y101.771 E15.92983 F1200
G1 X134.820 Y101.649 E15.93784 F1200
G1 X135.070 Y101.535 E15.94646 F1200
G1 X135.239 Y101.470 E15.95214 F1200
G1 X135.560 Y101.372 E15.96267 F1200
G1 X135.919 Y101.297 E15.97418 F1200
G1 X136.199 Y101.264 E15.98301 F1200
G1 X136.407 Y101.253 E15.98955 F1200
G1 X136.638 Y101.254 E15.99681 F1200
G1 X136.851 Y101.268 E16.00350 F1200
G1 X137.084 Y101.298 E16.01086 F1200
G1 X137.279 Y101.334 E16.01708 F1200
G1 X137.498 Y101.387 E16.02415 F1200
G1 X137.816 Y101.491 E16.03465 F1200
G1 X138.176 Y101.647 E16.04697 F1200
G1 X138.455 Y101.802 E16.05700 F1200
G1 X138.573 Y101.877 E16.06137 F1200
G1 X138.801 Y102.041 E16.07017 F1200
G1 X139.009 Y102.215 E16.07868 F1200
G1 X139.283 Y102.489 E16.09085 F1200
G1 X139.500 Y102.753 E16.10157 F1200
G1 X139.649 Y102.966 E16.10971 F1200
G1 X139.726 Y103.090 E16.11426 F1200
G1 X139.851 Y103.320 E16.12247 F1200
G1 X139.967 Y103.574 E16.13124 F1200
G1 X140.030 Y103.739 E16.13677 F1200
G1 X140.128 Y104.060 E16.14730 F1200
G1 X140.203 Y104.419 E16.15880 F1200
G1 X140.236 Y104.699 E16.16763 F1200
G1 X140.247 Y104.908 E16.17420 F1200
; Solid infill 
G0 X139.911 Y104.716 F7200
G1 X139.906 Y104.672 E16.17458 F1200
G1 X139.904 Y104.659 E16.17469 F1200
G1 X139.727 Y103.858 E16.18165 F1200
G1 X139.724 Y103.845 E16.18176 F1200
G1 X139.721 Y103.837 E16.18183 F1200
G1 X139.480 Y103.348 E16.18597 F1200
G1 X139.475 Y103.340 E16.18603 F1200
G1 X139.242 Y102.959 E16.18956 F1200
G1 X139.118 Y102.802 E16.19129 F1200
G1 X139.109 Y102.793 E16.19138 F1200
G1 X138.787 Y102.463 E16.19543 F1200
G1 X138.558 Y102.278 E16.19793 F1200
G1 X138.548 Y102.272 E16.19800 F1200
G1 X138.027 Y101.933 E16.20281 F1200
G1 X138.015 Y101.928 E16.20292 F1200
G1 X137.446 Y101.709 E16.20808 F1200
G1 X137.435 Y101.705 E16.20818 F1200
G1 X137.406 Y101.697 E16.20844 F1200
G1 X136.897 Y101.601 E16.21296 F1200
G1 X136.881 Y101.599 E16.21309 F1200
G1 X136.815 Y101.594 E16.21369 F1200
G1 X135.979 Y101.619 E16.22151 F1200
G1 X135.909 Y101.629 E16.22213 F1200
G1 X135.894 Y101.632 E16.22225 F1200
G1 X135.350 Y101.773 E16.22705 F1200
G1 X135.337 Y101.778 E16.22716 F1200
G1 X134.767 Y102.065 E16.23206 F1200
G1 X134.759 Y102.070 E16.23212 F1200
G1 X134.450 Y102.260 E16.23496 F1200
G1 X134.330 Y102.356 E16.23627 F1200
G1 X134.321 Y102.364 E16.23636 F1200
G1 X133.956 Y102.714 E16.24077 F1200
G1 X133.846 Y102.841 E16.24228 F1200
G1 X133.837 Y102.851 E16.24239 F1200
G1 X133.651 Y103.116 E16.24535 F1200
G1 X133.457 Y103.452 E16.24871 F1200
G1 X133.452 Y103.462 E16.24879 F1200
G1 X133.297 Y103.805 E16.25200 F1200
G1 X133.212 Y104.053 E16.25432 F1200
G1 X133.208 Y104.067 E16.25443 F1200
G1 X133.155 Y104.299 E16.25655 F1200
G1 X133.099 Y104.788 E16.26060 F1200
G1 X133.098 Y104.800 E16.26068 F1200
G1 X133.097 Y105.282 E16.26470 F1200
G1 X133.139 Y105.592 E16.26737 F1200
G1 X133.142 Y105.606 E16.26747 F1200
G1 X133.288 Y106.139 E16.27239 F1200
G1 X133.442 Y106.518 E16.27604 F1200
G1 X133.449 Y106.532 E16.27615 F1200
G1 X133.633 Y106.852 E16.27941 F1200
G1 X133.917 Y107.228 E16.28350 F1200
G1 X133.925 Y107.238 E16.28358 F1200
G1 X134.208 Y107.539 E16.28693 F1200
G1 X134.344 Y107.656 E16.28850 F1200
G1 X134.354 Y107.664 E16.28860 F1200
G1 X134.613 Y107.847 E16.29147 F1200
G1 X134.951 Y108.042 E16.29485 F1200
G1 X134.961 Y108.047 E16.29493 F1200
G1 X135.294 Y108.197 E16.29805 F1200
G1 X135.555 Y108.282 E16.30037 F1200
G1 X135.568 Y108.285 E16.30047 F1200
G1 X136.041 Y108.385 E16.30456 F1200
G1 X136.286 Y108.409 E16.30671 F1200
G1 X136.298 Y108.410 E16.30680 F1200
G1 X136.780 Y108.411 E16.31080 F1200
G1 X136.829 Y108.406 E16.31122 F1200
G1 X136.840 Y108.404 E16.31131 F1200
G1 X137.438 Y108.282 E16.31607 F1200
G1 X137.450 Y108.279 E16.31616 F1200
G1 X137.659 Y108.214 E16.31801 F1200
G1 X138.144 Y107.982 E16.32239 F1200
G1 X138.154 Y107.977 E16.32246 F1200
G1 X138.548 Y107.736 E16.32611 F1200
G1 X138.696 Y107.619 E16.32774 F1200
G1 X138.706 Y107.610 E16.32785 F1200
G1 X139.040 Y107.283 E16.33198 F1200
G1 X139.227 Y107.064 E16.33459 F1200
G1 X139.236 Y107.053 E16.33471 F1200
G1 X139.352 Y106.886 E16.33649 F1200
G1 X139.557 Y106.520 E16.34002 F1200
G1 X139.562 Y106.511 E16.34009 F1200
G1 X139.703 Y106.194 E16.34296 F1200
G1 X139.787 Y105.945 E16.34527 F1200
G1 X139.791 Y105.932 E16.34537 F1200
G1 X139.844 Y105.700 E16.34748 F1200
G1 X139.900 Y105.213 E16.35149 F1200
G1 X139.901 Y105.204 E16.35154 F1200
G1 X139.911 Y104.716 E16.35535 F1200
; Inset 0 
G1 F1500 E8.35535
G0 X149.652 Y104.944 F7200
G1 F1500 E16.35535
G1 X149.638 Y104.697 E16.36311 F1200
G1 X149.604 Y104.451 E16.37091 F1200
G1 X149.553 Y104.211 E16.37861 F1200
G1 X149.506 Y104.049 E16.38389 F1200
G1 X149.422 Y103.817 E16.39162 F1200
G1 X149.271 Y103.496 E16.40275 F1200
G1 X149.114 Y103.237 E16.41224 F1200
G1 X148.967 Y103.036 E16.42006 F1200
G1 X148.787 Y102.830 E16.42864 F1200
G1 X148.647 Y102.692 E16.43481 F1200
G1 X148.416 Y102.497 E16.44430 F1200
G1 X148.101 Y102.284 E16.45624 F1200
G1 X147.808 Y102.131 E16.46661 F1200
G1 X147.578 Y102.037 E16.47441 F1200
G1 X147.392 Y101.976 E16.48054 F1200
G1 X147.103 Y101.906 E16.48987 F1200
G1 X146.937 Y101.878 E16.49515 F1200
G1 X146.691 Y101.853 E16.50292 F1200
G1 X146.444 Y101.848 E16.51068 F1200
G1 X146.197 Y101.862 E16.51844 F1200
G1 X145.949 Y101.896 E16.52630 F1200
G1 X145.607 Y101.976 E16.53733 F1200
G1 X145.445 Y102.029 E16.54268 F1200
G1 X145.188 Y102.133 E16.55138 F1200
G1 X144.784 Y102.355 E16.56584 F1200
G1 X144.494 Y102.567 E16.57712 F1200
G1 X144.268 Y102.773 E16.58671 F1200
G1 X144.030 Y103.040 E16.59793 F1200
G1 X143.785 Y103.398 E16.61154 F1200
G1 X143.632 Y103.690 E16.62188 F1200
G1 X143.575 Y103.823 E16.62641 F1200
G1 X143.493 Y104.054 E16.63411 F1200
G1 X143.428 Y104.293 E16.64187 F1200
G1 X143.383 Y104.534 E16.64957 F1200
G1 X143.362 Y104.701 E16.65485 F1200
G1 X143.348 Y104.946 E16.66255 F1200
G1 X143.353 Y105.193 E16.67032 F1200
G1 X143.378 Y105.440 E16.67811 F1200
G1 X143.416 Y105.657 E16.68503 F1200
G1 X143.477 Y105.898 E16.69282 F1200
G1 X143.577 Y106.180 E16.70222 F1200
G1 X143.666 Y106.383 E16.70917 F1200
G1 X143.784 Y106.602 E16.71696 F1200
G1 X143.934 Y106.832 E16.72557 F1200
G1 X144.121 Y107.068 E16.73503 F1200
G1 X144.274 Y107.233 E16.74210 F1200
G1 X144.539 Y107.468 E16.75323 F1200
G1 X144.850 Y107.687 E16.76517 F1200
G1 X144.998 Y107.772 E16.77052 F1200
G1 X145.244 Y107.891 E16.77910 F1200
G1 X145.451 Y107.973 E16.78608 F1200
G1 X145.765 Y108.065 E16.79635 F1200
G1 X146.061 Y108.122 E16.80581 F1200
G1 X146.309 Y108.147 E16.81364 F1200
G1 X146.556 Y108.152 E16.82140 F1200
G1 X146.804 Y108.138 E16.82920 F1200
G1 X147.051 Y108.104 E16.83703 F1200
G1 X147.396 Y108.023 E16.84815 F1200
G1 X147.681 Y107.923 E16.85764 F1200
G1 X147.935 Y107.808 E16.86638 F1200
G1 X148.285 Y107.600 E16.87917 F1200
G1 X148.507 Y107.432 E16.88791 F1200
G1 X148.733 Y107.226 E16.89750 F1200
G1 X149.018 Y106.897 E16.91117 F1200
G1 X149.216 Y106.600 E16.92236 F1200
G1 X149.380 Y106.283 E16.93355 F1200
G1 X149.472 Y106.051 E16.94138 F1200
G1 X149.538 Y105.841 E16.94829 F1200
G1 X149.594 Y105.602 E16.95599 F1200
G1 X149.622 Y105.436 E16.96127 F1200
G1 X149.647 Y105.192 E16.96897 F1200
G1 X149.652 Y104.944 E16.97677 F1200
G0 X150.247 Y104.908 F7200
G1 X150.246 Y105.138 E16.98400 F1200
G1 X150.232 Y105.351 E16.99069 F1200
G1 X150.203 Y105.580 E16.99792 F1200
G1 X150.168 Y105.772 E17.00405 F1200
G1 X150.113 Y105.998 E17.01134 F1200
G1 X150.012 Y106.309 E17.02159 F1200
G1 X149.853 Y106.676 E17.03413 F1200
G1 X149.698 Y106.955 E17.04415 F1200
G1 X149.623 Y107.073 E17.04852 F1200
G1 X149.459 Y107.301 E17.05732 F1200
G1 X149.285 Y107.509 E17.06584 F1200
G1 X149.011 Y107.783 E17.07801 F1200
G1 X148.751 Y107.997 E17.08857 F1200
G1 X148.537 Y108.147 E17.09677 F1200
G1 X148.405 Y108.229 E17.10164 F1200
G1 X148.180 Y108.351 E17.10966 F1200
G1 X147.930 Y108.465 E17.11827 F1200
G1 X147.761 Y108.530 E17.12396 F1200
G1 X147.440 Y108.628 E17.13449 F1200
G1 X147.081 Y108.703 E17.14599 F1200
G1 X146.799 Y108.736 E17.15489 F1200
G1 X146.464 Y108.748 E17.16541 F1200
G1 X146.273 Y108.741 E17.17142 F1200
G1 X146.002 Y108.715 E17.17997 F1200
G1 X145.729 Y108.668 E17.18867 F1200
G1 X145.502 Y108.613 E17.19600 F1200
G1 X145.184 Y108.509 E17.20650 F1200
G1 X144.824 Y108.353 E17.21882 F1200
G1 X144.545 Y108.198 E17.22884 F1200
G1 X144.427 Y108.123 E17.23321 F1200
G1 X144.197 Y107.958 E17.24211 F1200
G1 X143.991 Y107.785 E17.25056 F1200
G1 X143.717 Y107.511 E17.26272 F1200
G1 X143.500 Y107.247 E17.27344 F1200
G1 X143.351 Y107.034 E17.28158 F1200
G1 X143.267 Y106.898 E17.28658 F1200
G1 X143.148 Y106.678 E17.29444 F1200
G1 X143.033 Y106.426 E17.30314 F1200
G1 X142.970 Y106.259 E17.30874 F1200
G1 X142.872 Y105.940 E17.31921 F1200
G1 X142.797 Y105.580 E17.33074 F1200
G1 X142.764 Y105.301 E17.33954 F1200
G1 X142.753 Y105.092 E17.34611 F1200
G1 X142.754 Y104.861 E17.35337 F1200
G1 X142.768 Y104.649 E17.36003 F1200
G1 X142.797 Y104.420 E17.36726 F1200
G1 X142.832 Y104.228 E17.37339 F1200
G1 X142.887 Y104.002 E17.38068 F1200
G1 X142.993 Y103.677 E17.39140 F1200
G1 X143.149 Y103.320 E17.40363 F1200
G1 X143.302 Y103.045 E17.41350 F1200
G1 X143.377 Y102.927 E17.41787 F1200
G1 X143.541 Y102.699 E17.42667 F1200
G1 X143.715 Y102.491 E17.43519 F1200
G1 X143.989 Y102.217 E17.44735 F1200
G1 X144.249 Y102.003 E17.45791 F1200
G1 X144.466 Y101.851 E17.46621 F1200
G1 X144.595 Y101.771 E17.47095 F1200
G1 X144.820 Y101.649 E17.47897 F1200
G1 X145.070 Y101.535 E17.48758 F1200
G1 X145.239 Y101.470 E17.49327 F1200
G1 X145.560 Y101.372 E17.50380 F1200
G1 X145.919 Y101.297 E17.51530 F1200
G1 X146.199 Y101.264 E17.52413 F1200
G1 X146.407 Y101.253 E17.53067 F1200
G1 X146.638 Y101.254 E17.53793 F1200
G1 X146.851 Y101.268 E17.54463 F1200
G1 X147.084 Y101.298 E17.55198 F1200
G1 X147.279 Y101.334 E17.55821 F1200
G1 X147.498 Y101.387 E17.56528 F1200
G1 X147.816 Y101.491 E17.57578 F1200
G1 X148.176 Y101.647 E17.58810 F1200
G1 X148.455 Y101.802 E17.59812 F1200
G1 X148.573 Y101.877 E17.60249 F1200
G1 X148.801 Y102.041 E17.61129 F1200
G1 X149.009 Y102.215 E17.61981 F1200
G1 X149.283 Y102.489 E17.63197 F1200
G1 X149.500 Y102.753 E17.64269 F1200
G1 X149.649 Y102.966 E17.65083 F1200
G1 X149.726 Y103.090 E17.65539 F1200
G1 X149.851 Y103.320 E17.66359 F1200
G1 X149.967 Y103.574 E17.67236 F1200
G1 X150.030 Y103.739 E17.67789 F1200
G1 X150.128 Y104.060 E17.68842 F1200
G1 X150.203 Y104.419 E17.69993 F1200
G1 X150.236 Y104.699 E17.70876 F1200
G1 X150.247 Y104.908 E17.71533 F1200
; Solid infill 
G0 X149.584 Y106.509 F7200
G1 X149.371 Y106.898 E17.71790 F1200
G1 X149.257 Y107.066 E17.71908 F1200
G1 X149.251 Y107.074 E17.71913 F1200
G1 X149.058 Y107.299 E17.72090 F1200
G1 X148.695 Y107.653 E17.72387 F1200
G0 X146.831 Y108.429 F7200
G1 X146.782 Y108.436 E17.72414 F1200
G1 X146.037 Y108.418 E17.72846 F1200
G1 X146.023 Y108.416 E17.72853 F1200
G1 X146.013 Y108.414 E17.72859 F1200
G1 X145.361 Y108.252 E17.73210 F1200
G1 X145.354 Y108.250 E17.73214 F1200
G1 X145.283 Y108.225 E17.73255 F1200
G1 X145.037 Y108.108 E17.73403 F1200
G1 F1500 E9.73403
G0 X143.100 Y104.549 F7200
G1 F1500 E17.73403
G1 X143.138 Y104.296 E17.73563 F1200
G1 X143.275 Y103.785 E17.73926 F1200
G1 X143.298 Y103.722 E17.73964 F1200
G1 X143.303 Y103.711 E17.73970 F1200
G1 X143.633 Y103.104 E17.74405 F1200
G1 X143.795 Y102.863 E17.74586 F1200
G1 X143.800 Y102.857 E17.74589 F1200
G1 X143.937 Y102.692 E17.74707 F1200
G1 X144.055 Y102.572 E17.74798 F1200
G0 X145.163 Y101.836 F7200
G1 X145.332 Y101.765 E17.74907 F1200
G1 X145.889 Y101.608 E17.75261 F1200
G1 X145.899 Y101.605 E17.75266 F1200
G1 X145.975 Y101.594 E17.75309 F1200
G1 X146.706 Y101.561 E17.75719 F1200
G1 X146.713 E17.75722 F1200
G1 X146.817 Y101.565 E17.75778 F1200
G1 X146.979 Y101.588 E17.75867 F1200
G1 X146.986 Y101.589 E17.75870 F1200
G1 X147.408 Y101.689 E17.76146 F1200
G1 X147.924 Y101.862 E17.76492 F1200
G1 X147.934 Y101.866 E17.76497 F1200
G1 X148.040 Y101.917 E17.76564 F1200
G1 X148.365 Y102.126 E17.76778 F1200
; Inset 0 
G1 F1500 E9.76778
G0 X159.702 Y105.053 F7200
G1 F1500 E17.76778
G1 X159.698 Y104.830 E17.77479 F1200
G1 X159.667 Y104.524 E17.78444 F1200
G1 X159.600 Y104.197 E17.79491 F1200
G1 X159.509 Y103.905 E17.80449 F1200
G1 X159.425 Y103.694 E17.81163 F1200
G1 X159.260 Y103.375 E17.82291 F1200
G1 X159.108 Y103.140 E17.83168 F1200
G1 X158.970 Y102.962 E17.83875 F1200
G1 X158.823 Y102.795 E17.84573 F1200
G1 X158.700 Y102.673 E17.85117 F1200
G1 X158.382 Y102.408 E17.86415 F1200
G1 X158.077 Y102.212 E17.87553 F1200
G1 X157.727 Y102.042 E17.88775 F1200
G1 X157.487 Y101.954 E17.89577 F1200
G1 X157.167 Y101.868 E17.90617 F1200
G1 X156.971 Y101.833 E17.91243 F1200
G1 X156.749 Y101.808 E17.91943 F1200
G1 X156.553 Y101.798 E17.92559 F1200
G1 X156.331 Y101.802 E17.93257 F1200
G1 X156.081 Y101.825 E17.94046 F1200
G1 X155.833 Y101.867 E17.94835 F1200
G1 X155.591 Y101.929 E17.95618 F1200
G1 X155.428 Y101.982 E17.96155 F1200
G1 X155.192 Y102.076 E17.96953 F1200
G1 X154.781 Y102.298 E17.98421 F1200
G1 X154.507 Y102.493 E17.99477 F1200
G1 X154.296 Y102.677 E18.00354 F1200
G1 X154.172 Y102.800 E18.00901 F1200
G1 X153.893 Y103.139 E18.02281 F1200
G1 X153.725 Y103.401 E18.03259 F1200
G1 X153.563 Y103.723 E18.04390 F1200
G1 X153.463 Y103.983 E18.05264 F1200
G1 X153.413 Y104.148 E18.05804 F1200
G1 X153.351 Y104.419 E18.06678 F1200
G1 X153.306 Y104.773 E18.07797 F1200
G1 X153.298 Y104.947 E18.08344 F1200
G1 X153.302 Y105.169 E18.09042 F1200
G1 X153.325 Y105.419 E18.09831 F1200
G1 X153.367 Y105.667 E18.10620 F1200
G1 X153.438 Y105.940 E18.11506 F1200
G1 X153.573 Y106.300 E18.12713 F1200
G1 X153.661 Y106.482 E18.13348 F1200
G1 X153.829 Y106.767 E18.14385 F1200
G1 X153.994 Y106.994 E18.15265 F1200
G1 X154.178 Y107.206 E18.16145 F1200
G1 X154.361 Y107.383 E18.16943 F1200
G1 X154.685 Y107.639 E18.18238 F1200
G1 X154.973 Y107.816 E18.19301 F1200
G1 X155.301 Y107.970 E18.20439 F1200
G1 X155.593 Y108.071 E18.21407 F1200
G1 X155.917 Y108.149 E18.22453 F1200
G1 X156.169 Y108.185 E18.23252 F1200
G1 X156.527 Y108.202 E18.24377 F1200
G1 X156.726 Y108.195 E18.25002 F1200
G1 X156.920 Y108.175 E18.25615 F1200
G1 X157.166 Y108.133 E18.26398 F1200
G1 X157.409 Y108.071 E18.27184 F1200
G1 X157.573 Y108.018 E18.27724 F1200
G1 X157.858 Y107.901 E18.28692 F1200
G1 X158.288 Y107.658 E18.30242 F1200
G1 X158.495 Y107.506 E18.31047 F1200
G1 X158.704 Y107.323 E18.31917 F1200
G1 X158.829 Y107.198 E18.32470 F1200
G1 X159.153 Y106.794 E18.34095 F1200
G1 X159.314 Y106.530 E18.35067 F1200
G1 X159.403 Y106.351 E18.35692 F1200
G1 X159.501 Y106.120 E18.36478 F1200
G1 X159.586 Y105.854 E18.37355 F1200
G1 X159.649 Y105.581 E18.38235 F1200
G1 X159.694 Y105.227 E18.39354 F1200
G1 X159.702 Y105.053 E18.39901 F1200
G0 X160.247 Y104.908 F7200
G1 X160.246 Y105.138 E18.40623 F1200
G1 X160.232 Y105.351 E18.41293 F1200
G1 X160.203 Y105.580 E18.42016 F1200
G1 X160.168 Y105.772 E18.42629 F1200
G1 X160.113 Y105.998 E18.43358 F1200
G1 X160.012 Y106.309 E18.44383 F1200
G1 X159.853 Y106.676 E18.45637 F1200
G1 X159.698 Y106.955 E18.46639 F1200
G1 X159.623 Y107.073 E18.47076 F1200
G1 X159.459 Y107.301 E18.47956 F1200
G1 X159.288 Y107.506 E18.48792 F1200
G1 X159.011 Y107.783 E18.50021 F1200
G1 X158.751 Y107.997 E18.51077 F1200
G1 X158.534 Y108.149 E18.51907 F1200
G1 X158.405 Y108.229 E18.52382 F1200
G1 X158.180 Y108.351 E18.53183 F1200
G1 X157.930 Y108.465 E18.54044 F1200
G1 X157.761 Y108.530 E18.54613 F1200
G1 X157.440 Y108.628 E18.55666 F1200
G1 X157.081 Y108.703 E18.56817 F1200
G1 X156.799 Y108.736 E18.57706 F1200
G1 X156.464 Y108.748 E18.58759 F1200
G1 X156.273 Y108.741 E18.59359 F1200
G1 X156.002 Y108.715 E18.60214 F1200
G1 X155.729 Y108.668 E18.61085 F1200
G1 X155.502 Y108.613 E18.61817 F1200
G1 X155.184 Y108.509 E18.62867 F1200
G1 X154.824 Y108.353 E18.64099 F1200
G1 X154.545 Y108.198 E18.65102 F1200
G1 X154.427 Y108.123 E18.65539 F1200
G1 X154.197 Y107.958 E18.66428 F1200
G1 X153.991 Y107.785 E18.67274 F1200
G1 X153.717 Y107.511 E18.68490 F1200
G1 X153.500 Y107.247 E18.69562 F1200
G1 X153.351 Y107.034 E18.70376 F1200
G1 X153.267 Y106.898 E18.70876 F1200
G1 X153.148 Y106.678 E18.71661 F1200
G1 X153.033 Y106.426 E18.72532 F1200
G1 X152.970 Y106.259 E18.73092 F1200
G1 X152.872 Y105.940 E18.74138 F1200
G1 X152.797 Y105.580 E18.75292 F1200
G1 X152.764 Y105.301 E18.76172 F1200
G1 X152.753 Y105.092 E18.76829 F1200
G1 X152.754 Y104.861 E18.77555 F1200
G1 X152.768 Y104.649 E18.78221 F1200
G1 X152.797 Y104.420 E18.78944 F1200
G1 X152.832 Y104.228 E18.79557 F1200
G1 X152.887 Y104.002 E18.80286 F1200
G1 X152.988 Y103.691 E18.81311 F1200
G1 X153.149 Y103.320 E18.82580 F1200
G1 X153.302 Y103.045 E18.83567 F1200
G1 X153.377 Y102.927 E18.84004 F1200
G1 X153.541 Y102.699 E18.84884 F1200
G1 X153.715 Y102.491 E18.85736 F1200
G1 X153.989 Y102.217 E18.86953 F1200
G1 X154.249 Y102.003 E18.88009 F1200
G1 X154.466 Y101.851 E18.88838 F1200
G1 X154.595 Y101.771 E18.89313 F1200
G1 X154.820 Y101.649 E18.90114 F1200
G1 X155.070 Y101.535 E18.90976 F1200
G1 X155.239 Y101.470 E18.91545 F1200
G1 X155.560 Y101.372 E18.92598 F1200
G1 X155.919 Y101.297 E18.93748 F1200
G1 X156.199 Y101.264 E18.94631 F1200
G1 X156.407 Y101.253 E18.95285 F1200
G1 X156.638 Y101.254 E18.96011 F1200
G1 X156.851 Y101.268 E18.96680 F1200
G1 X157.084 Y101.298 E18.97416 F1200
G1 X157.279 Y101.334 E18.98038 F1200
G1 X157.498 Y101.387 E18.98745 F1200
G1 X157.816 Y101.491 E18.99795 F1200
G1 X158.176 Y101.647 E19.01027 F1200
G1 X158.455 Y101.802 E19.02030 F1200
G1 X158.573 Y101.877 E19.02467 F1200
G1 X158.801 Y102.041 E19.03347 F1200
G1 X159.009 Y102.215 E19.04199 F1200
G1 X159.283 Y102.489 E19.05415 F1200
G1 X159.500 Y102.753 E19.06487 F1200
G1 X159.649 Y102.966 E19.07301 F1200
G1 X159.726 Y103.090 E19.07757 F1200
G1 X159.851 Y103.320 E19.08577 F1200
G1 X159.967 Y103.574 E19.09454 F1200
G1 X160.030 Y103.739 E19.10007 F1200
G1 X160.128 Y104.060 E19.11060 F1200
G1 X160.203 Y104.419 E19.12210 F1200
G1 X160.236 Y104.699 E19.13094 F1200
G1 X160.247 Y104.908 E19.13750 F1200
; Inset 0 
G1 F1500 E11.13750
G0 X169.752 Y105.054 F7200
G1 F1500 E19.13750
G1 X169.748 Y104.829 E19.14458 F1200
G1 X169.728 Y104.603 E19.15168 F1200
G1 X169.698 Y104.404 E19.15800 F1200
G1 X169.627 Y104.105 E19.16765 F1200
G1 X169.574 Y103.936 E19.17321 F1200
G1 X169.437 Y103.600 E19.18459 F1200
G1 X169.314 Y103.369 E19.19279 F1200
G1 X169.065 Y102.999 E19.20678 F1200
G1 X168.896 Y102.800 E19.21498 F1200
G1 X168.654 Y102.562 E19.22564 F1200
G1 X168.366 Y102.337 E19.23711 F1200
G1 X168.150 Y102.197 E19.24519 F1200
G1 X167.848 Y102.040 E19.25587 F1200
G1 X167.559 Y101.925 E19.26565 F1200
G1 X167.340 Y101.858 E19.27285 F1200
G1 X167.090 Y101.802 E19.28089 F1200
G1 X166.730 Y101.756 E19.29227 F1200
G1 X166.554 Y101.748 E19.29780 F1200
G1 X166.329 Y101.752 E19.30487 F1200
G1 X166.102 Y101.772 E19.31201 F1200
G1 X165.851 Y101.813 E19.31999 F1200
G1 X165.630 Y101.866 E19.32713 F1200
G1 X165.437 Y101.926 E19.33348 F1200
G1 X165.101 Y102.063 E19.34485 F1200
G1 X164.922 Y102.156 E19.35117 F1200
G1 X164.704 Y102.288 E19.35915 F1200
G1 X164.496 Y102.438 E19.36720 F1200
G1 X164.303 Y102.602 E19.37515 F1200
G1 X164.174 Y102.726 E19.38075 F1200
G1 X163.854 Y103.109 E19.39643 F1200
G1 X163.698 Y103.349 E19.40542 F1200
G1 X163.551 Y103.627 E19.41529 F1200
G1 X163.425 Y103.940 E19.42588 F1200
G1 X163.358 Y104.160 E19.43308 F1200
G1 X163.302 Y104.410 E19.44113 F1200
G1 X163.256 Y104.770 E19.45250 F1200
G1 X163.248 Y104.946 E19.45804 F1200
G1 X163.252 Y105.171 E19.46511 F1200
G1 X163.272 Y105.399 E19.47227 F1200
G1 X163.325 Y105.707 E19.48208 F1200
G1 X163.424 Y106.060 E19.49358 F1200
G1 X163.564 Y106.401 E19.50515 F1200
G1 X163.727 Y106.700 E19.51584 F1200
G1 X163.936 Y107.002 E19.52737 F1200
G1 X164.102 Y107.197 E19.53542 F1200
G1 X164.226 Y107.326 E19.54101 F1200
G1 X164.609 Y107.646 E19.55670 F1200
G1 X164.849 Y107.802 E19.56569 F1200
G1 X165.127 Y107.949 E19.57556 F1200
G1 X165.440 Y108.075 E19.58615 F1200
G1 X165.660 Y108.142 E19.59335 F1200
G1 X165.910 Y108.198 E19.60139 F1200
G1 X166.270 Y108.244 E19.61277 F1200
G1 X166.445 Y108.252 E19.61827 F1200
G1 X166.671 Y108.248 E19.62537 F1200
G1 X166.898 Y108.228 E19.63251 F1200
G1 X167.149 Y108.187 E19.64049 F1200
G1 X167.401 Y108.126 E19.64863 F1200
G1 X167.742 Y108.006 E19.65998 F1200
G1 X167.907 Y107.933 E19.66564 F1200
G1 X168.317 Y107.698 E19.68047 F1200
G1 X168.549 Y107.526 E19.68952 F1200
G1 X168.818 Y107.281 E19.70093 F1200
G1 X168.940 Y107.151 E19.70653 F1200
G1 X169.163 Y106.866 E19.71787 F1200
G1 X169.302 Y106.651 E19.72592 F1200
G1 X169.411 Y106.450 E19.73309 F1200
G1 X169.516 Y106.219 E19.74104 F1200
G1 X169.576 Y106.056 E19.74648 F1200
G1 X169.642 Y105.840 E19.75355 F1200
G1 X169.698 Y105.590 E19.76159 F1200
G1 X169.744 Y105.230 E19.77297 F1200
G1 X169.752 Y105.054 E19.77850 F1200
G0 X170.247 Y104.908 F7200
G1 X170.246 Y105.138 E19.78573 F1200
G1 X170.232 Y105.351 E19.79243 F1200
G1 X170.203 Y105.580 E19.79966 F1200
G1 X170.168 Y105.772 E19.80579 F1200
G1 X170.113 Y105.998 E19.81308 F1200
G1 X170.012 Y106.309 E19.82333 F1200
G1 X169.853 Y106.676 E19.83587 F1200
G1 X169.698 Y106.955 E19.84589 F1200
G1 X169.623 Y107.073 E19.85026 F1200
G1 X169.459 Y107.301 E19.85906 F1200
G1 X169.285 Y107.509 E19.86758 F1200
G1 X169.011 Y107.783 E19.87974 F1200
G1 X168.751 Y107.997 E19.89030 F1200
G1 X168.534 Y108.149 E19.89860 F1200
G1 X168.406 Y108.228 E19.90332 F1200
G1 X168.180 Y108.351 E19.91139 F1200
G1 X167.930 Y108.465 E19.92001 F1200
G1 X167.761 Y108.530 E19.92570 F1200
G1 X167.440 Y108.628 E19.93622 F1200
G1 X167.081 Y108.703 E19.94773 F1200
G1 X166.799 Y108.736 E19.95662 F1200
G1 X166.464 Y108.748 E19.96715 F1200
G1 X166.273 Y108.741 E19.97316 F1200
G1 X166.002 Y108.715 E19.98171 F1200
G1 X165.729 Y108.668 E19.99041 F1200
G1 X165.502 Y108.613 E19.99773 F1200
G1 X165.184 Y108.509 E20.00823 F1200
G1 X164.824 Y108.353 E20.02055 F1200
G1 X164.545 Y108.198 E20.03058 F1200
G1 X164.427 Y108.123 E20.03495 F1200
G1 X164.197 Y107.958 E20.04384 F1200
G1 X163.991 Y107.785 E20.05230 F1200
G1 X163.717 Y107.511 E20.06446 F1200
G1 X163.500 Y107.247 E20.07518 F1200
G1 X163.351 Y107.034 E20.08332 F1200
G1 X163.267 Y106.898 E20.08832 F1200
G1 X163.148 Y106.678 E20.09618 F1200
G1 X163.033 Y106.426 E20.10488 F1200
G1 X162.970 Y106.259 E20.11048 F1200
G1 X162.872 Y105.940 E20.12094 F1200
G1 X162.797 Y105.580 E20.13248 F1200
G1 X162.764 Y105.301 E20.14128 F1200
G1 X162.753 Y105.092 E20.14785 F1200
G1 X162.754 Y104.861 E20.15511 F1200
G1 X162.768 Y104.649 E20.16177 F1200
G1 X162.797 Y104.420 E20.16900 F1200
G1 X162.832 Y104.228 E20.17513 F1200
G1 X162.887 Y104.002 E20.18242 F1200
G1 X162.988 Y103.691 E20.19267 F1200
G1 X163.149 Y103.320 E20.20537 F1200
G1 X163.302 Y103.045 E20.21524 F1200
G1 X163.377 Y102.927 E20.21961 F1200
G1 X163.541 Y102.699 E20.22841 F1200
G1 X163.715 Y102.491 E20.23692 F1200
G1 X163.989 Y102.217 E20.24909 F1200
G1 X164.249 Y102.003 E20.25965 F1200
G1 X164.466 Y101.851 E20.26795 F1200
G1 X164.595 Y101.771 E20.27269 F1200
G1 X164.820 Y101.649 E20.28071 F1200
G1 X165.070 Y101.535 E20.28932 F1200
G1 X165.239 Y101.470 E20.29501 F1200
G1 X165.560 Y101.372 E20.30554 F1200
G1 X165.919 Y101.297 E20.31704 F1200
G1 X166.199 Y101.264 E20.32587 F1200
G1 X166.407 Y101.253 E20.33241 F1200
G1 X166.638 Y101.254 E20.33967 F1200
G1 X166.851 Y101.268 E20.34637 F1200
G1 X167.084 Y101.298 E20.35372 F1200
G1 X167.279 Y101.334 E20.35994 F1200
G1 X167.498 Y101.387 E20.36702 F1200
G1 X167.816 Y101.491 E20.37751 F1200
G1 X168.176 Y101.647 E20.38983 F1200
G1 X168.455 Y101.802 E20.39986 F1200
G1 X168.573 Y101.877 E20.40423 F1200
G1 X168.801 Y102.041 E20.41303 F1200
G1 X169.009 Y102.215 E20.42155 F1200
G1 X169.283 Y102.489 E20.43371 F1200
G1 X169.500 Y102.753 E20.44443 F1200
G1 X169.649 Y102.966 E20.45257 F1200
G1 X169.726 Y103.090 E20.45713 F1200
G1 X169.851 Y103.320 E20.46533 F1200
G1 X169.967 Y103.574 E20.47410 F1200
G1 X170.030 Y103.739 E20.47963 F1200
G1 X170.128 Y104.060 E20.49016 F1200
G1 X170.203 Y104.419 E20.50167 F1200
G1 X170.236 Y104.699 E20.51050 F1200
G1 X170.247 Y104.908 E20.51707 F1200
;MACROLAYER:2
;LAYER:2
M532 L2
; Inset 0 
G1 F1500 E12.51707
G0 Z0.450 F1500
G0 X119.858 Y109.067 F7200
G1 F1500 E20.51707
G0 X119.460 Y109.048 F7200
G1 X119.452 Y108.765 E20.53189 F1440
G1 X119.428 Y108.560 E20.54268 F1440
G1 X119.384 Y108.331 E20.55489 F1440
G1 X119.274 Y107.965 E20.57490 F1440
G1 X119.159 Y107.699 E20.59004 F1440
G1 X119.063 Y107.518 E20.60072 F1440
G1 X118.951 Y107.339 E20.61178 F1440
G1 X118.700 Y107.018 E20.63310 F1440
G1 X118.459 Y106.780 E20.65080 F1440
G1 X118.256 Y106.616 E20.66442 F1440
G1 X117.980 Y106.436 E20.68166 F1440
G1 X117.796 Y106.338 E20.69256 F1440
G1 X117.582 Y106.244 E20.70476 F1440
G1 X117.291 Y106.147 E20.72079 F1440
G1 X117.134 Y106.108 E20.72922 F1440
G1 X116.858 Y106.061 E20.74384 F1440
G1 X116.550 Y106.040 E20.75997 F1440
G1 X116.263 Y106.048 E20.77501 F1440
G1 X115.962 Y106.089 E20.79088 F1440
G1 X115.832 Y106.116 E20.79780 F1440
G1 X115.606 Y106.178 E20.81005 F1440
G1 X115.317 Y106.286 E20.82619 F1440
G1 X115.020 Y106.436 E20.84358 F1440
G1 X114.838 Y106.550 E20.85479 F1440
G1 X114.536 Y106.784 E20.87480 F1440
G1 X114.234 Y107.094 E20.89743 F1440
G1 X114.088 Y107.285 E20.91000 F1440
G1 X113.974 Y107.456 E20.92074 F1440
G1 X113.839 Y107.703 E20.93546 F1440
G1 X113.753 Y107.897 E20.94657 F1440
G1 X113.661 Y108.160 E20.96113 F1440
G1 X113.614 Y108.340 E20.97088 F1440
G1 X113.561 Y108.642 E20.98690 F1440
G1 X113.540 Y108.948 E21.00293 F1440
G1 X113.548 Y109.237 E21.01807 F1440
G1 X113.589 Y109.538 E21.03395 F1440
G1 X113.616 Y109.669 E21.04091 F1440
G1 X113.686 Y109.919 E21.05448 F1440
G1 X113.766 Y110.134 E21.06648 F1440
G1 X113.841 Y110.302 E21.07606 F1440
G1 X113.938 Y110.484 E21.08685 F1440
G1 X114.120 Y110.762 E21.10425 F1440
G1 X114.302 Y110.985 E21.11928 F1440
G1 X114.594 Y111.266 E21.14050 F1440
G1 X114.742 Y111.382 E21.15035 F1440
G1 X114.956 Y111.525 E21.16381 F1440
G1 X115.203 Y111.661 E21.17853 F1440
G1 X115.420 Y111.757 E21.19094 F1440
G1 X115.709 Y111.853 E21.20687 F1440
G1 X115.866 Y111.892 E21.21530 F1440
G1 X116.142 Y111.939 E21.22992 F1440
G1 X116.450 Y111.960 E21.24605 F1440
G1 X116.737 Y111.952 E21.26109 F1440
G1 X117.038 Y111.911 E21.27696 F1440
G1 X117.168 Y111.884 E21.28387 F1440
G1 X117.393 Y111.822 E21.29608 F1440
G1 X117.612 Y111.743 E21.30823 F1440
G1 X117.800 Y111.660 E21.31897 F1440
G1 X117.984 Y111.562 E21.32987 F1440
G1 X118.262 Y111.380 E21.34726 F1440
G1 X118.464 Y111.216 E21.36088 F1440
G1 X118.686 Y110.997 E21.37717 F1440
G1 X118.881 Y110.760 E21.39320 F1440
G1 X119.024 Y110.547 E21.40661 F1440
G1 X119.162 Y110.297 E21.42154 F1440
G1 X119.256 Y110.083 E21.43375 F1440
G1 X119.332 Y109.863 E21.44590 F1440
G1 X119.397 Y109.610 E21.45957 F1440
G1 X119.449 Y109.257 E21.47822 F1440
G1 X119.460 Y109.048 E21.48917 F1440
G0 X120.289 Y108.906 F7200
G1 X120.288 Y109.126 E21.50069 F1440
G1 X120.272 Y109.369 E21.51342 F1440
G1 X120.239 Y109.625 E21.52694 F1440
G1 X120.171 Y109.944 E21.54402 F1440
G1 X120.113 Y110.144 E21.55491 F1440
G1 X120.002 Y110.450 E21.57194 F1440
G1 X119.895 Y110.685 E21.58545 F1440
G1 X119.764 Y110.927 E21.59986 F1440
G1 X119.630 Y111.138 E21.61290 F1440
G1 X119.380 Y111.464 E21.63438 F1440
G1 X119.154 Y111.705 E21.65167 F1440
G1 X119.033 Y111.820 E21.66036 F1440
G1 X118.786 Y112.023 E21.67707 F1440
G1 X118.560 Y112.182 E21.69153 F1440
G1 X118.258 Y112.358 E21.70981 F1440
G1 X118.076 Y112.447 E21.72040 F1440
G1 X117.764 Y112.573 E21.73800 F1440
G1 X117.445 Y112.671 E21.75544 F1440
G1 X117.218 Y112.722 E21.76759 F1440
G1 X117 Y112.757 E21.77912 F1440
G1 X116.800 Y112.778 E21.78965 F1440
G1 X116.595 Y112.789 E21.80039 F1440
G1 X116.374 Y112.788 E21.81196 F1440
G1 X116.131 Y112.772 E21.82469 F1440
G1 X115.875 Y112.739 E21.83821 F1440
G1 X115.556 Y112.671 E21.85529 F1440
G1 X115.355 Y112.613 E21.86623 F1440
G1 X115.050 Y112.502 E21.88321 F1440
G1 X114.814 Y112.395 E21.89677 F1440
G1 X114.570 Y112.262 E21.91129 F1440
G1 X114.358 Y112.127 E21.92443 F1440
G1 X114.036 Y111.880 E21.94565 F1440
G1 X113.795 Y111.654 E21.96294 F1440
G1 X113.680 Y111.533 E21.97163 F1440
G1 X113.477 Y111.286 E21.98834 F1440
G1 X113.317 Y111.058 E22.00291 F1440
G1 X113.141 Y110.756 E22.02119 F1440
G1 X113.053 Y110.576 E22.03167 F1440
G1 X112.927 Y110.264 E22.04927 F1440
G1 X112.828 Y109.940 E22.06697 F1440
G1 X112.778 Y109.717 E22.07892 F1440
G1 X112.743 Y109.500 E22.09039 F1440
G1 X112.721 Y109.292 E22.10134 F1440
G1 X112.710 Y108.972 E22.11810 F1440
G1 X112.716 Y108.780 E22.12816 F1440
G1 X112.763 Y108.367 E22.14990 F1440
G1 X112.829 Y108.056 E22.16650 F1440
G1 X112.887 Y107.855 E22.17745 F1440
G1 X112.998 Y107.550 E22.19442 F1440
G1 X113.105 Y107.315 E22.20794 F1440
G1 X113.238 Y107.070 E22.22250 F1440
G1 X113.370 Y106.862 E22.23539 F1440
G1 X113.620 Y106.536 E22.25687 F1440
G1 X113.846 Y106.295 E22.27415 F1440
G1 X113.967 Y106.180 E22.28285 F1440
G1 X114.214 Y105.977 E22.29956 F1440
G1 X114.442 Y105.817 E22.31412 F1440
G1 X114.742 Y105.642 E22.33230 F1440
G1 X114.924 Y105.553 E22.34288 F1440
G1 X115.236 Y105.427 E22.36048 F1440
G1 X115.555 Y105.329 E22.37793 F1440
G1 X115.783 Y105.278 E22.39013 F1440
G1 X116 Y105.243 E22.40161 F1440
G1 X116.200 Y105.222 E22.41214 F1440
G1 X116.405 Y105.211 E22.42287 F1440
G1 X116.626 Y105.212 E22.43445 F1440
G1 X116.869 Y105.228 E22.44718 F1440
G1 X117.125 Y105.261 E22.46070 F1440
G1 X117.444 Y105.329 E22.47777 F1440
G1 X117.645 Y105.387 E22.48872 F1440
G1 X117.950 Y105.498 E22.50569 F1440
G1 X118.185 Y105.605 E22.51921 F1440
G1 X118.430 Y105.738 E22.53377 F1440
G1 X118.642 Y105.873 E22.54692 F1440
G1 X118.964 Y106.120 E22.56814 F1440
G1 X119.205 Y106.346 E22.58542 F1440
G1 X119.320 Y106.467 E22.59412 F1440
G1 X119.523 Y106.714 E22.61083 F1440
G1 X119.683 Y106.942 E22.62539 F1440
G1 X119.858 Y107.242 E22.64357 F1440
G1 X119.945 Y107.420 E22.65394 F1440
G1 X120.073 Y107.736 E22.67175 F1440
G1 X120.172 Y108.060 E22.68946 F1440
G1 X120.222 Y108.283 E22.70140 F1440
G1 X120.257 Y108.500 E22.71288 F1440
G1 X120.278 Y108.697 E22.72325 F1440
G1 X120.289 Y108.906 E22.73420 F1440
; Solid infill 
G0 X119.869 Y109.029 F7200
G1 X119.808 Y108.368 E22.76818 F1800
G1 X119.785 Y108.258 E22.77390 F1800
G1 X119.770 Y108.207 E22.77651 F1800
G1 X119.550 Y107.590 E22.81042 F1800
G1 X119.426 Y107.339 E22.82482 F1800
G1 X119.401 Y107.296 E22.82720 F1800
G1 X119.180 Y106.962 E22.84741 F1800
G1 X119.018 Y106.766 E22.86027 F1800
G1 X118.990 Y106.736 E22.86226 F1800
G1 X118.689 Y106.440 E22.88352 F1800
G1 X118.511 Y106.296 E22.89513 F1800
G1 X118.473 Y106.270 E22.89740 F1800
G1 X118.221 Y106.110 E22.91275 F1800
G1 X117.754 Y105.877 E22.93940 F1800
G1 X117.707 Y105.857 E22.94188 F1800
G1 X117.522 Y105.793 E22.95183 F1800
G1 X116.930 Y105.657 E22.98310 F1800
G1 X116.895 Y105.651 E22.98485 F1800
G1 X116.839 Y105.643 E22.98768 F1800
G1 X116.566 Y105.640 E23.00109 F1800
G1 X116.533 Y105.641 E23.00265 F1800
G1 X115.865 Y105.692 E23.03611 F1800
G1 X115.760 Y105.714 E23.04157 F1800
G1 X115.720 Y105.725 E23.04360 F1800
G1 X115.170 Y105.903 E23.07208 F1800
G1 X115.135 Y105.916 E23.07392 F1800
G1 X115.096 Y105.934 E23.07605 F1800
G1 X114.630 Y106.213 E23.10240 F1800
G1 X114.606 Y106.229 E23.10369 F1800
G1 X114.274 Y106.466 E23.12339 F1800
G1 X114.246 Y106.487 E23.12516 F1800
G1 X114.240 Y106.494 E23.12562 F1800
G1 X113.716 Y107.108 E23.16769 F1800
G1 X113.643 Y107.221 E23.17453 F1800
G1 X113.616 Y107.269 E23.17720 F1800
G1 X113.287 Y107.978 E23.21627 F1800
G1 X113.274 Y108.021 E23.21851 F1800
G1 X113.264 Y108.062 E23.22061 F1800
G1 X113.163 Y108.573 E23.24604 F1800
G1 X113.157 Y108.608 E23.24772 F1800
G1 X113.136 Y108.816 E23.25828 F1800
G1 X113.140 Y109.250 E23.28036 F1800
G1 X113.143 Y109.294 E23.28254 F1800
G1 X113.161 Y109.446 E23.29035 F1800
G1 X113.301 Y110.017 E23.31941 F1800
G1 X113.313 Y110.056 E23.32128 F1800
G1 X113.441 Y110.406 E23.33984 F1800
G1 X113.580 Y110.671 E23.35505 F1800
G1 X113.600 Y110.706 E23.35699 F1800
G1 X113.819 Y111.037 E23.37699 F1800
G1 X113.988 Y111.241 E23.39033 F1800
G1 X114.016 Y111.271 E23.39231 F1800
G1 X114.306 Y111.555 E23.41272 F1800
G1 X114.488 Y111.701 E23.42461 F1800
G1 X114.524 Y111.727 E23.42678 F1800
G1 X114.786 Y111.893 E23.44279 F1800
G1 X115.247 Y112.123 E23.46912 F1800
G1 X115.294 Y112.142 E23.47155 F1800
G1 X115.481 Y112.207 E23.48155 F1800
G1 X116.069 Y112.342 E23.51262 F1800
G1 X116.113 Y112.349 E23.51482 F1800
G1 X116.163 Y112.355 E23.51736 F1800
G1 X116.750 Y112.356 E23.54672 F1800
G1 X116.793 Y112.354 E23.54882 F1800
G1 X116.948 Y112.337 E23.55666 F1800
G1 X117.491 Y112.205 E23.58429 F1800
G1 X117.530 Y112.193 E23.58616 F1800
G1 X117.902 Y112.058 E23.60586 F1800
G1 X118.170 Y111.913 E23.62107 F1800
G1 X118.204 Y111.892 E23.62289 F1800
G1 X118.721 Y111.537 E23.65315 F1800
G1 X118.754 Y111.511 E23.65527 F1800
G1 X119.194 Y111.019 E23.68811 F1800
G1 X119.223 Y110.983 E23.69036 F1800
G1 X119.286 Y110.893 E23.69588 F1800
G1 X119.619 Y110.250 E23.73191 F1800
G1 X119.636 Y110.213 E23.73380 F1800
G1 X119.711 Y110.019 E23.74408 F1800
G1 X119.783 Y109.709 E23.75982 F1800
G1 X119.789 Y109.677 E23.76132 F1800
G1 X119.870 Y109.104 E23.78966 F1800
G1 X119.871 Y109.073 E23.79123 F1800
G1 X119.869 Y109.029 E23.79344 F1800
; Inset 0 
G1 F1500 E15.79344
G0 X129.510 Y104.942 F7200
G1 F1500 E23.79344
G1 X129.482 Y104.582 E23.81235 F1440
G1 X129.455 Y104.422 E23.82084 F1440
G1 X129.393 Y104.166 E23.83462 F1440
G1 X129.327 Y103.966 E23.84562 F1440
G1 X129.205 Y103.679 E23.86191 F1440
G1 X129.065 Y103.425 E23.87710 F1440
G1 X128.979 Y103.290 E23.88548 F1440
G1 X128.770 Y103.022 E23.90324 F1440
G1 X128.516 Y102.764 E23.92220 F1440
G1 X128.286 Y102.577 E23.93771 F1440
G1 X128.027 Y102.406 E23.95395 F1440
G1 X127.839 Y102.304 E23.96511 F1440
G1 X127.649 Y102.217 E23.97600 F1440
G1 X127.380 Y102.120 E23.99093 F1440
G1 X127.198 Y102.071 E24.00078 F1440
G1 X126.970 Y102.027 E24.01293 F1440
G1 X126.813 Y102.006 E24.02121 F1440
G1 X126.551 Y101.990 E24.03494 F1440
G1 X126.313 Y101.995 E24.04740 F1440
G1 X126.028 Y102.026 E24.06238 F1440
G1 X125.798 Y102.072 E24.07464 F1440
G1 X125.640 Y102.115 E24.08318 F1440
G1 X125.441 Y102.182 E24.09413 F1440
G1 X125.110 Y102.329 E24.11309 F1440
G1 X124.923 Y102.436 E24.12436 F1440
G1 X124.748 Y102.551 E24.13530 F1440
G1 X124.463 Y102.783 E24.15453 F1440
G1 X124.178 Y103.083 E24.17616 F1440
G1 X124.017 Y103.299 E24.19026 F1440
G1 X123.829 Y103.610 E24.20927 F1440
G1 X123.717 Y103.851 E24.22315 F1440
G1 X123.606 Y104.170 E24.24081 F1440
G1 X123.559 Y104.354 E24.25071 F1440
G1 X123.515 Y104.611 E24.26433 F1440
G1 X123.495 Y104.819 E24.27522 F1440
G1 X123.490 Y105.029 E24.28622 F1440
G1 X123.495 Y105.189 E24.29461 F1440
G1 X123.519 Y105.421 E24.30681 F1440
G1 X123.555 Y105.628 E24.31781 F1440
G1 X123.607 Y105.835 E24.32897 F1440
G1 X123.681 Y106.057 E24.34123 F1440
G1 X123.773 Y106.275 E24.35359 F1440
G1 X123.907 Y106.529 E24.36863 F1440
G1 X124.049 Y106.749 E24.38230 F1440
G1 X124.177 Y106.916 E24.39330 F1440
G1 X124.284 Y107.038 E24.40179 F1440
G1 X124.490 Y107.242 E24.41692 F1440
G1 X124.776 Y107.467 E24.43594 F1440
G1 X124.974 Y107.595 E24.44825 F1440
G1 X125.184 Y107.707 E24.46072 F1440
G1 X125.448 Y107.821 E24.47575 F1440
G1 X125.749 Y107.916 E24.49225 F1440
G1 X126.083 Y107.982 E24.51006 F1440
G1 X126.318 Y108.005 E24.52243 F1440
G1 X126.555 Y108.010 E24.53484 F1440
G1 X126.794 Y107.996 E24.54736 F1440
G1 X127.127 Y107.945 E24.56496 F1440
G1 X127.433 Y107.862 E24.58157 F1440
G1 X127.655 Y107.780 E24.59393 F1440
G1 X127.893 Y107.669 E24.60766 F1440
G1 X128.142 Y107.523 E24.62274 F1440
G1 X128.296 Y107.417 E24.63249 F1440
G1 X128.594 Y107.163 E24.65297 F1440
G1 X128.825 Y106.913 E24.67078 F1440
G1 X128.954 Y106.744 E24.68189 F1440
G1 X129.054 Y106.594 E24.69132 F1440
G1 X129.171 Y106.388 E24.70368 F1440
G1 X129.263 Y106.195 E24.71484 F1440
G1 X129.395 Y105.829 E24.73521 F1440
G1 X129.470 Y105.493 E24.75323 F1440
G1 X129.501 Y105.232 E24.76696 F1440
G1 X129.510 Y104.942 E24.78215 F1440
G0 X130.289 Y104.906 F7200
G1 Y105.092 E24.79189 F1440
G1 X130.272 Y105.370 E24.80646 F1440
G1 X130.244 Y105.588 E24.81793 F1440
G1 X130.206 Y105.794 E24.82888 F1440
G1 X130.163 Y105.973 E24.83852 F1440
G1 X130.081 Y106.240 E24.85313 F1440
G1 X129.964 Y106.538 E24.86990 F1440
G1 X129.797 Y106.870 E24.88933 F1440
G1 X129.660 Y107.094 E24.90305 F1440
G1 X129.533 Y107.274 E24.91458 F1440
G1 X129.320 Y107.533 E24.93213 F1440
G1 X129.079 Y107.777 E24.95004 F1440
G1 X128.968 Y107.877 E24.95785 F1440
G1 X128.721 Y108.071 E24.97430 F1440
G1 X128.430 Y108.262 E24.99253 F1440
G1 X128.186 Y108.395 E25.00704 F1440
G1 X127.950 Y108.502 E25.02061 F1440
G1 X127.773 Y108.570 E25.03051 F1440
G1 X127.445 Y108.671 E25.04847 F1440
G1 X127.218 Y108.722 E25.06063 F1440
G1 X127 Y108.757 E25.07215 F1440
G1 X126.799 Y108.778 E25.08273 F1440
G1 X126.465 Y108.790 E25.10023 F1440
G1 X126.275 Y108.783 E25.11018 F1440
G1 X125.867 Y108.737 E25.13166 F1440
G1 X125.556 Y108.671 E25.14827 F1440
G1 X125.355 Y108.613 E25.15922 F1440
G1 X125.050 Y108.502 E25.17619 F1440
G1 X124.814 Y108.395 E25.18976 F1440
G1 X124.570 Y108.262 E25.20427 F1440
G1 X124.358 Y108.127 E25.21742 F1440
G1 X124.033 Y107.877 E25.23889 F1440
G1 X123.795 Y107.654 E25.25597 F1440
G1 X123.680 Y107.533 E25.26467 F1440
G1 X123.477 Y107.286 E25.28138 F1440
G1 X123.317 Y107.058 E25.29594 F1440
G1 X123.141 Y106.756 E25.31422 F1440
G1 X123.053 Y106.576 E25.32470 F1440
G1 X122.927 Y106.264 E25.34230 F1440
G1 X122.828 Y105.940 E25.36001 F1440
G1 X122.778 Y105.717 E25.37195 F1440
G1 X122.742 Y105.493 E25.38379 F1440
G1 X122.721 Y105.292 E25.39437 F1440
G1 X122.711 Y105.094 E25.40474 F1440
G1 X122.712 Y104.874 E25.41627 F1440
G1 X122.728 Y104.631 E25.42900 F1440
G1 X122.762 Y104.370 E25.44277 F1440
G1 X122.829 Y104.056 E25.45959 F1440
G1 X122.887 Y103.855 E25.47054 F1440
G1 X122.998 Y103.550 E25.48751 F1440
G1 X123.105 Y103.315 E25.50103 F1440
G1 X123.238 Y103.070 E25.51559 F1440
G1 X123.370 Y102.862 E25.52848 F1440
G1 X123.620 Y102.536 E25.54995 F1440
G1 X123.846 Y102.295 E25.56724 F1440
G1 X123.967 Y102.180 E25.57594 F1440
G1 X124.214 Y101.977 E25.59265 F1440
G1 X124.442 Y101.817 E25.60721 F1440
G1 X124.742 Y101.642 E25.62539 F1440
G1 X124.924 Y101.553 E25.63597 F1440
G1 X125.236 Y101.427 E25.65357 F1440
G1 X125.555 Y101.329 E25.67101 F1440
G1 X125.783 Y101.278 E25.68322 F1440
G1 X126 Y101.243 E25.69469 F1440
G1 X126.200 Y101.222 E25.70522 F1440
G1 X126.405 Y101.211 E25.71596 F1440
G1 X126.626 Y101.212 E25.72754 F1440
G1 X126.869 Y101.228 E25.74027 F1440
G1 X127.125 Y101.261 E25.75378 F1440
G1 X127.444 Y101.329 E25.77086 F1440
G1 X127.645 Y101.387 E25.78181 F1440
G1 X127.950 Y101.498 E25.79878 F1440
G1 X128.185 Y101.605 E25.81230 F1440
G1 X128.430 Y101.738 E25.82686 F1440
G1 X128.558 Y101.817 E25.83472 F1440
G1 X128.786 Y101.977 E25.84928 F1440
G1 X128.955 Y102.112 E25.86059 F1440
G1 X129.205 Y102.346 E25.87851 F1440
G1 X129.445 Y102.614 E25.89732 F1440
G1 X129.624 Y102.853 E25.91293 F1440
G1 X129.762 Y103.070 E25.92639 F1440
G1 X129.895 Y103.315 E25.94095 F1440
G1 X130.048 Y103.665 E25.96091 F1440
G1 X130.141 Y103.948 E25.97647 F1440
G1 X130.209 Y104.219 E25.99109 F1440
G1 X130.257 Y104.500 E26.00601 F1440
G1 X130.278 Y104.697 E26.01639 F1440
G1 X130.289 Y104.906 E26.02734 F1440
; Solid infill 
G0 X129.890 Y104.912 F7200
G1 X129.817 Y104.310 E26.05462 F1800
G1 X129.760 Y104.078 E26.06525 F1800
G1 X129.749 Y104.043 E26.06675 F1800
G1 X129.560 Y103.525 E26.09032 F1800
G1 X129.549 Y103.500 E26.09152 F1800
G1 X129.547 Y103.494 E26.09179 F1800
G1 X129.294 Y103.081 E26.11286 F1800
G1 X129.276 Y103.053 E26.11425 F1800
G1 X129.131 Y102.861 E26.12496 F1800
G1 X128.788 Y102.492 E26.14774 F1800
G1 X128.756 Y102.461 E26.14966 F1800
G1 X128.694 Y102.410 E26.15326 F1800
G1 X128.036 Y101.969 E26.18892 F1800
G1 X128.003 Y101.950 E26.19062 F1800
G1 X127.997 Y101.947 E26.19088 F1800
G1 X127.532 Y101.770 E26.21370 F1800
G1 X127.300 Y101.704 E26.22446 F1800
G1 X127.273 Y101.697 E26.22560 F1800
G1 X127.038 Y101.651 E26.23580 F1800
G1 X127.006 Y101.646 E26.23717 F1800
G1 X126.840 Y101.629 E26.24469 F1800
G1 X125.997 Y101.646 E26.28265 F1800
G1 X125.952 Y101.650 E26.28458 F1800
G1 X125.860 Y101.664 E26.28871 F1800
G1 X125.319 Y101.823 E26.31336 F1800
G1 X125.282 Y101.836 E26.31500 F1800
G1 X125.088 Y101.919 E26.32445 F1800
G1 X124.548 Y102.238 E26.35182 F1800
G1 X124.522 Y102.255 E26.35307 F1800
G1 X124.230 Y102.469 E26.36851 F1800
G1 X124.207 Y102.491 E26.36989 F1800
G1 X124.185 Y102.514 E26.37125 F1800
G1 X123.708 Y103.064 E26.40321 F1800
G1 X123.688 Y103.090 E26.40464 F1800
G1 X123.685 Y103.095 E26.40486 F1800
G1 X123.377 Y103.693 E26.43353 F1800
G1 X123.364 Y103.722 E26.43480 F1800
G1 X123.265 Y103.972 E26.44647 F1800
G1 X123.191 Y104.256 E26.45937 F1800
G1 X123.183 Y104.295 E26.46102 F1800
G1 X123.131 Y104.662 E26.47772 F1800
G1 X123.116 Y105.192 E26.50178 F1800
G1 X123.117 Y105.233 E26.50352 F1800
G1 X123.137 Y105.445 E26.51296 F1800
G1 X123.245 Y105.917 E26.53378 F1800
G1 X123.256 Y105.953 E26.53526 F1800
G1 X123.422 Y106.414 E26.55667 F1800
G1 X123.570 Y106.703 E26.57122 F1800
G1 X123.590 Y106.736 E26.57282 F1800
G1 X123.800 Y107.051 E26.58961 F1800
G1 X123.994 Y107.283 E26.60305 F1800
G1 X124.019 Y107.310 E26.60457 F1800
G1 X124.294 Y107.574 E26.62154 F1800
G1 X124.539 Y107.768 E26.63559 F1800
G1 X124.571 Y107.791 E26.63727 F1800
G1 X124.773 Y107.916 E26.64800 F1800
G1 X125.294 Y108.169 E26.67400 F1800
G1 X125.331 Y108.184 E26.67566 F1800
G1 X125.471 Y108.233 E26.68221 F1800
G1 X126.012 Y108.351 E26.70635 F1800
G1 X126.049 Y108.357 E26.70789 F1800
G1 X126.303 Y108.383 E26.71918 F1800
G1 X126.813 Y108.372 E26.74183 F1800
G1 X126.851 Y108.369 E26.74341 F1800
G1 X127.135 Y108.330 E26.75607 F1800
G1 X127.530 Y108.222 E26.77403 F1800
G1 X127.560 Y108.213 E26.77529 F1800
G1 X128.013 Y108.042 E26.79600 F1800
G1 X128.057 Y108.018 E26.79822 F1800
G1 X128.082 Y108.004 E26.79944 F1800
G1 X128.512 Y107.727 E26.82117 F1800
G1 X128.539 Y107.707 E26.82255 F1800
G1 X128.707 Y107.573 E26.83205 F1800
G1 X129.105 Y107.172 E26.85738 F1800
G1 X129.135 Y107.138 E26.85932 F1800
G1 X129.208 Y107.042 E26.86471 F1800
G1 X129.611 Y106.367 E26.90068 F1800
G1 X129.628 Y106.324 E26.90273 F1800
G1 X129.775 Y105.867 E26.92464 F1800
G1 X129.838 Y105.577 E26.93778 F1800
G1 X129.843 Y105.542 E26.93924 F1800
G1 X129.893 Y105.073 E26.95974 F1800
G1 X129.892 Y104.950 E26.96517 F1800
G1 X129.890 Y104.912 E26.96680 F1800
; Inset 0 
G1 F1500 E18.96680
G0 X139.560 Y104.941 F7200
G1 F1500 E26.96680
G1 X139.541 Y104.651 E26.98199 F1440
G1 X139.494 Y104.363 E26.99723 F1440
G1 X139.411 Y104.054 E27.01394 F1440
G1 X139.346 Y103.875 E27.02390 F1440
G1 X139.249 Y103.656 E27.03642 F1440
G1 X139.175 Y103.513 E27.04485 F1440
G1 X139.036 Y103.285 E27.05884 F1440
G1 X138.843 Y103.031 E27.07555 F1440
G1 X138.643 Y102.814 E27.09100 F1440
G1 X138.386 Y102.589 E27.10887 F1440
G1 X138.186 Y102.446 E27.12170 F1440
G1 X137.959 Y102.309 E27.13558 F1440
G1 X137.743 Y102.203 E27.14815 F1440
G1 X137.565 Y102.130 E27.15821 F1440
G1 X137.264 Y102.036 E27.17471 F1440
G1 X136.898 Y101.965 E27.19420 F1440
G1 X136.684 Y101.945 E27.20541 F1440
G1 X136.470 Y101.940 E27.21662 F1440
G1 X136.308 Y101.945 E27.22511 F1440
G1 X136.098 Y101.966 E27.23616 F1440
G1 X135.859 Y102.008 E27.24884 F1440
G1 X135.630 Y102.066 E27.26120 F1440
G1 X135.474 Y102.117 E27.26979 F1440
G1 X135.134 Y102.261 E27.28912 F1440
G1 X134.920 Y102.379 E27.30190 F1440
G1 X134.741 Y102.495 E27.31306 F1440
G1 X134.491 Y102.691 E27.32967 F1440
G1 X134.314 Y102.858 E27.34240 F1440
G1 X134.121 Y103.075 E27.35759 F1440
G1 X133.919 Y103.356 E27.37571 F1440
G1 X133.749 Y103.659 E27.39389 F1440
G1 X133.651 Y103.882 E27.40662 F1440
G1 X133.543 Y104.208 E27.42459 F1440
G1 X133.496 Y104.419 E27.43590 F1440
G1 X133.459 Y104.654 E27.44832 F1440
G1 X133.445 Y104.817 E27.45686 F1440
G1 X133.440 Y105.060 E27.46959 F1440
G1 X133.465 Y105.400 E27.48740 F1440
G1 X133.508 Y105.641 E27.50018 F1440
G1 X133.566 Y105.869 E27.51249 F1440
G1 X133.616 Y106.024 E27.52098 F1440
G1 X133.761 Y106.366 E27.54041 F1440
G1 X133.879 Y106.580 E27.55319 F1440
G1 X133.995 Y106.759 E27.56435 F1440
G1 X134.191 Y107.009 E27.58096 F1440
G1 X134.358 Y107.186 E27.59369 F1440
G1 X134.575 Y107.379 E27.60888 F1440
G1 X134.856 Y107.581 E27.62700 F1440
G1 X135.159 Y107.751 E27.64518 F1440
G1 X135.382 Y107.849 E27.65791 F1440
G1 X135.708 Y107.957 E27.67588 F1440
G1 X135.919 Y108.004 E27.68719 F1440
G1 X136.154 Y108.041 E27.69961 F1440
G1 X136.317 Y108.055 E27.70815 F1440
G1 X136.557 Y108.060 E27.72072 F1440
G1 X136.847 Y108.041 E27.73591 F1440
G1 X137.035 Y108.014 E27.74581 F1440
G1 X137.298 Y107.955 E27.75990 F1440
G1 X137.623 Y107.847 E27.77782 F1440
G1 X137.844 Y107.749 E27.79044 F1440
G1 X137.988 Y107.675 E27.79888 F1440
G1 X138.257 Y107.507 E27.81548 F1440
G1 X138.470 Y107.343 E27.82952 F1440
G1 X138.686 Y107.143 E27.84492 F1440
G1 X138.911 Y106.886 E27.86279 F1440
G1 X139.054 Y106.686 E27.87562 F1440
G1 X139.192 Y106.457 E27.88961 F1440
G1 X139.297 Y106.243 E27.90208 F1440
G1 X139.370 Y106.065 E27.91213 F1440
G1 X139.464 Y105.764 E27.92863 F1440
G1 X139.535 Y105.398 E27.94812 F1440
G1 X139.555 Y105.184 E27.95933 F1440
G1 X139.560 Y104.941 E27.97206 F1440
G0 X140.289 Y104.906 F7200
G1 X140.288 Y105.126 E27.98359 F1440
G1 X140.272 Y105.369 E27.99632 F1440
G1 X140.239 Y105.625 E28.00983 F1440
G1 X140.171 Y105.944 E28.02691 F1440
G1 X140.113 Y106.144 E28.03780 F1440
G1 X140.002 Y106.450 E28.05483 F1440
G1 X139.895 Y106.685 E28.06834 F1440
G1 X139.764 Y106.927 E28.08275 F1440
G1 X139.630 Y107.138 E28.09579 F1440
G1 X139.380 Y107.464 E28.11727 F1440
G1 X139.154 Y107.705 E28.13456 F1440
G1 X139.033 Y107.820 E28.14325 F1440
G1 X138.786 Y108.023 E28.15997 F1440
G1 X138.560 Y108.182 E28.17442 F1440
G1 X138.258 Y108.358 E28.19271 F1440
G1 X138.076 Y108.447 E28.20329 F1440
G1 X137.764 Y108.573 E28.22089 F1440
G1 X137.445 Y108.671 E28.23833 F1440
G1 X137.218 Y108.722 E28.25049 F1440
G1 X137 Y108.757 E28.26201 F1440
G1 X136.799 Y108.778 E28.27259 F1440
G1 X136.465 Y108.790 E28.29009 F1440
G1 X136.275 Y108.783 E28.30004 F1440
G1 X135.867 Y108.737 E28.32152 F1440
G1 X135.556 Y108.671 E28.33813 F1440
G1 X135.355 Y108.613 E28.34907 F1440
G1 X135.050 Y108.502 E28.36605 F1440
G1 X134.814 Y108.395 E28.37961 F1440
G1 X134.570 Y108.262 E28.39412 F1440
G1 X134.358 Y108.127 E28.40727 F1440
G1 X134.036 Y107.880 E28.42849 F1440
G1 X133.795 Y107.654 E28.44578 F1440
G1 X133.680 Y107.533 E28.45447 F1440
G1 X133.477 Y107.286 E28.47118 F1440
G1 X133.317 Y107.058 E28.48575 F1440
G1 X133.141 Y106.756 E28.50403 F1440
G1 X133.053 Y106.576 E28.51450 F1440
G1 X132.927 Y106.264 E28.53211 F1440
G1 X132.828 Y105.940 E28.54981 F1440
G1 X132.778 Y105.717 E28.56176 F1440
G1 X132.743 Y105.500 E28.57323 F1440
G1 X132.721 Y105.292 E28.58418 F1440
G1 X132.711 Y105.094 E28.59455 F1440
G1 X132.712 Y104.874 E28.60607 F1440
G1 X132.728 Y104.631 E28.61880 F1440
G1 X132.762 Y104.370 E28.63258 F1440
G1 X132.829 Y104.056 E28.64940 F1440
G1 X132.887 Y103.855 E28.66034 F1440
G1 X132.998 Y103.550 E28.67732 F1440
G1 X133.105 Y103.315 E28.69083 F1440
G1 X133.238 Y103.070 E28.70539 F1440
G1 X133.370 Y102.862 E28.71828 F1440
G1 X133.620 Y102.536 E28.73976 F1440
G1 X133.846 Y102.295 E28.75705 F1440
G1 X133.967 Y102.180 E28.76574 F1440
G1 X134.214 Y101.977 E28.78245 F1440
G1 X134.442 Y101.817 E28.79702 F1440
G1 X134.742 Y101.642 E28.81519 F1440
G1 X134.924 Y101.553 E28.82577 F1440
G1 X135.236 Y101.427 E28.84338 F1440
G1 X135.555 Y101.329 E28.86082 F1440
G1 X135.783 Y101.278 E28.87303 F1440
G1 X136 Y101.243 E28.88450 F1440
G1 X136.200 Y101.222 E28.89503 F1440
G1 X136.405 Y101.211 E28.90577 F1440
G1 X136.626 Y101.212 E28.91734 F1440
G1 X136.869 Y101.228 E28.93007 F1440
G1 X137.125 Y101.261 E28.94359 F1440
G1 X137.444 Y101.329 E28.96067 F1440
G1 X137.645 Y101.387 E28.97161 F1440
G1 X137.950 Y101.498 E28.98859 F1440
G1 X138.185 Y101.605 E29.00210 F1440
G1 X138.430 Y101.738 E29.01666 F1440
G1 X138.642 Y101.873 E29.02981 F1440
G1 X138.960 Y102.117 E29.05077 F1440
G1 X139.205 Y102.346 E29.06832 F1440
G1 X139.320 Y102.467 E29.07701 F1440
G1 X139.523 Y102.714 E29.09372 F1440
G1 X139.683 Y102.942 E29.10829 F1440
G1 X139.858 Y103.242 E29.12646 F1440
G1 X139.945 Y103.420 E29.13684 F1440
G1 X140.073 Y103.736 E29.15465 F1440
G1 X140.172 Y104.060 E29.17235 F1440
G1 X140.222 Y104.283 E29.18430 F1440
G1 X140.257 Y104.500 E29.19577 F1440
G1 X140.278 Y104.697 E29.20614 F1440
G1 X140.289 Y104.906 E29.21709 F1440
; Solid infill 
G0 X139.911 Y105.106 F7200
G1 X139.894 Y104.629 E29.23559 F1800
G1 X139.891 Y104.592 E29.23693 F1800
G1 X139.853 Y104.360 E29.24604 F1800
G1 X139.682 Y103.760 E29.27013 F1800
G1 X139.670 Y103.727 E29.27140 F1800
G1 X139.602 Y103.566 E29.27806 F1800
G1 X139.341 Y103.102 E29.29843 F1800
G1 X139.324 Y103.077 E29.29953 F1800
G1 X139.221 Y102.931 E29.30632 F1800
G1 X138.898 Y102.567 E29.32487 F1800
G1 X138.878 Y102.546 E29.32592 F1800
G1 X138.724 Y102.404 E29.33390 F1800
G1 X138.396 Y102.154 E29.34972 F1800
G1 X138.371 Y102.136 E29.35084 F1800
G1 X138.248 Y102.062 E29.35640 F1800
G1 X137.702 Y101.801 E29.37965 F1800
G1 X137.671 Y101.788 E29.38085 F1800
G1 X137.539 Y101.742 E29.38616 F1800
G1 X136.962 Y101.612 E29.40893 F1800
G1 X136.926 Y101.606 E29.41028 F1800
G1 X136.843 Y101.597 E29.41349 F1800
G1 X136.068 Y101.615 E29.44278 F1800
G1 X136.035 Y101.618 E29.44396 F1800
G1 X135.856 Y101.643 E29.45078 F1800
G1 X135.367 Y101.781 E29.46998 F1800
G1 X135.334 Y101.792 E29.47120 F1800
G1 X135.079 Y101.898 E29.48187 F1800
G1 X134.554 Y102.205 E29.50477 F1800
G1 X134.528 Y102.222 E29.50582 F1800
G1 X134.217 Y102.454 E29.52019 F1800
G1 X134.069 Y102.600 E29.52807 F1800
G1 X134.049 Y102.621 E29.52911 F1800
G1 X133.670 Y103.078 E29.55145 F1800
G1 X133.626 Y103.148 E29.55460 F1800
G1 X133.611 Y103.174 E29.55571 F1800
G1 X133.328 Y103.742 E29.57848 F1800
G1 X133.314 Y103.776 E29.57976 F1800
G1 X133.248 Y103.967 E29.58755 F1800
G1 X133.100 Y104.659 E29.61647 F1800
G1 X133.089 Y104.773 E29.62089 F1800
G1 X133.087 Y104.810 E29.62226 F1800
G1 X133.103 Y105.431 E29.64549 F1800
G1 X133.105 Y105.456 E29.64645 F1800
G1 X133.106 Y105.462 E29.64668 F1800
G1 X133.284 Y106.128 E29.67186 F1800
G1 X133.294 Y106.160 E29.67300 F1800
G1 X133.400 Y106.424 E29.68391 F1800
G1 X133.694 Y106.951 E29.70752 F1800
G1 X133.712 Y106.979 E29.70875 F1800
G1 X133.776 Y107.069 E29.71296 F1800
G1 X134.099 Y107.431 E29.73129 F1800
G1 X134.120 Y107.451 E29.73234 F1800
G1 X134.273 Y107.592 E29.74028 F1800
G1 X134.647 Y107.874 E29.75849 F1800
G1 X134.672 Y107.891 E29.75962 F1800
G1 X134.757 Y107.943 E29.76344 F1800
G1 X135.241 Y108.174 E29.78363 F1800
G1 X135.275 Y108.188 E29.78492 F1800
G1 X135.465 Y108.250 E29.79267 F1800
G1 X136.273 Y108.414 E29.82535 F1800
G1 X136.303 Y108.418 E29.82649 F1800
G1 X136.314 E29.82691 F1800
G1 X136.953 Y108.388 E29.85186 F1800
G1 X137.084 Y108.366 E29.85686 F1800
G1 X137.115 Y108.359 E29.85798 F1800
G1 X137.737 Y108.180 E29.88097 F1800
G1 X137.766 Y108.170 E29.88204 F1800
G1 X137.924 Y108.105 E29.88853 F1800
G1 X138.438 Y107.800 E29.91064 F1800
G1 X138.462 Y107.784 E29.91158 F1800
G1 X138.783 Y107.544 E29.92630 F1800
G1 X138.933 Y107.397 E29.93424 F1800
G1 X138.952 Y107.377 E29.93520 F1800
G1 X139.331 Y106.923 E29.95724 F1800
G1 X139.347 Y106.898 E29.95835 F1800
G1 X139.363 Y106.871 E29.95951 F1800
G1 X139.695 Y106.200 E29.98685 F1800
G1 X139.708 Y106.170 E29.98799 F1800
G1 X139.757 Y106.034 E29.99343 F1800
G1 X139.877 Y105.460 E30.01514 F1800
G1 X139.882 Y105.428 E30.01624 F1800
G1 X139.911 Y105.106 E30.02849 F1800
; Inset 0 
G1 F1500 E22.02849
G0 X149.610 Y104.943 F7200
G1 F1500 E30.02849
G1 X149.596 Y104.697 E30.04138 F1440
G1 X149.531 Y104.302 E30.06233 F1440
G1 X149.449 Y104.011 E30.07815 F1440
G1 X149.382 Y103.832 E30.08815 F1440
G1 X149.271 Y103.587 E30.10219 F1440
G1 X149.164 Y103.393 E30.11377 F1440
G1 X149.015 Y103.169 E30.12786 F1440
G1 X148.845 Y102.956 E30.14211 F1440
G1 X148.620 Y102.724 E30.15903 F1440
G1 X148.478 Y102.599 E30.16893 F1440
G1 X148.302 Y102.465 E30.18051 F1440
G1 X148.170 Y102.376 E30.18884 F1440
G1 X147.980 Y102.264 E30.20036 F1440
G1 X147.786 Y102.167 E30.21168 F1440
G1 X147.561 Y102.076 E30.22436 F1440
G1 X147.381 Y102.016 E30.23426 F1440
G1 X147.170 Y101.963 E30.24562 F1440
G1 X146.931 Y101.920 E30.25830 F1440
G1 X146.688 Y101.895 E30.27108 F1440
G1 X146.442 Y101.890 E30.28397 F1440
G1 X146.172 Y101.908 E30.29811 F1440
G1 X145.957 Y101.937 E30.30943 F1440
G1 X145.718 Y101.989 E30.32221 F1440
G1 X145.559 Y102.035 E30.33085 F1440
G1 X145.333 Y102.117 E30.34343 F1440
G1 X145.016 Y102.266 E30.36176 F1440
G1 X144.827 Y102.378 E30.37323 F1440
G1 X144.670 Y102.485 E30.38313 F1440
G1 X144.518 Y102.602 E30.39314 F1440
G1 X144.298 Y102.803 E30.40870 F1440
G1 X144.100 Y103.020 E30.42405 F1440
G1 X143.964 Y103.199 E30.43578 F1440
G1 X143.818 Y103.424 E30.44982 F1440
G1 X143.669 Y103.711 E30.46674 F1440
G1 X143.613 Y103.842 E30.47418 F1440
G1 X143.516 Y104.118 E30.48947 F1440
G1 X143.451 Y104.386 E30.50388 F1440
G1 X143.404 Y104.701 E30.52054 F1440
G1 X143.390 Y104.947 E30.53342 F1440
G1 X143.395 Y105.192 E30.54626 F1440
G1 X143.420 Y105.436 E30.55909 F1440
G1 X143.469 Y105.700 E30.57313 F1440
G1 X143.543 Y105.965 E30.58754 F1440
G1 X143.628 Y106.194 E30.60032 F1440
G1 X143.766 Y106.483 E30.61708 F1440
G1 X143.837 Y106.608 E30.62457 F1440
G1 X143.969 Y106.808 E30.63709 F1440
G1 X144.120 Y107.004 E30.65003 F1440
G1 X144.303 Y107.202 E30.66412 F1440
G1 X144.521 Y107.400 E30.67953 F1440
G1 X144.721 Y107.551 E30.69262 F1440
G1 X144.925 Y107.682 E30.70530 F1440
G1 X145.209 Y107.830 E30.72206 F1440
G1 X145.340 Y107.886 E30.72950 F1440
G1 X145.617 Y107.983 E30.74485 F1440
G1 X145.830 Y108.037 E30.75632 F1440
G1 X146.098 Y108.084 E30.77057 F1440
G1 X146.313 Y108.105 E30.78189 F1440
G1 X146.557 Y108.110 E30.79467 F1440
G1 X146.799 Y108.096 E30.80734 F1440
G1 X147.095 Y108.053 E30.82301 F1440
G1 X147.384 Y107.982 E30.83857 F1440
G1 X147.541 Y107.931 E30.84721 F1440
G1 X147.866 Y107.795 E30.86565 F1440
G1 X148.103 Y107.666 E30.87974 F1440
G1 X148.265 Y107.561 E30.88985 F1440
G1 X148.481 Y107.399 E30.90399 F1440
G1 X148.703 Y107.196 E30.91971 F1440
G1 X148.900 Y106.979 E30.93506 F1440
G1 X149.051 Y106.779 E30.94815 F1440
G1 X149.182 Y106.575 E30.96083 F1440
G1 X149.332 Y106.287 E30.97780 F1440
G1 X149.466 Y105.937 E30.99740 F1440
G1 X149.513 Y105.773 E31.00630 F1440
G1 X149.581 Y105.430 E31.02458 F1440
G1 X149.605 Y105.188 E31.03731 F1440
G1 X149.610 Y104.943 E31.05015 F1440
G0 X150.289 Y104.906 F7200
G1 X150.288 Y105.126 E31.06167 F1440
G1 X150.272 Y105.369 E31.07440 F1440
G1 X150.239 Y105.625 E31.08792 F1440
G1 X150.171 Y105.944 E31.10499 F1440
G1 X150.113 Y106.144 E31.11589 F1440
G1 X150.002 Y106.450 E31.13292 F1440
G1 X149.895 Y106.685 E31.14643 F1440
G1 X149.764 Y106.927 E31.16084 F1440
G1 X149.630 Y107.138 E31.17388 F1440
G1 X149.380 Y107.464 E31.19536 F1440
G1 X149.154 Y107.705 E31.21265 F1440
G1 X149.033 Y107.820 E31.22134 F1440
G1 X148.786 Y108.023 E31.23805 F1440
G1 X148.560 Y108.182 E31.25251 F1440
G1 X148.258 Y108.358 E31.27079 F1440
G1 X148.076 Y108.447 E31.28137 F1440
G1 X147.764 Y108.573 E31.29898 F1440
G1 X147.445 Y108.671 E31.31642 F1440
G1 X147.218 Y108.722 E31.32857 F1440
G1 X147 Y108.757 E31.34010 F1440
G1 X146.799 Y108.778 E31.35068 F1440
G1 X146.465 Y108.790 E31.36818 F1440
G1 X146.275 Y108.783 E31.37813 F1440
G1 X145.867 Y108.737 E31.39961 F1440
G1 X145.556 Y108.671 E31.41621 F1440
G1 X145.355 Y108.613 E31.42716 F1440
G1 X145.050 Y108.502 E31.44413 F1440
G1 X144.814 Y108.395 E31.45770 F1440
G1 X144.570 Y108.262 E31.47221 F1440
G1 X144.358 Y108.127 E31.48536 F1440
G1 X144.036 Y107.880 E31.50658 F1440
G1 X143.795 Y107.654 E31.52386 F1440
G1 X143.680 Y107.533 E31.53256 F1440
G1 X143.477 Y107.286 E31.54927 F1440
G1 X143.317 Y107.058 E31.56383 F1440
G1 X143.141 Y106.756 E31.58211 F1440
G1 X143.053 Y106.575 E31.59264 F1440
G1 X142.927 Y106.264 E31.61019 F1440
G1 X142.828 Y105.940 E31.62790 F1440
G1 X142.778 Y105.717 E31.63984 F1440
G1 X142.743 Y105.500 E31.65131 F1440
G1 X142.721 Y105.292 E31.66226 F1440
G1 X142.711 Y105.094 E31.67264 F1440
G1 X142.712 Y104.874 E31.68416 F1440
G1 X142.728 Y104.631 E31.69689 F1440
G1 X142.762 Y104.370 E31.71067 F1440
G1 X142.829 Y104.056 E31.72748 F1440
G1 X142.887 Y103.855 E31.73843 F1440
G1 X142.998 Y103.550 E31.75540 F1440
G1 X143.105 Y103.315 E31.76892 F1440
G1 X143.238 Y103.070 E31.78348 F1440
G1 X143.370 Y102.862 E31.79637 F1440
G1 X143.620 Y102.536 E31.81785 F1440
G1 X143.846 Y102.295 E31.83513 F1440
G1 X143.967 Y102.180 E31.84383 F1440
G1 X144.214 Y101.977 E31.86054 F1440
G1 X144.442 Y101.817 E31.87510 F1440
G1 X144.742 Y101.642 E31.89328 F1440
G1 X144.924 Y101.553 E31.90386 F1440
G1 X145.236 Y101.427 E31.92146 F1440
G1 X145.555 Y101.329 E31.93891 F1440
G1 X145.783 Y101.278 E31.95111 F1440
G1 X146 Y101.243 E31.96258 F1440
G1 X146.200 Y101.222 E31.97311 F1440
G1 X146.405 Y101.211 E31.98385 F1440
G1 X146.626 Y101.212 E31.99543 F1440
G1 X146.869 Y101.228 E32.00816 F1440
G1 X147.125 Y101.261 E32.02167 F1440
G1 X147.444 Y101.329 E32.03875 F1440
G1 X147.645 Y101.387 E32.04970 F1440
G1 X147.950 Y101.498 E32.06667 F1440
G1 X148.185 Y101.605 E32.08019 F1440
G1 X148.430 Y101.738 E32.09475 F1440
G1 X148.642 Y101.873 E32.10790 F1440
G1 X148.960 Y102.117 E32.12885 F1440
G1 X149.205 Y102.346 E32.14640 F1440
G1 X149.320 Y102.467 E32.15510 F1440
G1 X149.523 Y102.714 E32.17181 F1440
G1 X149.683 Y102.942 E32.18637 F1440
G1 X149.858 Y103.242 E32.20455 F1440
G1 X149.945 Y103.420 E32.21492 F1440
G1 X150.073 Y103.736 E32.23273 F1440
G1 X150.172 Y104.060 E32.25044 F1440
G1 X150.222 Y104.283 E32.26238 F1440
G1 X150.257 Y104.500 E32.27385 F1440
G1 X150.278 Y104.697 E32.28423 F1440
G1 X150.289 Y104.906 E32.29518 F1440
; Solid infill 
G0 X149.945 Y105.107 F7200
G1 X149.924 Y104.672 E32.30874 F1800
G1 X149.921 Y104.646 E32.30951 F1800
G1 X149.874 Y104.355 E32.31919 F1800
G1 X149.694 Y103.720 E32.34101 F1800
G1 X149.683 Y103.690 E32.34195 F1800
G1 X149.625 Y103.556 E32.34667 F1800
G1 X149.294 Y102.983 E32.36810 F1800
G1 X149.276 Y102.957 E32.36907 F1800
G1 X149.244 Y102.914 E32.37077 F1800
G1 X148.743 Y102.382 E32.39480 F1800
G1 X148.705 Y102.349 E32.39642 F1800
G1 X148.679 Y102.329 E32.39743 F1800
G1 X148.257 Y102.046 E32.41447 F1800
G1 X147.935 Y101.875 E32.42632 F1800
G1 X147.910 Y101.863 E32.42712 F1800
G1 X147.546 Y101.721 E32.43952 F1800
G1 X147.253 Y101.643 E32.44935 F1800
G1 X147.232 Y101.639 E32.44998 F1800
G1 X146.845 Y101.571 E32.46230 F1800
G1 X146.716 Y101.565 E32.46639 F1800
G1 X146.692 E32.46711 F1800
G1 X145.911 Y101.604 E32.49098 F1800
G1 X145.883 Y101.607 E32.49186 F1800
G1 X145.851 Y101.613 E32.49289 F1800
G1 X145.217 Y101.806 E32.51362 F1800
G1 X145.188 Y101.817 E32.51456 F1800
G1 X145.066 Y101.872 E32.51887 F1800
G1 X144.322 Y102.337 E32.54709 F1800
G1 X144.294 Y102.357 E32.54812 F1800
G1 X144.201 Y102.436 E32.55208 F1800
G1 X143.700 Y102.992 E32.57634 F1800
G1 X143.681 Y103.016 E32.57728 F1800
G1 X143.648 Y103.063 E32.57911 F1800
G1 X143.314 Y103.711 E32.60148 F1800
G1 X143.304 Y103.733 E32.60217 F1800
G1 X143.218 Y103.956 E32.60968 F1800
G1 X143.129 Y104.307 E32.62115 F1800
G1 X143.124 Y104.333 E32.62193 F1800
G1 X143.080 Y104.657 E32.63258 F1800
G1 X143.066 Y105.195 E32.65009 F1800
G1 X143.067 Y105.226 E32.65102 F1800
G1 X143.091 Y105.459 E32.65861 F1800
G1 X143.233 Y106.050 E32.67753 F1800
G1 X143.241 Y106.076 E32.67828 F1800
G1 X143.374 Y106.434 E32.69021 F1800
G1 X143.549 Y106.767 E32.70231 F1800
G1 X143.564 Y106.791 E32.70314 F1800
G1 X143.763 Y107.080 E32.71449 F1800
G1 X144.060 Y107.425 E32.72930 F1800
G1 X144.080 Y107.446 E32.73018 F1800
G1 X144.259 Y107.609 E32.73802 F1800
G1 X144.738 Y107.966 E32.75798 F1800
G1 X144.742 Y107.969 E32.75814 F1800
G1 X144.767 Y107.981 E32.75901 F1800
G1 X145.455 Y108.284 E32.78317 F1800
