; Generated with Anisoprint Aura v2.4.8 on 04/21/2024 at 12:41 
; LAYER_COUNT:17 
M530 L17

M104 S245 T0
M140 S100 
G21 
G90 
M82 
G28
M530 S1
G1 Z10 F900
; Start change extruder 
M400
M109 S245 T0
T0 R ; switch extruder 
; End change extruder 
G92 E0 ; reset extrusion
M190 S100 
;MACROLAYER:1
;LAYER:1
M532 L1
G0 Z0.150 F1500
G0 X117.560 Y102.664 F7200
G1 X118.292 Y101.944 E0.03455 F1200
G1 X119.067 Y101.313 E0.06819 F1200
G1 X119.627 Y100.924 E0.09113 F1200
G1 X120.231 Y100.563 E0.11480 F1200
G1 X120.894 Y100.222 E0.13989 F1200
G1 X121.547 Y99.939 E0.16383 F1200
G1 X122.181 Y99.715 E0.18646 F1200
G1 X122.989 Y99.486 E0.21472 F1200
G1 X123.874 Y99.313 E0.24506 F1200
G1 X124.828 Y99.212 E0.27735 F1200
G1 X125.063 Y99.200 E0.28527 F1200
G1 X125.926 Y99.198 E0.31433 F1200
G1 X126.366 Y99.228 E0.32918 F1200
G1 X126.646 Y98.801 E0.34636 F1200
G1 X127.057 Y98.250 E0.36949 F1200
G1 X127.560 Y97.664 E0.39549 F1200
G1 X128.292 Y96.944 E0.43004 F1200
G1 X129.067 Y96.313 E0.46368 F1200
G1 X129.627 Y95.924 E0.48662 F1200
G1 X130.231 Y95.563 E0.51029 F1200
G1 X130.894 Y95.222 E0.53538 F1200
G1 X131.547 Y94.939 E0.55932 F1200
G1 X132.181 Y94.715 E0.58195 F1200
G1 X132.989 Y94.486 E0.61021 F1200
G1 X133.874 Y94.313 E0.64055 F1200
G1 X134.828 Y94.212 E0.67284 F1200
G1 X135.063 Y94.200 E0.68076 F1200
G1 X135.926 Y94.198 E0.70982 F1200
G1 X136.592 Y94.245 E0.73228 F1200
G1 X137.371 Y94.354 E0.75875 F1200
G1 X137.958 Y94.474 E0.77892 F1200
G1 X138.556 Y94.631 E0.79973 F1200
G1 X139.398 Y94.917 E0.82967 F1200
G1 X139.867 Y95.113 E0.84678 F1200
G1 X140.506 Y95.421 E0.87066 F1200
G1 X140.894 Y95.222 E0.88534 F1200
G1 X141.547 Y94.939 E0.90928 F1200
G1 X142.181 Y94.715 E0.93191 F1200
G1 X142.989 Y94.486 E0.96017 F1200
G1 X143.874 Y94.313 E0.99051 F1200
G1 X144.828 Y94.212 E1.02280 F1200
G1 X145.063 Y94.200 E1.03072 F1200
G1 X145.926 Y94.198 E1.05978 F1200
G1 X146.592 Y94.245 E1.08224 F1200
G1 X147.371 Y94.354 E1.10871 F1200
G1 X147.958 Y94.474 E1.12888 F1200
G1 X148.556 Y94.631 E1.14969 F1200
G1 X149.398 Y94.917 E1.17963 F1200
G1 X149.867 Y95.113 E1.19674 F1200
G1 X150.506 Y95.421 E1.22062 F1200
G1 X150.894 Y95.222 E1.23530 F1200
G1 X151.547 Y94.939 E1.25924 F1200
G1 X152.181 Y94.715 E1.28187 F1200
G1 X152.989 Y94.486 E1.31013 F1200
G1 X153.874 Y94.313 E1.34047 F1200
G1 X154.828 Y94.212 E1.37276 F1200
G1 X155.063 Y94.200 E1.38068 F1200
G1 X155.926 Y94.198 E1.40974 F1200
G1 X156.592 Y94.245 E1.43220 F1200
G1 X157.371 Y94.354 E1.45867 F1200
G1 X157.958 Y94.474 E1.47884 F1200
G1 X158.556 Y94.631 E1.49965 F1200
G1 X159.398 Y94.917 E1.52959 F1200
G1 X159.867 Y95.113 E1.54670 F1200
G1 X160.506 Y95.421 E1.57058 F1200
G1 X160.894 Y95.222 E1.58526 F1200
G1 X161.547 Y94.939 E1.60920 F1200
G1 X162.181 Y94.715 E1.63183 F1200
G1 X162.989 Y94.486 E1.66009 F1200
G1 X163.874 Y94.313 E1.69043 F1200
G1 X164.828 Y94.212 E1.72272 F1200
G1 X165.063 Y94.200 E1.73064 F1200
G1 X165.887 Y94.197 E1.75839 F1200
G1 X166.592 Y94.245 E1.78216 F1200
G1 X167.371 Y94.354 E1.80863 F1200
G1 X167.958 Y94.474 E1.82880 F1200
G1 X168.556 Y94.631 E1.84961 F1200
G1 X169.398 Y94.917 E1.87955 F1200
G1 X169.867 Y95.113 E1.89666 F1200
G1 X170.454 Y95.393 E1.91855 F1200
G1 X171.118 Y95.765 E1.94418 F1200
G1 X171.699 Y96.146 E1.96755 F1200
G1 X172.250 Y96.557 E1.99068 F1200
G1 X172.836 Y97.060 E2.01668 F1200
G1 X173.556 Y97.792 E2.05123 F1200
G1 X174.187 Y98.567 E2.08487 F1200
G1 X174.576 Y99.127 E2.10781 F1200
G1 X174.937 Y99.731 E2.13148 F1200
G1 X175.278 Y100.394 E2.15657 F1200
G1 X175.561 Y101.047 E2.18051 F1200
G1 X175.785 Y101.681 E2.20314 F1200
G1 X176.014 Y102.489 E2.23140 F1200
G1 X176.187 Y103.374 E2.26174 F1200
G1 X176.289 Y104.337 E2.29434 F1200
G1 X176.309 Y104.928 E2.31424 F1200
G1 X176.302 Y105.426 E2.33101 F1200
G1 X176.255 Y106.092 E2.35347 F1200
G1 X176.146 Y106.871 E2.37994 F1200
G1 X176.026 Y107.458 E2.40011 F1200
G1 X175.869 Y108.056 E2.42093 F1200
G1 X175.583 Y108.898 E2.45086 F1200
G1 X175.387 Y109.367 E2.46797 F1200
G1 X175.107 Y109.954 E2.48986 F1200
G1 X174.735 Y110.618 E2.51549 F1200
G1 X174.354 Y111.199 E2.53886 F1200
G1 X173.943 Y111.750 E2.56199 F1200
G1 X173.440 Y112.336 E2.58799 F1200
G1 X172.708 Y113.056 E2.62254 F1200
G1 X171.933 Y113.687 E2.65619 F1200
G1 X171.373 Y114.076 E2.67912 F1200
G1 X170.769 Y114.437 E2.70279 F1200
G1 X170.106 Y114.778 E2.72788 F1200
G1 X169.453 Y115.061 E2.75183 F1200
G1 X168.819 Y115.285 E2.77446 F1200
G1 X168.011 Y115.514 E2.80271 F1200
G1 X167.129 Y115.687 E2.83295 F1200
G1 X166.230 Y115.785 E2.86339 F1200
G1 X165.226 Y115.805 E2.89720 F1200
G1 X164.585 Y115.770 E2.91879 F1200
G1 X163.819 Y115.676 E2.94475 F1200
G1 X163.042 Y115.526 E2.97139 F1200
G1 X162.444 Y115.369 E2.99220 F1200
G1 X161.602 Y115.083 E3.02214 F1200
G1 X161.133 Y114.887 E3.03925 F1200
G1 X160.494 Y114.579 E3.06312 F1200
G1 X160.106 Y114.778 E3.07781 F1200
G1 X159.453 Y115.061 E3.10175 F1200
G1 X158.819 Y115.285 E3.12438 F1200
G1 X158.011 Y115.514 E3.15264 F1200
G1 X157.129 Y115.687 E3.18288 F1200
G1 X156.230 Y115.785 E3.21332 F1200
G1 X155.226 Y115.805 E3.24713 F1200
G1 X154.585 Y115.770 E3.26872 F1200
G1 X153.819 Y115.676 E3.29468 F1200
G1 X153.042 Y115.526 E3.32132 F1200
G1 X152.444 Y115.369 E3.34213 F1200
G1 X151.602 Y115.083 E3.37207 F1200
G1 X151.133 Y114.887 E3.38917 F1200
G1 X150.494 Y114.579 E3.41305 F1200
G1 X150.106 Y114.778 E3.42773 F1200
G1 X149.453 Y115.061 E3.45168 F1200
G1 X148.819 Y115.285 E3.47431 F1200
G1 X148.011 Y115.514 E3.50256 F1200
G1 X147.129 Y115.687 E3.53280 F1200
G1 X146.230 Y115.785 E3.56325 F1200
G1 X145.226 Y115.805 E3.59706 F1200
G1 X144.585 Y115.770 E3.61864 F1200
G1 X143.819 Y115.676 E3.64461 F1200
G1 X143.042 Y115.526 E3.67124 F1200
G1 X142.444 Y115.369 E3.69206 F1200
G1 X141.602 Y115.083 E3.72199 F1200
G1 X141.133 Y114.887 E3.73910 F1200
G1 X140.494 Y114.579 E3.76298 F1200
G1 X140.106 Y114.778 E3.77766 F1200
G1 X139.453 Y115.061 E3.80160 F1200
G1 X138.819 Y115.285 E3.82423 F1200
G1 X138.011 Y115.514 E3.85249 F1200
G1 X137.129 Y115.687 E3.88273 F1200
G1 X136.230 Y115.785 E3.91317 F1200
G1 X135.226 Y115.805 E3.94698 F1200
G1 X134.631 Y115.774 E3.96702 F1200
G1 X134.244 Y116.355 E3.99053 F1200
G1 X133.792 Y116.934 E4.01524 F1200
G1 X133.409 Y117.369 E4.03474 F1200
G1 X132.884 Y117.894 E4.05973 F1200
G1 X132.347 Y118.364 E4.08374 F1200
G1 X131.812 Y118.774 E4.10644 F1200
G1 X131.248 Y119.155 E4.12934 F1200
G1 X130.769 Y119.437 E4.14803 F1200
G1 X130.106 Y119.778 E4.17312 F1200
G1 X129.453 Y120.061 E4.19706 F1200
G1 X128.819 Y120.285 E4.21969 F1200
G1 X128.011 Y120.514 E4.24794 F1200
G1 X127.129 Y120.687 E4.27818 F1200
G1 X126.230 Y120.785 E4.30863 F1200
G1 X125.226 Y120.805 E4.34244 F1200
G1 X124.585 Y120.770 E4.36402 F1200
G1 X123.819 Y120.676 E4.38999 F1200
G1 X123.042 Y120.526 E4.41663 F1200
G1 X122.444 Y120.369 E4.43744 F1200
G1 X121.602 Y120.083 E4.46738 F1200
G1 X121.133 Y119.887 E4.48448 F1200
G1 X120.546 Y119.607 E4.50637 F1200
G1 X119.882 Y119.235 E4.53200 F1200
G1 X119.301 Y118.854 E4.55537 F1200
G1 X118.750 Y118.443 E4.57851 F1200
G1 X118.164 Y117.940 E4.60450 F1200
G1 X117.444 Y117.208 E4.63906 F1200
G1 X116.813 Y116.433 E4.67270 F1200
G1 X116.424 Y115.873 E4.69563 F1200
G1 X116.063 Y115.269 E4.71931 F1200
G1 X115.722 Y114.606 E4.74439 F1200
G1 X115.439 Y113.953 E4.76834 F1200
G1 X115.215 Y113.319 E4.79097 F1200
G1 X114.986 Y112.511 E4.81922 F1200
G1 X114.813 Y111.626 E4.84956 F1200
G1 X114.711 Y110.663 E4.88216 F1200
G1 X114.691 Y110.072 E4.90206 F1200
G1 X114.698 Y109.574 E4.91883 F1200
G1 X114.745 Y108.908 E4.94130 F1200
G1 X114.854 Y108.129 E4.96777 F1200
G1 X114.974 Y107.542 E4.98794 F1200
G1 X115.131 Y106.944 E5.00875 F1200
G1 X115.417 Y106.102 E5.03869 F1200
G1 X115.613 Y105.633 E5.05579 F1200
G1 X115.893 Y105.046 E5.07768 F1200
G1 X116.265 Y104.382 E5.10331 F1200
G1 X116.646 Y103.801 E5.12668 F1200
G1 X117.057 Y103.250 E5.14982 F1200
G1 X117.560 Y102.664 E5.17582 F1200
G0 X117.940 Y103.048 F7200
G1 X118.633 Y102.362 E5.20865 F1200
G1 X119.376 Y101.756 E5.24091 F1200
G1 X119.905 Y101.387 E5.26260 F1200
G1 X120.479 Y101.043 E5.28513 F1200
G1 X121.110 Y100.717 E5.30904 F1200
G1 X121.728 Y100.448 E5.33173 F1200
G1 X122.329 Y100.234 E5.35319 F1200
G1 X123.094 Y100.016 E5.37996 F1200
G1 X123.931 Y99.850 E5.40868 F1200
G1 X124.856 Y99.751 E5.44000 F1200
G1 X125.065 Y99.740 E5.44704 F1200
G1 X125.889 Y99.737 E5.47479 F1200
G1 X126.518 Y99.780 E5.49601 F1200
G1 X126.649 Y99.798 E5.50045 F1200
G1 X126.717 Y99.677 E5.50510 F1200
G1 X127.079 Y99.123 E5.52736 F1200
G1 X127.467 Y98.601 E5.54925 F1200
G1 X127.940 Y98.048 E5.57373 F1200
G1 X128.633 Y97.362 E5.60656 F1200
G1 X129.376 Y96.756 E5.63883 F1200
G1 X129.905 Y96.387 E5.66051 F1200
G1 X130.479 Y96.043 E5.68304 F1200
G1 X131.110 Y95.717 E5.70695 F1200
G1 X131.728 Y95.448 E5.72965 F1200
G1 X132.329 Y95.234 E5.75110 F1200
G1 X133.094 Y95.016 E5.77787 F1200
G1 X133.931 Y94.850 E5.80660 F1200
G1 X134.856 Y94.751 E5.83792 F1200
G1 X135.065 Y94.740 E5.84496 F1200
G1 X135.889 Y94.737 E5.87270 F1200
G1 X136.518 Y94.780 E5.89392 F1200
G1 X137.263 Y94.883 E5.91924 F1200
G1 X137.822 Y94.997 E5.93844 F1200
G1 X138.383 Y95.143 E5.95794 F1200
G1 X139.191 Y95.416 E5.98663 F1200
G1 X139.636 Y95.601 E6.00283 F1200
G1 X140.191 Y95.864 E6.02350 F1200
G1 X140.496 Y96.034 E6.03526 F1200
G1 X141.110 Y95.717 E6.05853 F1200
G1 X141.728 Y95.448 E6.08123 F1200
G1 X142.329 Y95.234 E6.10268 F1200
G1 X143.094 Y95.016 E6.12945 F1200
G1 X143.931 Y94.850 E6.15817 F1200
G1 X144.856 Y94.751 E6.18949 F1200
G1 X145.065 Y94.740 E6.19653 F1200
G1 X145.889 Y94.737 E6.22428 F1200
G1 X146.518 Y94.780 E6.24550 F1200
G1 X147.263 Y94.883 E6.27082 F1200
G1 X147.822 Y94.997 E6.29002 F1200
G1 X148.383 Y95.143 E6.30951 F1200
G1 X149.191 Y95.416 E6.33821 F1200
G1 X149.636 Y95.601 E6.35440 F1200
G1 X150.191 Y95.864 E6.37508 F1200
G1 X150.496 Y96.034 E6.38683 F1200
G1 X151.110 Y95.717 E6.41010 F1200
G1 X151.728 Y95.448 E6.43280 F1200
G1 X152.329 Y95.234 E6.45425 F1200
G1 X153.094 Y95.016 E6.48103 F1200
G1 X153.931 Y94.850 E6.50975 F1200
G1 X154.856 Y94.751 E6.54107 F1200
G1 X155.065 Y94.740 E6.54811 F1200
G1 X155.889 Y94.737 E6.57586 F1200
G1 X156.518 Y94.780 E6.59707 F1200
G1 X157.263 Y94.883 E6.62240 F1200
G1 X157.822 Y94.997 E6.64159 F1200
G1 X158.383 Y95.143 E6.66109 F1200
G1 X159.191 Y95.416 E6.68978 F1200
G1 X159.636 Y95.601 E6.70598 F1200
G1 X160.191 Y95.864 E6.72666 F1200
G1 X160.496 Y96.034 E6.73841 F1200
G1 X161.110 Y95.717 E6.76168 F1200
G1 X161.728 Y95.448 E6.78438 F1200
G1 X162.329 Y95.234 E6.80583 F1200
G1 X163.094 Y95.016 E6.83260 F1200
G1 X163.931 Y94.850 E6.86133 F1200
G1 X164.856 Y94.751 E6.89265 F1200
G1 X165.065 Y94.740 E6.89968 F1200
G1 X165.889 Y94.737 E6.92743 F1200
G1 X166.518 Y94.780 E6.94865 F1200
G1 X167.263 Y94.883 E6.97397 F1200
G1 X167.822 Y94.997 E6.99317 F1200
G1 X168.383 Y95.143 E7.01267 F1200
G1 X169.191 Y95.416 E7.04136 F1200
G1 X169.636 Y95.601 E7.05756 F1200
G1 X170.191 Y95.864 E7.07823 F1200
G1 X170.823 Y96.217 E7.10258 F1200
G1 X171.377 Y96.579 E7.12484 F1200
G1 X171.899 Y96.967 E7.14673 F1200
G1 X172.452 Y97.440 E7.17121 F1200
G1 X173.138 Y98.133 E7.20405 F1200
G1 X173.744 Y98.876 E7.23631 F1200
G1 X174.113 Y99.405 E7.25800 F1200
G1 X174.457 Y99.979 E7.28052 F1200
G1 X174.783 Y100.610 E7.30443 F1200
G1 X175.052 Y101.228 E7.32713 F1200
G1 X175.266 Y101.829 E7.34858 F1200
G1 X175.484 Y102.594 E7.37536 F1200
G1 X175.650 Y103.431 E7.40408 F1200
G1 X175.749 Y104.356 E7.43540 F1200
G1 X175.769 Y104.921 E7.45443 F1200
G1 X175.763 Y105.389 E7.47019 F1200
G1 X175.720 Y106.018 E7.49140 F1200
G1 X175.617 Y106.763 E7.51673 F1200
G1 X175.503 Y107.322 E7.53592 F1200
G1 X175.357 Y107.883 E7.55542 F1200
G1 X175.084 Y108.691 E7.58411 F1200
G1 X174.899 Y109.136 E7.60031 F1200
G1 X174.636 Y109.691 E7.62099 F1200
G1 X174.283 Y110.323 E7.64534 F1200
G1 X173.921 Y110.877 E7.66760 F1200
G1 X173.533 Y111.399 E7.68948 F1200
G1 X173.060 Y111.952 E7.71397 F1200
G1 X172.367 Y112.638 E7.74680 F1200
G1 X171.624 Y113.244 E7.77906 F1200
G1 X171.095 Y113.613 E7.80075 F1200
G1 X170.521 Y113.957 E7.82328 F1200
G1 X169.890 Y114.283 E7.84719 F1200
G1 X169.272 Y114.552 E7.86989 F1200
G1 X168.671 Y114.766 E7.89134 F1200
G1 X167.906 Y114.984 E7.91811 F1200
G1 X167.069 Y115.150 E7.94684 F1200
G1 X166.218 Y115.245 E7.97566 F1200
G1 X165.255 Y115.266 E8.00809 F1200
G1 X164.650 Y115.234 E8.02847 F1200
G1 X163.921 Y115.146 E8.05318 F1200
G1 X163.178 Y115.003 E8.07864 F1200
G1 X162.617 Y114.857 E8.09814 F1200
G1 X161.809 Y114.584 E8.12683 F1200
G1 X161.364 Y114.399 E8.14303 F1200
G1 X160.809 Y114.136 E8.16371 F1200
G1 X160.504 Y113.966 E8.17546 F1200
G1 X159.890 Y114.283 E8.19873 F1200
G1 X159.272 Y114.552 E8.22143 F1200
G1 X158.671 Y114.766 E8.24288 F1200
G1 X157.906 Y114.984 E8.26965 F1200
G1 X157.069 Y115.150 E8.29838 F1200
G1 X156.218 Y115.245 E8.32720 F1200
G1 X155.255 Y115.266 E8.35963 F1200
G1 X154.650 Y115.234 E8.38001 F1200
G1 X153.921 Y115.146 E8.40473 F1200
G1 X153.178 Y115.003 E8.43019 F1200
G1 X152.617 Y114.857 E8.44968 F1200
G1 X151.809 Y114.584 E8.47838 F1200
G1 X151.364 Y114.399 E8.49457 F1200
G1 X150.809 Y114.136 E8.51525 F1200
G1 X150.504 Y113.966 E8.52700 F1200
G1 X149.890 Y114.283 E8.55027 F1200
G1 X149.272 Y114.552 E8.57297 F1200
G1 X148.671 Y114.766 E8.59442 F1200
G1 X147.906 Y114.984 E8.62120 F1200
G1 X147.069 Y115.150 E8.64992 F1200
G1 X146.218 Y115.245 E8.67875 F1200
G1 X145.255 Y115.266 E8.71118 F1200
G1 X144.650 Y115.234 E8.73155 F1200
G1 X143.921 Y115.146 E8.75627 F1200
G1 X143.178 Y115.003 E8.78173 F1200
G1 X142.617 Y114.857 E8.80123 F1200
G1 X141.809 Y114.584 E8.82992 F1200
G1 X141.364 Y114.399 E8.84612 F1200
G1 X140.809 Y114.136 E8.86679 F1200
G1 X140.504 Y113.966 E8.87855 F1200
G1 X139.890 Y114.283 E8.90182 F1200
G1 X139.272 Y114.552 E8.92451 F1200
G1 X138.671 Y114.766 E8.94597 F1200
G1 X137.906 Y114.984 E8.97274 F1200
G1 X137.069 Y115.150 E9.00146 F1200
G1 X136.218 Y115.245 E9.03029 F1200
G1 X135.255 Y115.266 E9.06272 F1200
G1 X134.650 Y115.234 E9.08309 F1200
G1 X134.352 Y115.198 E9.09320 F1200
G1 X134.289 Y115.312 E9.09757 F1200
G1 X133.818 Y116.023 E9.12627 F1200
G1 X133.386 Y116.578 E9.14994 F1200
G1 X133.026 Y116.988 E9.16829 F1200
G1 X132.528 Y117.488 E9.19204 F1200
G1 X132.018 Y117.936 E9.21487 F1200
G1 X131.509 Y118.327 E9.23645 F1200
G1 X130.973 Y118.690 E9.25824 F1200
G1 X130.521 Y118.957 E9.27589 F1200
G1 X129.890 Y119.283 E9.29980 F1200
G1 X129.272 Y119.552 E9.32250 F1200
G1 X128.671 Y119.766 E9.34395 F1200
G1 X127.906 Y119.984 E9.37072 F1200
G1 X127.069 Y120.150 E9.39945 F1200
G1 X126.218 Y120.245 E9.42827 F1200
G1 X125.255 Y120.266 E9.46070 F1200
G1 X124.650 Y120.234 E9.48108 F1200
G1 X123.921 Y120.146 E9.50579 F1200
G1 X123.178 Y120.003 E9.53125 F1200
G1 X122.617 Y119.857 E9.55075 F1200
G1 X121.809 Y119.584 E9.57944 F1200
G1 X121.364 Y119.399 E9.59564 F1200
G1 X120.809 Y119.136 E9.61632 F1200
G1 X120.177 Y118.783 E9.64067 F1200
G1 X119.623 Y118.421 E9.66293 F1200
G1 X119.101 Y118.033 E9.68481 F1200
G1 X118.548 Y117.560 E9.70930 F1200
G1 X117.862 Y116.867 E9.74213 F1200
G1 X117.256 Y116.124 E9.77439 F1200
G1 X116.887 Y115.595 E9.79608 F1200
G1 X116.543 Y115.021 E9.81861 F1200
G1 X116.217 Y114.390 E9.84252 F1200
G1 X115.948 Y113.772 E9.86522 F1200
G1 X115.734 Y113.171 E9.88667 F1200
G1 X115.516 Y112.406 E9.91344 F1200
G1 X115.350 Y111.569 E9.94217 F1200
G1 X115.251 Y110.644 E9.97348 F1200
G1 X115.231 Y110.079 E9.99251 F1200
G1 X115.237 Y109.611 E10.00827 F1200
G1 X115.280 Y108.982 E10.02949 F1200
G1 X115.383 Y108.237 E10.05481 F1200
G1 X115.497 Y107.678 E10.07401 F1200
G1 X115.643 Y107.117 E10.09351 F1200
G1 X115.916 Y106.309 E10.12220 F1200
G1 X116.101 Y105.864 E10.13840 F1200
G1 X116.364 Y105.309 E10.15907 F1200
G1 X116.717 Y104.677 E10.18342 F1200
G1 X117.079 Y104.123 E10.20568 F1200
G1 X117.467 Y103.601 E10.22757 F1200
G1 X117.940 Y103.048 E10.25205 F1200
; Inset 0 
G1 F1500 E2.25205
G0 X128.759 Y109.955 F7200
G1 F1500 E10.25205
G0 X128.402 Y109.946 F7200
G1 X128.374 Y109.599 E10.26299 F1200
G1 X128.344 Y109.421 E10.26865 F1200
G1 X128.297 Y109.222 E10.27506 F1200
G1 X128.200 Y108.934 E10.28458 F1200
G1 X128.039 Y108.592 E10.29646 F1200
G1 X127.860 Y108.312 E10.30690 F1200
G1 X127.607 Y108.003 E10.31944 F1200
G1 X127.399 Y107.804 E10.32846 F1200
G1 X126.958 Y107.490 E10.34546 F1200
G1 X126.747 Y107.378 E10.35294 F1200
G1 X126.446 Y107.256 E10.36313 F1200
G1 X126.226 Y107.190 E10.37033 F1200
G1 X125.977 Y107.137 E10.37831 F1200
G1 X125.729 Y107.107 E10.38614 F1200
G1 X125.548 Y107.098 E10.39182 F1200
G1 X125.295 Y107.104 E10.39978 F1200
G1 X124.972 Y107.146 E10.40999 F1200
G1 X124.725 Y107.203 E10.41794 F1200
G1 X124.552 Y107.256 E10.42360 F1200
G1 X124.338 Y107.341 E10.43083 F1200
G1 X123.964 Y107.537 E10.44409 F1200
G1 X123.732 Y107.698 E10.45296 F1200
G1 X123.500 Y107.896 E10.46254 F1200
G1 X123.261 Y108.154 E10.47358 F1200
G1 X123.080 Y108.397 E10.48310 F1200
G1 X122.960 Y108.595 E10.49036 F1200
G1 X122.819 Y108.888 E10.50057 F1200
G1 X122.755 Y109.057 E10.50623 F1200
G1 X122.697 Y109.249 E10.51252 F1200
G1 X122.655 Y109.427 E10.51824 F1200
G1 X122.607 Y109.769 E10.52908 F1200
G1 X122.598 Y109.952 E10.53483 F1200
G1 X122.604 Y110.205 E10.54279 F1200
G1 X122.645 Y110.527 E10.55297 F1200
G1 X122.691 Y110.731 E10.55954 F1200
G1 X122.799 Y111.063 E10.57051 F1200
G1 X122.926 Y111.343 E10.58016 F1200
G1 X123.121 Y111.664 E10.59194 F1200
G1 X123.278 Y111.867 E10.59999 F1200
G1 X123.485 Y112.089 E10.60951 F1200
G1 X123.713 Y112.287 E10.61897 F1200
G1 X123.941 Y112.448 E10.62774 F1200
G1 X124.141 Y112.565 E10.63500 F1200
G1 X124.436 Y112.700 E10.64519 F1200
G1 X124.678 Y112.784 E10.65323 F1200
G1 X125.021 Y112.863 E10.66427 F1200
G1 X125.298 Y112.896 E10.67300 F1200
G1 X125.551 Y112.902 E10.68096 F1200
G1 X125.779 Y112.889 E10.68812 F1200
G1 X126.006 Y112.858 E10.69532 F1200
G1 X126.274 Y112.798 E10.70393 F1200
G1 X126.448 Y112.744 E10.70965 F1200
G1 X126.683 Y112.651 E10.71757 F1200
G1 X126.931 Y112.525 E10.72631 F1200
G1 X127.226 Y112.334 E10.73734 F1200
G1 X127.462 Y112.140 E10.74693 F1200
G1 X127.676 Y111.922 E10.75652 F1200
G1 X127.879 Y111.663 E10.76686 F1200
G1 X128.075 Y111.342 E10.77867 F1200
G1 X128.182 Y111.110 E10.78669 F1200
G1 X128.245 Y110.942 E10.79232 F1200
G1 X128.322 Y110.677 E10.80096 F1200
G1 X128.370 Y110.429 E10.80888 F1200
G1 X128.396 Y110.201 E10.81608 F1200
G1 X128.402 Y109.946 E10.82409 F1200
G0 X129.247 Y109.908 F7200
G1 Y110.090 E10.82981 F1200
G1 X129.230 Y110.365 E10.83846 F1200
G1 X129.203 Y110.580 E10.84525 F1200
G1 X129.165 Y110.786 E10.85181 F1200
G1 X129.106 Y111.024 E10.85951 F1200
G1 X129.013 Y111.307 E10.86885 F1200
G1 X128.851 Y111.680 E10.88161 F1200
G1 X128.736 Y111.892 E10.88919 F1200
G1 X128.549 Y112.179 E10.89993 F1200
G1 X128.411 Y112.361 E10.90710 F1200
G1 X128.286 Y112.508 E10.91314 F1200
G1 X128.059 Y112.738 E10.92329 F1200
G1 X127.940 Y112.845 E10.92832 F1200
G1 X127.749 Y112.998 E10.93599 F1200
G1 X127.534 Y113.149 E10.94422 F1200
G1 X127.405 Y113.229 E10.94897 F1200
G1 X127.180 Y113.351 E10.95698 F1200
G1 X126.930 Y113.465 E10.96559 F1200
G1 X126.761 Y113.530 E10.97128 F1200
G1 X126.440 Y113.628 E10.98181 F1200
G1 X126.081 Y113.703 E10.99332 F1200
G1 X125.799 Y113.736 E11.00221 F1200
G1 X125.464 Y113.748 E11.01274 F1200
G1 X125.273 Y113.741 E11.01874 F1200
G1 X125.002 Y113.715 E11.02729 F1200
G1 X124.729 Y113.668 E11.03600 F1200
G1 X124.502 Y113.613 E11.04332 F1200
G1 X124.184 Y113.509 E11.05382 F1200
G1 X123.824 Y113.353 E11.06614 F1200
G1 X123.545 Y113.198 E11.07617 F1200
G1 X123.427 Y113.123 E11.08054 F1200
G1 X123.197 Y112.958 E11.08943 F1200
G1 X122.990 Y112.784 E11.09792 F1200
G1 X122.717 Y112.511 E11.11005 F1200
G1 X122.500 Y112.247 E11.12077 F1200
G1 X122.351 Y112.034 E11.12891 F1200
G1 X122.267 Y111.898 E11.13391 F1200
G1 X122.148 Y111.678 E11.14176 F1200
G1 X122.033 Y111.426 E11.15047 F1200
G1 X121.970 Y111.259 E11.15606 F1200
G1 X121.872 Y110.940 E11.16653 F1200
G1 X121.797 Y110.580 E11.17807 F1200
G1 X121.764 Y110.301 E11.18687 F1200
G1 X121.753 Y110.092 E11.19344 F1200
G1 X121.754 Y109.861 E11.20070 F1200
G1 X121.768 Y109.649 E11.20736 F1200
G1 X121.797 Y109.420 E11.21459 F1200
G1 X121.835 Y109.214 E11.22116 F1200
G1 X121.887 Y109.002 E11.22801 F1200
G1 X121.988 Y108.691 E11.23826 F1200
G1 X122.149 Y108.320 E11.25095 F1200
G1 X122.302 Y108.045 E11.26082 F1200
G1 X122.377 Y107.927 E11.26519 F1200
G1 X122.541 Y107.699 E11.27399 F1200
G1 X122.716 Y107.490 E11.28254 F1200
G1 X122.989 Y107.217 E11.29467 F1200
G1 X123.249 Y107.003 E11.30524 F1200
G1 X123.466 Y106.851 E11.31353 F1200
G1 X123.595 Y106.771 E11.31828 F1200
G1 X123.820 Y106.649 E11.32629 F1200
G1 X124.070 Y106.535 E11.33491 F1200
G1 X124.239 Y106.470 E11.34060 F1200
G1 X124.560 Y106.372 E11.35112 F1200
G1 X124.919 Y106.297 E11.36263 F1200
G1 X125.199 Y106.264 E11.37146 F1200
G1 X125.407 Y106.253 E11.37800 F1200
G1 X125.638 Y106.254 E11.38526 F1200
G1 X125.851 Y106.268 E11.39195 F1200
G1 X126.084 Y106.298 E11.39931 F1200
G1 X126.279 Y106.334 E11.40553 F1200
G1 X126.498 Y106.387 E11.41260 F1200
G1 X126.816 Y106.491 E11.42310 F1200
G1 X127.176 Y106.647 E11.43542 F1200
G1 X127.455 Y106.802 E11.44545 F1200
G1 X127.573 Y106.877 E11.44982 F1200
G1 X127.804 Y107.043 E11.45874 F1200
G1 X127.929 Y107.145 E11.46380 F1200
G1 X128.176 Y107.375 E11.47440 F1200
G1 X128.407 Y107.634 E11.48530 F1200
G1 X128.590 Y107.878 E11.49489 F1200
G1 X128.734 Y108.105 E11.50331 F1200
G1 X128.851 Y108.320 E11.51098 F1200
G1 X129.012 Y108.691 E11.52368 F1200
G1 X129.102 Y108.965 E11.53273 F1200
G1 X129.184 Y109.311 E11.54389 F1200
G1 X129.236 Y109.699 E11.55618 F1200
G1 X129.247 Y109.908 E11.56275 F1200
; Solid infill 
G0 X128.811 Y109.917 F7200
G1 X128.803 Y109.728 E11.56674 F1200
G1 X128.705 Y109.126 E11.57988 F1200
G1 X128.696 Y109.086 E11.58074 F1200
G1 X128.694 Y109.080 E11.58087 F1200
G1 X128.467 Y108.512 E11.59405 F1200
G1 X128.412 Y108.407 E11.59655 F1200
G1 X128.391 Y108.373 E11.59734 F1200
G1 X128.068 Y107.905 E11.60949 F1200
G1 X127.926 Y107.737 E11.61418 F1200
G1 X127.907 Y107.717 E11.61473 F1200
G1 X127.677 Y107.488 E11.62142 F1200
G1 X127.653 Y107.467 E11.62207 F1200
G1 X127.645 Y107.460 E11.62229 F1200
G1 X126.985 Y107.028 E11.63919 F1200
G1 X126.946 Y107.008 E11.64011 F1200
G1 X126.910 Y106.992 E11.64092 F1200
G1 X126.379 Y106.795 E11.65292 F1200
G1 X126.342 Y106.785 E11.65373 F1200
G1 X126.312 Y106.778 E11.65436 F1200
G1 X125.808 Y106.690 E11.66517 F1200
G1 X125.779 Y106.688 E11.66578 F1200
G1 X125.743 E11.66654 F1200
G1 X124.993 Y106.719 E11.68258 F1200
G1 X124.917 Y106.730 E11.68421 F1200
G1 X124.877 Y106.739 E11.68506 F1200
G1 X124.376 Y106.879 E11.69625 F1200
G1 X124.185 Y106.959 E11.70061 F1200
G1 X124.151 Y106.976 E11.70136 F1200
G1 X123.506 Y107.340 E11.71645 F1200
G1 X123.495 Y107.348 E11.71673 F1200
G1 X123.465 Y107.374 E11.71755 F1200
G1 X123.031 Y107.781 E11.73029 F1200
G1 X122.950 Y107.872 E11.73289 F1200
G1 X122.928 Y107.898 E11.73359 F1200
G1 X122.733 Y108.168 E11.74076 F1200
G1 X122.605 Y108.383 E11.74600 F1200
G1 X122.587 Y108.418 E11.74678 F1200
G1 X122.403 Y108.843 E11.75688 F1200
G1 X122.252 Y109.300 E11.76774 F1200
G1 X122.247 Y109.323 E11.76823 F1200
G1 X122.240 Y109.371 E11.76924 F1200
G1 X122.186 Y110.215 E11.78674 F1200
G1 Y110.253 E11.78753 F1200
G1 X122.187 Y110.276 E11.78801 F1200
G1 X122.292 Y110.824 E11.79937 F1200
G1 X122.299 Y110.855 E11.79998 F1200
G1 X122.375 Y111.109 E11.80551 F1200
G1 X122.553 Y111.518 E11.81486 F1200
G1 X122.569 Y111.549 E11.81553 F1200
G1 X122.714 Y111.799 E11.82162 F1200
G1 X122.952 Y112.114 E11.82983 F1200
G1 X122.974 Y112.139 E11.83047 F1200
G1 X123.278 Y112.463 E11.83972 F1200
G1 X123.441 Y112.604 E11.84433 F1200
G1 X123.466 Y112.624 E11.84500 F1200
G1 X123.665 Y112.766 E11.85020 F1200
G1 X123.939 Y112.924 E11.85680 F1200
G1 X123.966 Y112.938 E11.85740 F1200
G1 X124.329 Y113.104 E11.86573 F1200
G1 X124.549 Y113.176 E11.87059 F1200
G1 X124.581 Y113.185 E11.87125 F1200
G1 X125.055 Y113.287 E11.88139 F1200
G1 X125.250 Y113.307 E11.88552 F1200
G1 X125.287 Y113.309 E11.88626 F1200
G1 X125.769 Y113.302 E11.89654 F1200
G1 X126.060 Y113.263 E11.90272 F1200
G1 X126.097 Y113.256 E11.90344 F1200
G1 X126.624 Y113.118 E11.91484 F1200
G1 X126.830 Y113.032 E11.91951 F1200
G1 X126.863 Y113.016 E11.92021 F1200
G1 X127.459 Y112.681 E11.93393 F1200
G1 X127.490 Y112.662 E11.93468 F1200
G1 X127.972 Y112.222 E11.94855 F1200
G1 X127.980 Y112.213 E11.94880 F1200
G1 X128.004 Y112.183 E11.94960 F1200
G1 X128.366 Y111.674 E11.96299 F1200
G1 X128.433 Y111.556 E11.96586 F1200
G1 X128.452 Y111.519 E11.96671 F1200
G1 X128.607 Y111.149 E11.97538 F1200
G1 X128.725 Y110.792 E11.98357 F1200
G1 X128.735 Y110.752 E11.98443 F1200
G1 X128.746 Y110.697 E11.98563 F1200
G1 X128.810 Y109.957 E12.00099 F1200
G1 X128.811 Y109.917 E12.00178 F1200
; Inset 0 
G1 F1500 E4.00178
G0 X138.783 Y104.960 F7200
G1 F1500 E12.00178
G0 X138.427 Y104.950 F7200
G1 X138.418 Y104.769 E12.00747 F1200
G1 X138.395 Y104.567 E12.01385 F1200
G1 X138.364 Y104.391 E12.01945 F1200
G1 X138.321 Y104.215 E12.02513 F1200
G1 X138.243 Y103.975 E12.03306 F1200
G1 X138.182 Y103.827 E12.03808 F1200
G1 X137.984 Y103.449 E12.05147 F1200
G1 X137.776 Y103.158 E12.06269 F1200
G1 X137.570 Y102.930 E12.07234 F1200
G1 X137.361 Y102.740 E12.08121 F1200
G1 X137.116 Y102.560 E12.09076 F1200
G1 X136.919 Y102.439 E12.09802 F1200
G1 X136.665 Y102.314 E12.10692 F1200
G1 X136.333 Y102.194 E12.11801 F1200
G1 X136.109 Y102.137 E12.12527 F1200
G1 X135.931 Y102.105 E12.13093 F1200
G1 X135.753 Y102.084 E12.13656 F1200
G1 X135.548 Y102.073 E12.14300 F1200
G1 X135.219 Y102.086 E12.15334 F1200
G1 X134.894 Y102.136 E12.16365 F1200
G1 X134.715 Y102.179 E12.16943 F1200
G1 X134.475 Y102.257 E12.17735 F1200
G1 X134.330 Y102.317 E12.18226 F1200
G1 X134.101 Y102.429 E12.19024 F1200
G1 X133.823 Y102.601 E12.20049 F1200
G1 X133.656 Y102.726 E12.20703 F1200
G1 X133.448 Y102.911 E12.21576 F1200
G1 X133.305 Y103.063 E12.22230 F1200
G1 X133.117 Y103.301 E12.23182 F1200
G1 X132.966 Y103.534 E12.24053 F1200
G1 X132.867 Y103.719 E12.24710 F1200
G1 X132.757 Y103.977 E12.25590 F1200
G1 X132.659 Y104.292 E12.26624 F1200
G1 X132.605 Y104.567 E12.27504 F1200
G1 X132.581 Y104.772 E12.28152 F1200
G1 X132.573 Y105.026 E12.28950 F1200
G1 X132.584 Y105.255 E12.29670 F1200
G1 X132.605 Y105.434 E12.30235 F1200
G1 X132.642 Y105.635 E12.30877 F1200
G1 X132.694 Y105.835 E12.31524 F1200
G1 X132.785 Y106.096 E12.32392 F1200
G1 X132.860 Y106.264 E12.32967 F1200
G1 X133.016 Y106.552 E12.33995 F1200
G1 X133.181 Y106.788 E12.34897 F1200
G1 X133.539 Y107.175 E12.36553 F1200
G1 X133.840 Y107.412 E12.37757 F1200
G1 X134.039 Y107.537 E12.38496 F1200
G1 X134.263 Y107.653 E12.39288 F1200
G1 X134.476 Y107.743 E12.40014 F1200
G1 X134.717 Y107.821 E12.40809 F1200
G1 X134.894 Y107.864 E12.41381 F1200
G1 X135.144 Y107.905 E12.42176 F1200
G1 X135.371 Y107.924 E12.42890 F1200
G1 X135.552 Y107.927 E12.43458 F1200
G1 X135.731 Y107.918 E12.44021 F1200
G1 X135.933 Y107.895 E12.44659 F1200
G1 X136.135 Y107.858 E12.45303 F1200
G1 X136.335 Y107.806 E12.45951 F1200
G1 X136.596 Y107.715 E12.46818 F1200
G1 X136.764 Y107.640 E12.47394 F1200
G1 X137.052 Y107.484 E12.48421 F1200
G1 X137.283 Y107.321 E12.49308 F1200
G1 X137.516 Y107.123 E12.50266 F1200
G1 X137.742 Y106.882 E12.51304 F1200
G1 X137.870 Y106.718 E12.51957 F1200
G1 X138.024 Y106.484 E12.52837 F1200
G1 X138.174 Y106.192 E12.53868 F1200
G1 X138.243 Y106.023 E12.54440 F1200
G1 X138.307 Y105.831 E12.55075 F1200
G1 X138.358 Y105.633 E12.55716 F1200
G1 X138.395 Y105.431 E12.56361 F1200
G1 X138.419 Y105.227 E12.57005 F1200
G1 X138.427 Y104.950 E12.57876 F1200
G0 X139.247 Y104.908 F7200
G1 X139.246 Y105.138 E12.58599 F1200
G1 X139.232 Y105.351 E12.59268 F1200
G1 X139.203 Y105.580 E12.59991 F1200
G1 X139.168 Y105.772 E12.60604 F1200
G1 X139.113 Y105.998 E12.61333 F1200
G1 X139.012 Y106.309 E12.62358 F1200
G1 X138.853 Y106.676 E12.63612 F1200
G1 X138.698 Y106.955 E12.64615 F1200
G1 X138.623 Y107.073 E12.65051 F1200
G1 X138.459 Y107.301 E12.65931 F1200
G1 X138.285 Y107.509 E12.66783 F1200
G1 X138.011 Y107.783 E12.68000 F1200
G1 X137.751 Y107.997 E12.69056 F1200
G1 X137.534 Y108.149 E12.69885 F1200
G1 X137.405 Y108.229 E12.70360 F1200
G1 X137.180 Y108.351 E12.71162 F1200
G1 X136.930 Y108.465 E12.72023 F1200
G1 X136.761 Y108.530 E12.72592 F1200
G1 X136.440 Y108.628 E12.73645 F1200
G1 X136.081 Y108.703 E12.74795 F1200
G1 X135.799 Y108.736 E12.75684 F1200
G1 X135.464 Y108.748 E12.76737 F1200
G1 X135.273 Y108.741 E12.77338 F1200
G1 X135.002 Y108.715 E12.78193 F1200
G1 X134.729 Y108.668 E12.79063 F1200
G1 X134.502 Y108.613 E12.79796 F1200
G1 X134.184 Y108.509 E12.80845 F1200
G1 X133.824 Y108.353 E12.82077 F1200
G1 X133.545 Y108.198 E12.83080 F1200
G1 X133.427 Y108.123 E12.83517 F1200
G1 X133.197 Y107.958 E12.84407 F1200
G1 X132.991 Y107.785 E12.85252 F1200
G1 X132.717 Y107.511 E12.86468 F1200
G1 X132.500 Y107.247 E12.87540 F1200
G1 X132.351 Y107.034 E12.88354 F1200
G1 X132.267 Y106.898 E12.88854 F1200
G1 X132.148 Y106.678 E12.89640 F1200
G1 X132.033 Y106.426 E12.90510 F1200
G1 X131.970 Y106.259 E12.91070 F1200
G1 X131.872 Y105.940 E12.92117 F1200
G1 X131.797 Y105.580 E12.93270 F1200
G1 X131.764 Y105.301 E12.94150 F1200
G1 X131.753 Y105.092 E12.94807 F1200
G1 X131.754 Y104.861 E12.95533 F1200
G1 X131.768 Y104.649 E12.96199 F1200
G1 X131.797 Y104.420 E12.96922 F1200
G1 X131.832 Y104.228 E12.97535 F1200
G1 X131.887 Y104.002 E12.98264 F1200
G1 X131.988 Y103.691 E12.99289 F1200
G1 X132.149 Y103.320 E13.00559 F1200
G1 X132.302 Y103.045 E13.01546 F1200
G1 X132.377 Y102.927 E13.01983 F1200
G1 X132.541 Y102.699 E13.02863 F1200
G1 X132.715 Y102.491 E13.03714 F1200
G1 X132.989 Y102.217 E13.04931 F1200
G1 X133.249 Y102.003 E13.05987 F1200
G1 X133.466 Y101.851 E13.06817 F1200
G1 X133.595 Y101.771 E13.07291 F1200
G1 X133.820 Y101.649 E13.08093 F1200
G1 X134.070 Y101.535 E13.08954 F1200
G1 X134.239 Y101.470 E13.09523 F1200
G1 X134.560 Y101.372 E13.10576 F1200
G1 X134.919 Y101.297 E13.11726 F1200
G1 X135.199 Y101.264 E13.12609 F1200
G1 X135.407 Y101.253 E13.13263 F1200
G1 X135.638 Y101.254 E13.13989 F1200
G1 X135.851 Y101.268 E13.14659 F1200
G1 X136.084 Y101.298 E13.15394 F1200
G1 X136.279 Y101.334 E13.16017 F1200
G1 X136.498 Y101.387 E13.16724 F1200
G1 X136.816 Y101.491 E13.17773 F1200
G1 X137.176 Y101.647 E13.19006 F1200
G1 X137.455 Y101.802 E13.20008 F1200
G1 X137.573 Y101.877 E13.20445 F1200
G1 X137.801 Y102.041 E13.21325 F1200
G1 X138.009 Y102.215 E13.22177 F1200
G1 X138.283 Y102.489 E13.23393 F1200
G1 X138.500 Y102.753 E13.24465 F1200
G1 X138.649 Y102.966 E13.25279 F1200
G1 X138.726 Y103.090 E13.25735 F1200
G1 X138.851 Y103.320 E13.26555 F1200
G1 X138.967 Y103.574 E13.27432 F1200
G1 X139.030 Y103.739 E13.27985 F1200
G1 X139.128 Y104.060 E13.29038 F1200
G1 X139.203 Y104.419 E13.30189 F1200
G1 X139.236 Y104.699 E13.31072 F1200
G1 X139.247 Y104.908 E13.31729 F1200
; Solid infill 
G0 X138.809 Y104.724 F7200
G1 X138.754 Y104.328 E13.32513 F1200
G1 X138.747 Y104.294 E13.32573 F1200
G1 X138.633 Y103.870 E13.33411 F1200
G1 X138.549 Y103.674 E13.33821 F1200
G1 X138.538 Y103.651 E13.33866 F1200
G1 X138.325 Y103.251 E13.34674 F1200
G1 X138.311 Y103.227 E13.34722 F1200
G1 X138.169 Y103.011 E13.35219 F1200
G1 X137.867 Y102.657 E13.36136 F1200
G1 X137.840 Y102.630 E13.36207 F1200
G1 X137.730 Y102.529 E13.36502 F1200
G1 X137.130 Y102.098 E13.37956 F1200
G1 X137.099 Y102.078 E13.38023 F1200
G1 X136.987 Y102.018 E13.38273 F1200
G1 X136.468 Y101.810 E13.39385 F1200
G1 X136.432 Y101.798 E13.39456 F1200
G1 X136.382 Y101.785 E13.39558 F1200
G1 X135.808 Y101.689 E13.40761 F1200
G1 X135.572 Y101.674 E13.41229 F1200
G1 X135.531 Y101.675 E13.41305 F1200
G1 X134.993 Y101.717 E13.42384 F1200
G1 X134.626 Y101.787 E13.43139 F1200
G1 X134.589 Y101.796 E13.43211 F1200
G1 X134.372 Y101.867 E13.43664 F1200
G1 X133.925 Y102.078 E13.44610 F1200
G1 X133.900 Y102.091 E13.44659 F1200
G1 X133.501 Y102.332 E13.45533 F1200
G1 X133.413 Y102.401 E13.45751 F1200
G1 X133.393 Y102.418 E13.45800 F1200
G1 X133.017 Y102.770 E13.46802 F1200
G1 X133.002 Y102.787 E13.46846 F1200
G1 X132.980 Y102.814 E13.46912 F1200
G1 X132.728 Y103.165 E13.47793 F1200
G1 X132.519 Y103.524 E13.48619 F1200
G1 X132.503 Y103.555 E13.48681 F1200
G1 X132.380 Y103.838 E13.49284 F1200
G1 X132.268 Y104.178 E13.49997 F1200
G1 X132.259 Y104.213 E13.50066 F1200
G1 X132.239 Y104.312 E13.50267 F1200
G1 X132.177 Y105.011 E13.51614 F1200
G1 X132.176 Y105.049 E13.51683 F1200
G1 X132.185 Y105.264 E13.52107 F1200
G1 X132.307 Y105.933 E13.53455 F1200
G1 X132.315 Y105.965 E13.53515 F1200
G1 X132.359 Y106.114 E13.53813 F1200
G1 X132.495 Y106.425 E13.54464 F1200
G1 X132.506 Y106.449 E13.54512 F1200
G1 X132.703 Y106.806 E13.55306 F1200
G1 X132.860 Y107.023 E13.55824 F1200
G1 X132.878 Y107.045 E13.55875 F1200
G1 X133.253 Y107.467 E13.56934 F1200
G1 X133.264 Y107.480 E13.56966 F1200
G1 X133.276 Y107.489 E13.56996 F1200
G1 X133.658 Y107.775 E13.57951 F1200
G1 X133.824 Y107.876 E13.58331 F1200
G1 X133.854 Y107.892 E13.58394 F1200
G1 X134.326 Y108.112 E13.59418 F1200
G1 X134.589 Y108.200 E13.59964 F1200
G1 X134.628 Y108.210 E13.60038 F1200
G1 X135.054 Y108.290 E13.60904 F1200
G1 X135.537 Y108.327 E13.61882 F1200
G1 X135.579 E13.61961 F1200
G1 X135.771 Y108.315 E13.62343 F1200
G1 X136.434 Y108.192 E13.63676 F1200
G1 X136.465 Y108.184 E13.63735 F1200
G1 X136.630 Y108.135 E13.64065 F1200
G1 X136.925 Y107.999 E13.64677 F1200
G1 X136.948 Y107.987 E13.64721 F1200
G1 X137.500 Y107.669 E13.65909 F1200
G1 X137.519 Y107.654 E13.65956 F1200
G1 X137.544 Y107.633 E13.66018 F1200
G1 X137.979 Y107.227 E13.67191 F1200
G1 X138.041 Y107.157 E13.67376 F1200
G1 X138.060 Y107.134 E13.67432 F1200
G1 X138.278 Y106.839 E13.68155 F1200
G1 X138.364 Y106.698 E13.68476 F1200
G1 X138.379 Y106.670 E13.68534 F1200
G1 X138.618 Y106.161 E13.69642 F1200
G1 X138.691 Y105.959 E13.70070 F1200
G1 X138.701 Y105.925 E13.70137 F1200
G1 X138.758 Y105.685 E13.70623 F1200
G1 X138.809 Y105.272 E13.71414 F1200
G1 X138.811 Y105.237 E13.71475 F1200
G1 X138.809 Y104.724 E13.72480 F1200
; Inset 0 
G1 F1500 E5.72480
G0 X148.808 Y104.960 F7200
G1 F1500 E13.72480
G0 X148.452 Y104.950 F7200
G1 X148.443 Y104.767 E13.73055 F1200
G1 X148.424 Y104.587 E13.73624 F1200
G1 X148.387 Y104.383 E13.74275 F1200
G1 X148.308 Y104.088 E13.75233 F1200
G1 X148.208 Y103.824 E13.76120 F1200
G1 X148.130 Y103.658 E13.76695 F1200
G1 X148.014 Y103.451 E13.77440 F1200
G1 X147.733 Y103.068 E13.78933 F1200
G1 X147.636 Y102.961 E13.79385 F1200
G1 X147.316 Y102.672 E13.80740 F1200
G1 X146.958 Y102.432 E13.82095 F1200
G1 X146.725 Y102.313 E13.82915 F1200
G1 X146.556 Y102.243 E13.83487 F1200
G1 X146.361 Y102.177 E13.84131 F1200
G1 X146.139 Y102.118 E13.84851 F1200
G1 X145.960 Y102.084 E13.85423 F1200
G1 X145.730 Y102.057 E13.86149 F1200
G1 X145.473 Y102.048 E13.86957 F1200
G1 X145.216 Y102.061 E13.87765 F1200
G1 X144.961 Y102.097 E13.88573 F1200
G1 X144.712 Y102.154 E13.89374 F1200
G1 X144.581 Y102.194 E13.89802 F1200
G1 X144.207 Y102.345 E13.91068 F1200
G1 X143.977 Y102.470 E13.91889 F1200
G1 X143.764 Y102.613 E13.92693 F1200
G1 X143.580 Y102.756 E13.93426 F1200
G1 X143.357 Y102.969 E13.94394 F1200
G1 X143.155 Y103.205 E13.95368 F1200
G1 X142.932 Y103.542 E13.96638 F1200
G1 X142.824 Y103.752 E13.97380 F1200
G1 X142.751 Y103.921 E13.97958 F1200
G1 X142.655 Y104.210 E13.98913 F1200
G1 X142.606 Y104.416 E13.99577 F1200
G1 X142.557 Y104.767 E14.00689 F1200
G1 X142.548 Y105.026 E14.01503 F1200
G1 X142.557 Y105.233 E14.02154 F1200
G1 X142.584 Y105.465 E14.02886 F1200
G1 X142.654 Y105.786 E14.03917 F1200
G1 X142.694 Y105.919 E14.04351 F1200
G1 X142.845 Y106.293 E14.05618 F1200
G1 X142.970 Y106.523 E14.06438 F1200
G1 X143.113 Y106.736 E14.07243 F1200
G1 X143.256 Y106.920 E14.07975 F1200
G1 X143.469 Y107.143 E14.08943 F1200
G1 X143.705 Y107.345 E14.09917 F1200
G1 X144.042 Y107.568 E14.11187 F1200
G1 X144.252 Y107.676 E14.11929 F1200
G1 X144.421 Y107.749 E14.12507 F1200
G1 X144.710 Y107.845 E14.13463 F1200
G1 X144.916 Y107.894 E14.14126 F1200
G1 X145.265 Y107.943 E14.15232 F1200
G1 X145.450 Y107.952 E14.15814 F1200
G1 X145.681 Y107.947 E14.16540 F1200
G1 X145.912 Y107.924 E14.17269 F1200
G1 X146.117 Y107.887 E14.17923 F1200
G1 X146.412 Y107.808 E14.18881 F1200
G1 X146.676 Y107.708 E14.19768 F1200
G1 X146.842 Y107.630 E14.20343 F1200
G1 X147.049 Y107.514 E14.21088 F1200
G1 X147.432 Y107.233 E14.22581 F1200
G1 X147.539 Y107.136 E14.23033 F1200
G1 X147.828 Y106.816 E14.24388 F1200
G1 X148.068 Y106.458 E14.25743 F1200
G1 X148.187 Y106.225 E14.26563 F1200
G1 X148.257 Y106.056 E14.27135 F1200
G1 X148.323 Y105.861 E14.27779 F1200
G1 X148.382 Y105.639 E14.28499 F1200
G1 X148.416 Y105.460 E14.29071 F1200
G1 X148.444 Y105.230 E14.29797 F1200
G1 X148.452 Y104.950 E14.30677 F1200
G0 X149.247 Y104.908 F7200
G1 X149.246 Y105.138 E14.31400 F1200
G1 X149.232 Y105.351 E14.32070 F1200
G1 X149.203 Y105.580 E14.32793 F1200
G1 X149.168 Y105.772 E14.33406 F1200
G1 X149.113 Y105.998 E14.34135 F1200
G1 X149.012 Y106.309 E14.35159 F1200
G1 X148.853 Y106.676 E14.36413 F1200
G1 X148.698 Y106.955 E14.37416 F1200
G1 X148.623 Y107.073 E14.37853 F1200
G1 X148.459 Y107.301 E14.38733 F1200
G1 X148.285 Y107.509 E14.39585 F1200
G1 X148.011 Y107.783 E14.40801 F1200
G1 X147.751 Y107.997 E14.41857 F1200
G1 X147.534 Y108.149 E14.42687 F1200
G1 X147.405 Y108.229 E14.43162 F1200
G1 X147.180 Y108.351 E14.43963 F1200
G1 X146.930 Y108.465 E14.44824 F1200
G1 X146.761 Y108.530 E14.45393 F1200
G1 X146.440 Y108.628 E14.46446 F1200
G1 X146.081 Y108.703 E14.47597 F1200
G1 X145.799 Y108.736 E14.48486 F1200
G1 X145.464 Y108.748 E14.49539 F1200
G1 X145.273 Y108.741 E14.50139 F1200
G1 X145.002 Y108.715 E14.50994 F1200
G1 X144.729 Y108.668 E14.51865 F1200
G1 X144.502 Y108.613 E14.52597 F1200
G1 X144.184 Y108.509 E14.53647 F1200
G1 X143.824 Y108.353 E14.54879 F1200
G1 X143.545 Y108.198 E14.55882 F1200
G1 X143.427 Y108.123 E14.56319 F1200
G1 X143.197 Y107.958 E14.57208 F1200
G1 X142.991 Y107.785 E14.58054 F1200
G1 X142.717 Y107.511 E14.59270 F1200
G1 X142.500 Y107.247 E14.60342 F1200
G1 X142.351 Y107.034 E14.61156 F1200
G1 X142.267 Y106.898 E14.61656 F1200
G1 X142.148 Y106.678 E14.62441 F1200
G1 X142.033 Y106.426 E14.63312 F1200
G1 X141.970 Y106.259 E14.63871 F1200
G1 X141.872 Y105.940 E14.64918 F1200
G1 X141.797 Y105.580 E14.66072 F1200
G1 X141.764 Y105.301 E14.66952 F1200
G1 X141.753 Y105.092 E14.67609 F1200
G1 X141.754 Y104.861 E14.68335 F1200
G1 X141.768 Y104.649 E14.69001 F1200
G1 X141.797 Y104.420 E14.69724 F1200
G1 X141.832 Y104.228 E14.70337 F1200
G1 X141.887 Y104.002 E14.71066 F1200
G1 X141.988 Y103.691 E14.72091 F1200
G1 X142.149 Y103.320 E14.73360 F1200
G1 X142.302 Y103.045 E14.74347 F1200
G1 X142.377 Y102.927 E14.74784 F1200
G1 X142.541 Y102.699 E14.75664 F1200
G1 X142.715 Y102.491 E14.76516 F1200
G1 X142.989 Y102.217 E14.77732 F1200
G1 X143.249 Y102.003 E14.78789 F1200
G1 X143.466 Y101.851 E14.79618 F1200
G1 X143.595 Y101.771 E14.80093 F1200
G1 X143.820 Y101.649 E14.80894 F1200
G1 X144.070 Y101.535 E14.81756 F1200
G1 X144.239 Y101.470 E14.82324 F1200
G1 X144.560 Y101.372 E14.83377 F1200
G1 X144.919 Y101.297 E14.84528 F1200
G1 X145.199 Y101.264 E14.85411 F1200
G1 X145.407 Y101.253 E14.86065 F1200
G1 X145.638 Y101.254 E14.86791 F1200
G1 X145.851 Y101.268 E14.87460 F1200
G1 X146.084 Y101.298 E14.88196 F1200
G1 X146.279 Y101.334 E14.88818 F1200
G1 X146.498 Y101.387 E14.89525 F1200
G1 X146.816 Y101.491 E14.90575 F1200
G1 X147.176 Y101.647 E14.91807 F1200
G1 X147.455 Y101.802 E14.92810 F1200
G1 X147.573 Y101.877 E14.93247 F1200
G1 X147.801 Y102.041 E14.94127 F1200
G1 X148.009 Y102.215 E14.94979 F1200
G1 X148.283 Y102.489 E14.96195 F1200
G1 X148.500 Y102.753 E14.97267 F1200
G1 X148.649 Y102.966 E14.98081 F1200
G1 X148.726 Y103.090 E14.98537 F1200
G1 X148.851 Y103.320 E14.99357 F1200
G1 X148.967 Y103.574 E15.00234 F1200
G1 X149.030 Y103.739 E15.00787 F1200
G1 X149.128 Y104.060 E15.01840 F1200
G1 X149.202 Y104.416 E15.02981 F1200
G1 X149.236 Y104.699 E15.03877 F1200
G1 X149.247 Y104.908 E15.04534 F1200
; Solid infill 
G0 X148.827 Y104.722 F7200
G1 X148.810 Y104.553 E15.04840 F1200
G1 X148.805 Y104.521 E15.04894 F1200
G1 X148.683 Y103.978 E15.05841 F1200
G1 X148.675 Y103.951 E15.05889 F1200
G1 X148.646 Y103.865 E15.06052 F1200
G1 X148.345 Y103.263 E15.07219 F1200
G1 X148.331 Y103.237 E15.07265 F1200
G1 X148.179 Y103.004 E15.07758 F1200
G1 X147.921 Y102.697 E15.08488 F1200
G1 X147.904 Y102.679 E15.08529 F1200
G1 X147.741 Y102.516 E15.08941 F1200
G1 X147.559 Y102.373 E15.09349 F1200
G1 X147.535 Y102.356 E15.09397 F1200
G1 X146.988 Y102.016 E15.10578 F1200
G1 X146.713 Y101.886 E15.11144 F1200
G1 X146.680 Y101.873 E15.11205 F1200
G1 X146.384 Y101.778 E15.11771 F1200
G1 X146.034 Y101.699 E15.12430 F1200
G1 X146.014 Y101.696 E15.12465 F1200
G1 X145.810 Y101.665 E15.12834 F1200
G1 X145.764 Y101.663 E15.12917 F1200
G1 X145.739 E15.12962 F1200
G1 X144.990 Y101.694 E15.14330 F1200
G1 X144.908 Y101.706 E15.14479 F1200
G1 X144.881 Y101.712 E15.14527 F1200
G1 X144.458 Y101.819 E15.15294 F1200
G1 X144.434 Y101.827 E15.15338 F1200
G1 X144.365 Y101.851 E15.15471 F1200
G1 X143.789 Y102.138 E15.16577 F1200
G1 X143.767 Y102.150 E15.16617 F1200
G1 X143.494 Y102.322 E15.17175 F1200
G1 X143.336 Y102.451 E15.17539 F1200
G1 X143.317 Y102.468 E15.17582 F1200
G1 X143.013 Y102.766 E15.18353 F1200
G1 X142.851 Y102.955 E15.18808 F1200
G1 X142.830 Y102.983 E15.18870 F1200
G1 X142.715 Y103.156 E15.19253 F1200
G1 X142.389 Y103.765 E15.20535 F1200
G1 X142.375 Y103.795 E15.20594 F1200
G1 X142.361 Y103.831 E15.20662 F1200
G1 X142.221 Y104.311 E15.21569 F1200
G1 X142.219 Y104.326 E15.21596 F1200
G1 X142.215 Y104.358 E15.21653 F1200
G1 X142.162 Y105.245 E15.23237 F1200
G1 Y105.277 E15.23295 F1200
G1 X142.163 Y105.282 E15.23304 F1200
G1 X142.319 Y106.030 E15.24662 F1200
G1 X142.327 Y106.061 E15.24718 F1200
G1 X142.346 Y106.119 E15.24827 F1200
G1 X142.627 Y106.713 E15.25999 F1200
G1 X142.640 Y106.738 E15.26048 F1200
G1 X142.687 Y106.817 E15.26211 F1200
G1 X142.956 Y107.158 E15.26963 F1200
G1 X142.972 Y107.177 E15.27002 F1200
G1 X143.262 Y107.482 E15.27746 F1200
G1 X143.455 Y107.648 E15.28212 F1200
G1 X143.483 Y107.669 E15.28273 F1200
G1 X143.654 Y107.783 E15.28653 F1200
G1 X144.264 Y108.109 E15.29941 F1200
G1 X144.293 Y108.123 E15.29998 F1200
G1 X144.318 Y108.133 E15.30045 F1200
G1 X144.828 Y108.272 E15.30970 F1200
G1 X144.857 Y108.278 E15.31020 F1200
G1 X145.052 Y108.309 E15.31376 F1200
G1 X145.688 Y108.340 E15.32546 F1200
G1 X145.724 Y108.339 E15.32610 F1200
G1 X145.773 Y108.335 E15.32698 F1200
G1 X146.514 Y108.184 E15.34051 F1200
G1 X146.546 Y108.175 E15.34109 F1200
G1 X146.634 Y108.146 E15.34275 F1200
G1 X147.237 Y107.844 E15.35447 F1200
G1 X147.262 Y107.830 E15.35492 F1200
G1 X147.503 Y107.673 E15.35997 F1200
G1 X147.804 Y107.420 E15.36713 F1200
G1 X147.822 Y107.403 E15.36754 F1200
G1 X147.989 Y107.236 E15.37175 F1200
G1 X148.132 Y107.064 E15.37579 F1200
G1 X148.150 Y107.039 E15.37632 F1200
G1 X148.281 Y106.841 E15.38076 F1200
G1 X148.617 Y106.214 E15.39415 F1200
G1 X148.632 Y106.181 E15.39479 F1200
G1 X148.637 Y106.168 E15.39503 F1200
G1 X148.771 Y105.687 E15.40430 F1200
G1 X148.797 Y105.533 E15.40711 F1200
G1 X148.800 Y105.499 E15.40768 F1200
G1 X148.827 Y104.722 E15.42173 F1200
; Inset 0 
G1 F1500 E7.42173
G0 X158.834 Y104.956 F7200
G1 F1500 E15.42173
G0 X158.477 Y104.945 F7200
G1 X158.452 Y104.611 E15.43223 F1200
G1 X158.396 Y104.307 E15.44194 F1200
G1 X158.347 Y104.127 E15.44779 F1200
G1 X158.261 Y103.885 E15.45583 F1200
G1 X158.185 Y103.711 E15.46178 F1200
G1 X157.943 Y103.297 E15.47683 F1200
G1 X157.844 Y103.164 E15.48202 F1200
G1 X157.674 Y102.965 E15.49022 F1200
G1 X157.335 Y102.655 E15.50465 F1200
G1 X157.078 Y102.475 E15.51448 F1200
G1 X156.873 Y102.358 E15.52190 F1200
G1 X156.614 Y102.238 E15.53086 F1200
G1 X156.343 Y102.144 E15.53985 F1200
G1 X155.993 Y102.063 E15.55113 F1200
G1 X155.734 Y102.032 E15.55930 F1200
G1 X155.549 Y102.023 E15.56512 F1200
G1 X155.266 Y102.031 E15.57401 F1200
G1 X155.008 Y102.063 E15.58216 F1200
G1 X154.802 Y102.105 E15.58876 F1200
G1 X154.504 Y102.194 E15.59853 F1200
G1 X154.170 Y102.335 E15.60991 F1200
G1 X153.833 Y102.532 E15.62217 F1200
G1 X153.510 Y102.785 E15.63505 F1200
G1 X153.339 Y102.952 E15.64257 F1200
G1 X153.152 Y103.170 E15.65159 F1200
G1 X152.924 Y103.507 E15.66435 F1200
G1 X152.810 Y103.721 E15.67195 F1200
G1 X152.685 Y104.031 E15.68245 F1200
G1 X152.604 Y104.307 E15.69147 F1200
G1 X152.545 Y104.634 E15.70191 F1200
G1 X152.531 Y104.770 E15.70618 F1200
G1 X152.523 Y105.026 E15.71423 F1200
G1 X152.532 Y105.236 E15.72083 F1200
G1 X152.567 Y105.516 E15.72969 F1200
G1 X152.605 Y105.697 E15.73547 F1200
G1 X152.668 Y105.920 E15.74274 F1200
G1 X152.739 Y106.115 E15.74924 F1200
G1 X152.803 Y106.263 E15.75430 F1200
G1 X152.961 Y106.555 E15.76474 F1200
G1 X153.092 Y106.753 E15.77219 F1200
G1 X153.324 Y107.034 E15.78363 F1200
G1 X153.685 Y107.361 E15.79893 F1200
G1 X153.944 Y107.538 E15.80877 F1200
G1 X154.173 Y107.666 E15.81701 F1200
G1 X154.432 Y107.780 E15.82587 F1200
G1 X154.583 Y107.832 E15.83087 F1200
G1 X154.806 Y107.895 E15.83813 F1200
G1 X155.010 Y107.937 E15.84467 F1200
G1 X155.266 Y107.968 E15.85274 F1200
G1 X155.449 Y107.977 E15.85849 F1200
G1 X155.685 Y107.972 E15.86591 F1200
G1 X156.014 Y107.933 E15.87632 F1200
G1 X156.197 Y107.895 E15.88216 F1200
G1 X156.421 Y107.832 E15.88945 F1200
G1 X156.642 Y107.750 E15.89684 F1200
G1 X156.924 Y107.615 E15.90665 F1200
G1 X157.289 Y107.381 E15.92026 F1200
G1 X157.454 Y107.248 E15.92689 F1200
G1 X157.573 Y107.138 E15.93198 F1200
G1 X157.816 Y106.872 E15.94330 F1200
G1 X158.039 Y106.556 E15.95543 F1200
G1 X158.199 Y106.259 E15.96602 F1200
G1 X158.307 Y105.992 E15.97507 F1200
G1 X158.395 Y105.696 E15.98475 F1200
G1 X158.437 Y105.490 E15.99135 F1200
G1 X158.469 Y105.232 E15.99949 F1200
G1 X158.477 Y104.945 E16.00851 F1200
G0 X159.247 Y104.908 F7200
G1 X159.246 Y105.138 E16.01574 F1200
G1 X159.232 Y105.351 E16.02244 F1200
G1 X159.203 Y105.580 E16.02967 F1200
G1 X159.168 Y105.772 E16.03580 F1200
G1 X159.113 Y105.998 E16.04309 F1200
G1 X159.012 Y106.309 E16.05333 F1200
G1 X158.853 Y106.676 E16.06588 F1200
G1 X158.698 Y106.955 E16.07590 F1200
G1 X158.623 Y107.073 E16.08027 F1200
G1 X158.459 Y107.301 E16.08907 F1200
G1 X158.285 Y107.509 E16.09759 F1200
G1 X158.011 Y107.783 E16.10975 F1200
G1 X157.751 Y107.997 E16.12031 F1200
G1 X157.534 Y108.149 E16.12861 F1200
G1 X157.405 Y108.229 E16.13336 F1200
G1 X157.180 Y108.351 E16.14137 F1200
G1 X156.930 Y108.465 E16.14998 F1200
G1 X156.761 Y108.530 E16.15567 F1200
G1 X156.440 Y108.628 E16.16620 F1200
G1 X156.081 Y108.703 E16.17771 F1200
G1 X155.799 Y108.736 E16.18660 F1200
G1 X155.464 Y108.748 E16.19713 F1200
G1 X155.273 Y108.741 E16.20313 F1200
G1 X155.002 Y108.715 E16.21168 F1200
G1 X154.729 Y108.668 E16.22039 F1200
G1 X154.502 Y108.613 E16.22771 F1200
G1 X154.184 Y108.509 E16.23821 F1200
G1 X153.824 Y108.353 E16.25053 F1200
G1 X153.545 Y108.198 E16.26056 F1200
G1 X153.427 Y108.123 E16.26493 F1200
G1 X153.197 Y107.958 E16.27382 F1200
G1 X152.991 Y107.785 E16.28228 F1200
G1 X152.717 Y107.511 E16.29444 F1200
G1 X152.500 Y107.247 E16.30516 F1200
G1 X152.351 Y107.034 E16.31330 F1200
G1 X152.267 Y106.898 E16.31830 F1200
G1 X152.148 Y106.678 E16.32615 F1200
G1 X152.033 Y106.426 E16.33486 F1200
G1 X151.970 Y106.259 E16.34046 F1200
G1 X151.872 Y105.940 E16.35092 F1200
G1 X151.797 Y105.580 E16.36246 F1200
G1 X151.764 Y105.301 E16.37126 F1200
G1 X151.753 Y105.092 E16.37783 F1200
G1 X151.754 Y104.861 E16.38509 F1200
G1 X151.768 Y104.649 E16.39175 F1200
G1 X151.797 Y104.420 E16.39898 F1200
G1 X151.832 Y104.228 E16.40511 F1200
G1 X151.887 Y104.002 E16.41240 F1200
G1 X151.988 Y103.691 E16.42265 F1200
G1 X152.149 Y103.320 E16.43534 F1200
G1 X152.302 Y103.045 E16.44521 F1200
G1 X152.377 Y102.927 E16.44958 F1200
G1 X152.541 Y102.699 E16.45838 F1200
G1 X152.715 Y102.491 E16.46690 F1200
G1 X152.989 Y102.217 E16.47907 F1200
G1 X153.249 Y102.003 E16.48963 F1200
G1 X153.466 Y101.851 E16.49792 F1200
G1 X153.595 Y101.771 E16.50267 F1200
G1 X153.820 Y101.649 E16.51068 F1200
G1 X154.070 Y101.535 E16.51930 F1200
G1 X154.239 Y101.470 E16.52499 F1200
G1 X154.560 Y101.372 E16.53552 F1200
G1 X154.919 Y101.297 E16.54702 F1200
G1 X155.199 Y101.264 E16.55585 F1200
G1 X155.407 Y101.253 E16.56239 F1200
G1 X155.638 Y101.254 E16.56965 F1200
G1 X155.851 Y101.268 E16.57634 F1200
G1 X156.084 Y101.298 E16.58370 F1200
G1 X156.279 Y101.334 E16.58992 F1200
G1 X156.498 Y101.387 E16.59699 F1200
G1 X156.816 Y101.491 E16.60749 F1200
G1 X157.176 Y101.647 E16.61981 F1200
G1 X157.455 Y101.802 E16.62984 F1200
G1 X157.573 Y101.877 E16.63421 F1200
G1 X157.801 Y102.041 E16.64301 F1200
G1 X158.009 Y102.215 E16.65153 F1200
G1 X158.283 Y102.489 E16.66369 F1200
G1 X158.500 Y102.753 E16.67441 F1200
G1 X158.649 Y102.966 E16.68255 F1200
G1 X158.726 Y103.090 E16.68711 F1200
G1 X158.851 Y103.320 E16.69531 F1200
G1 X158.967 Y103.574 E16.70408 F1200
G1 X159.030 Y103.739 E16.70961 F1200
G1 X159.128 Y104.060 E16.72014 F1200
G1 X159.203 Y104.419 E16.73164 F1200
G1 X159.236 Y104.699 E16.74048 F1200
G1 X159.247 Y104.908 E16.74704 F1200
; Solid infill 
G0 X158.844 Y104.721 F7200
G1 X158.826 Y104.576 E16.74943 F1200
G1 X158.821 Y104.548 E16.74986 F1200
G1 X158.656 Y103.861 E16.76140 F1200
G1 X158.616 Y103.760 E16.76319 F1200
G1 X158.602 Y103.730 E16.76370 F1200
G1 X158.192 Y102.995 E16.77745 F1200
G1 X158.151 Y102.938 E16.77861 F1200
G1 X158.130 Y102.912 E16.77914 F1200
G1 X157.746 Y102.510 E16.78849 F1200
G1 X157.582 Y102.374 E16.79198 F1200
G1 X157.561 Y102.359 E16.79236 F1200
G1 X157.055 Y102.023 E16.80182 F1200
G1 X157.033 Y102.010 E16.80223 F1200
G1 X157 Y101.992 E16.80284 F1200
G1 X156.459 Y101.780 E16.81244 F1200
G1 X156.434 Y101.771 E16.81287 F1200
G1 X156.389 Y101.759 E16.81363 F1200
G1 X155.810 Y101.653 E16.82353 F1200
G1 X155.780 Y101.651 E16.82403 F1200
G1 X155.751 Y101.650 E16.82450 F1200
G1 X154.987 Y101.678 E16.83713 F1200
G1 X154.962 Y101.682 E16.83754 F1200
G1 X154.935 Y101.687 E16.83798 F1200
G1 X154.385 Y101.828 E16.84725 F1200
G1 X154.367 Y101.833 E16.84754 F1200
G1 X154.359 Y101.836 E16.84768 F1200
G1 X154.012 Y102.003 E16.85363 F1200
G1 X153.999 Y102.010 E16.85383 F1200
G1 X153.626 Y102.219 E16.86009 F1200
G1 X153.608 Y102.231 E16.86041 F1200
G1 X153.487 Y102.313 E16.86277 F1200
G1 X153.072 Y102.678 E16.87196 F1200
G1 X153.052 Y102.699 E16.87243 F1200
G1 X153.001 Y102.755 E16.87368 F1200
G1 X152.702 Y103.148 E16.88217 F1200
G1 X152.606 Y103.302 E16.88515 F1200
G1 X152.593 Y103.325 E16.88555 F1200
G1 X152.352 Y103.827 E16.89460 F1200
G1 X152.327 Y103.892 E16.89574 F1200
G1 X152.319 Y103.920 E16.89622 F1200
G1 X152.221 Y104.311 E16.90313 F1200
G1 X152.165 Y104.728 E16.90996 F1200
G1 X152.163 Y104.757 E16.91038 F1200
G1 X152.160 Y105.277 E16.91878 F1200
G1 X152.198 Y105.564 E16.92354 F1200
G1 X152.204 Y105.595 E16.92400 F1200
G1 X152.343 Y106.120 E16.93291 F1200
G1 X152.459 Y106.410 E16.93806 F1200
G1 X152.471 Y106.435 E16.93847 F1200
G1 X152.679 Y106.822 E16.94556 F1200
G1 X152.780 Y106.963 E16.94838 F1200
G1 X152.792 Y106.978 E16.94867 F1200
G1 X153.047 Y107.282 E16.95462 F1200
G1 X153.058 Y107.295 E16.95487 F1200
G1 X153.251 Y107.493 E16.95928 F1200
G1 X153.444 Y107.655 E16.96344 F1200
G1 X153.462 Y107.669 E16.96379 F1200
G1 X153.645 Y107.797 E16.96752 F1200
G1 X153.996 Y107.996 E16.97408 F1200
G1 X154.023 Y108.009 E16.97452 F1200
G1 X154.319 Y108.131 E16.97991 F1200
G1 X154.929 Y108.307 E16.99078 F1200
G1 X154.962 Y108.314 E16.99130 F1200
G1 X155.049 Y108.327 E16.99274 F1200
G1 X155.697 Y108.352 E17.00349 F1200
G1 X155.728 E17.00399 F1200
G1 X155.774 Y108.348 E17.00475 F1200
G1 X156.520 Y108.195 E17.01714 F1200
G1 X156.547 Y108.188 E17.01756 F1200
G1 X156.639 Y108.159 E17.01914 F1200
G1 X157.093 Y107.939 E17.02700 F1200
G1 X157.115 Y107.927 E17.02735 F1200
G1 X157.507 Y107.679 E17.03483 F1200
G1 X157.827 Y107.416 E17.04183 F1200
G1 X157.851 Y107.394 E17.04233 F1200
G1 X157.994 Y107.241 E17.04581 F1200
G1 X158.299 Y106.852 E17.05446 F1200
G1 X158.353 Y106.768 E17.05610 F1200
G1 X158.368 Y106.743 E17.05655 F1200
G1 X158.648 Y106.172 E17.06689 F1200
G1 X158.664 Y106.131 E17.06762 F1200
G1 X158.673 Y106.102 E17.06811 F1200
G1 X158.777 Y105.688 E17.07547 F1200
G1 X158.833 Y105.276 E17.08225 F1200
G1 X158.836 Y105.248 E17.08265 F1200
G1 X158.844 Y104.721 E17.09100 F1200
; Inset 0 
G1 F1500 E9.09100
G0 X168.858 Y104.957 F7200
G1 F1500 E17.09100
G0 X168.502 Y104.948 F7200
G1 X168.491 Y104.737 E17.09763 F1200
G1 X168.469 Y104.555 E17.10338 F1200
G1 X168.426 Y104.322 E17.11080 F1200
G1 X168.348 Y104.047 E17.11976 F1200
G1 X168.274 Y103.851 E17.12633 F1200
G1 X168.197 Y103.679 E17.13224 F1200
G1 X168.020 Y103.367 E17.14349 F1200
G1 X167.928 Y103.233 E17.14858 F1200
G1 X167.781 Y103.049 E17.15597 F1200
G1 X167.623 Y102.878 E17.16326 F1200
G1 X167.487 Y102.749 E17.16914 F1200
G1 X167.283 Y102.583 E17.17740 F1200
G1 X166.934 Y102.362 E17.19038 F1200
G1 X166.696 Y102.245 E17.19871 F1200
G1 X166.451 Y102.153 E17.20692 F1200
G1 X166.174 Y102.074 E17.21597 F1200
G1 X165.865 Y102.020 E17.22581 F1200
G1 X165.551 Y101.998 E17.23567 F1200
G1 X165.237 Y102.009 E17.24554 F1200
G1 X164.956 Y102.047 E17.25444 F1200
G1 X164.820 Y102.075 E17.25878 F1200
G1 X164.547 Y102.152 E17.26767 F1200
G1 X164.349 Y102.227 E17.27430 F1200
G1 X164.090 Y102.349 E17.28329 F1200
G1 X163.861 Y102.484 E17.29162 F1200
G1 X163.533 Y102.732 E17.30454 F1200
G1 X163.374 Y102.880 E17.31136 F1200
G1 X163.150 Y103.131 E17.32192 F1200
G1 X162.982 Y103.365 E17.33097 F1200
G1 X162.847 Y103.593 E17.33927 F1200
G1 X162.707 Y103.899 E17.34983 F1200
G1 X162.622 Y104.147 E17.35807 F1200
G1 X162.574 Y104.328 E17.36394 F1200
G1 X162.520 Y104.631 E17.37359 F1200
G1 X162.506 Y104.768 E17.37790 F1200
G1 X162.498 Y105.029 E17.38610 F1200
G1 X162.519 Y105.366 E17.39669 F1200
G1 X162.574 Y105.676 E17.40656 F1200
G1 X162.653 Y105.956 E17.41568 F1200
G1 X162.801 Y106.318 E17.42797 F1200
G1 X163.011 Y106.680 E17.44111 F1200
G1 X163.266 Y107.007 E17.45412 F1200
G1 X163.420 Y107.165 E17.46103 F1200
G1 X163.775 Y107.458 E17.47549 F1200
G1 X164.002 Y107.603 E17.48395 F1200
G1 X164.326 Y107.764 E17.49529 F1200
G1 X164.597 Y107.863 E17.50435 F1200
G1 X164.825 Y107.926 E17.51176 F1200
G1 X165.057 Y107.969 E17.51915 F1200
G1 X165.264 Y107.993 E17.52569 F1200
G1 X165.449 Y108.002 E17.53150 F1200
G1 X165.685 Y107.997 E17.53892 F1200
G1 X165.943 Y107.970 E17.54706 F1200
G1 X166.178 Y107.926 E17.55457 F1200
G1 X166.456 Y107.847 E17.56366 F1200
G1 X166.820 Y107.698 E17.57601 F1200
G1 X167.240 Y107.448 E17.59135 F1200
G1 X167.412 Y107.315 E17.59817 F1200
G1 X167.625 Y107.121 E17.60722 F1200
G1 X167.868 Y106.847 E17.61872 F1200
G1 X168.097 Y106.506 E17.63161 F1200
G1 X168.165 Y106.383 E17.63601 F1200
G1 X168.285 Y106.123 E17.64500 F1200
G1 X168.379 Y105.852 E17.65399 F1200
G1 X168.443 Y105.595 E17.66229 F1200
G1 X168.493 Y105.237 E17.67363 F1200
G1 X168.502 Y104.948 E17.68272 F1200
G0 X169.247 Y104.908 F7200
G1 X169.246 Y105.138 E17.68994 F1200
G1 X169.232 Y105.351 E17.69664 F1200
G1 X169.203 Y105.580 E17.70387 F1200
G1 X169.168 Y105.772 E17.71000 F1200
G1 X169.113 Y105.998 E17.71729 F1200
G1 X169.012 Y106.309 E17.72754 F1200
G1 X168.853 Y106.676 E17.74008 F1200
G1 X168.698 Y106.955 E17.75010 F1200
G1 X168.623 Y107.073 E17.75447 F1200
G1 X168.459 Y107.301 E17.76327 F1200
G1 X168.285 Y107.509 E17.77179 F1200
G1 X168.011 Y107.783 E17.78395 F1200
G1 X167.756 Y107.993 E17.79433 F1200
G1 X167.534 Y108.149 E17.80284 F1200
G1 X167.405 Y108.229 E17.80759 F1200
G1 X167.180 Y108.351 E17.81560 F1200
G1 X166.930 Y108.465 E17.82422 F1200
G1 X166.761 Y108.530 E17.82991 F1200
G1 X166.440 Y108.628 E17.84043 F1200
G1 X166.081 Y108.703 E17.85194 F1200
G1 X165.799 Y108.736 E17.86083 F1200
G1 X165.464 Y108.748 E17.87136 F1200
G1 X165.273 Y108.741 E17.87737 F1200
G1 X165.002 Y108.715 E17.88592 F1200
G1 X164.729 Y108.668 E17.89462 F1200
G1 X164.502 Y108.613 E17.90195 F1200
G1 X164.184 Y108.509 E17.91244 F1200
G1 X163.824 Y108.353 E17.92476 F1200
G1 X163.545 Y108.198 E17.93479 F1200
G1 X163.427 Y108.123 E17.93916 F1200
G1 X163.197 Y107.958 E17.94805 F1200
G1 X162.991 Y107.785 E17.95651 F1200
G1 X162.717 Y107.511 E17.96867 F1200
G1 X162.500 Y107.247 E17.97939 F1200
G1 X162.351 Y107.034 E17.98753 F1200
G1 X162.267 Y106.898 E17.99253 F1200
G1 X162.148 Y106.678 E18.00039 F1200
G1 X162.033 Y106.426 E18.00909 F1200
G1 X161.970 Y106.259 E18.01469 F1200
G1 X161.872 Y105.940 E18.02515 F1200
G1 X161.797 Y105.580 E18.03669 F1200
G1 X161.764 Y105.301 E18.04549 F1200
G1 X161.753 Y105.092 E18.05206 F1200
G1 X161.754 Y104.861 E18.05932 F1200
G1 X161.768 Y104.649 E18.06598 F1200
G1 X161.797 Y104.420 E18.07321 F1200
G1 X161.832 Y104.228 E18.07934 F1200
G1 X161.887 Y104.002 E18.08663 F1200
G1 X161.988 Y103.691 E18.09688 F1200
G1 X162.149 Y103.320 E18.10958 F1200
G1 X162.302 Y103.045 E18.11945 F1200
G1 X162.377 Y102.927 E18.12382 F1200
G1 X162.541 Y102.699 E18.13262 F1200
G1 X162.715 Y102.491 E18.14113 F1200
G1 X162.989 Y102.217 E18.15330 F1200
G1 X163.249 Y102.003 E18.16386 F1200
G1 X163.466 Y101.851 E18.17216 F1200
G1 X163.595 Y101.771 E18.17690 F1200
G1 X163.820 Y101.649 E18.18492 F1200
G1 X164.070 Y101.535 E18.19353 F1200
G1 X164.239 Y101.470 E18.19922 F1200
G1 X164.560 Y101.372 E18.20975 F1200
G1 X164.919 Y101.297 E18.22125 F1200
G1 X165.199 Y101.264 E18.23008 F1200
G1 X165.407 Y101.253 E18.23662 F1200
G1 X165.638 Y101.254 E18.24388 F1200
G1 X165.851 Y101.268 E18.25058 F1200
G1 X166.084 Y101.298 E18.25793 F1200
G1 X166.279 Y101.334 E18.26415 F1200
G1 X166.498 Y101.387 E18.27123 F1200
G1 X166.816 Y101.491 E18.28172 F1200
G1 X167.176 Y101.647 E18.29404 F1200
G1 X167.455 Y101.802 E18.30407 F1200
G1 X167.573 Y101.877 E18.30844 F1200
G1 X167.801 Y102.041 E18.31724 F1200
G1 X168.009 Y102.215 E18.32576 F1200
G1 X168.283 Y102.489 E18.33792 F1200
G1 X168.500 Y102.753 E18.34864 F1200
G1 X168.649 Y102.966 E18.35678 F1200
G1 X168.726 Y103.090 E18.36134 F1200
G1 X168.851 Y103.320 E18.36954 F1200
G1 X168.967 Y103.574 E18.37831 F1200
G1 X169.030 Y103.739 E18.38384 F1200
G1 X169.128 Y104.060 E18.39437 F1200
G1 X169.203 Y104.419 E18.40588 F1200
G1 X169.236 Y104.699 E18.41471 F1200
G1 X169.247 Y104.908 E18.42128 F1200
; Solid infill 
G0 X168.854 Y104.720 F7200
G1 X168.828 Y104.512 E18.42438 F1200
G1 X168.822 Y104.483 E18.42477 F1200
G1 X168.658 Y103.861 E18.43468 F1200
G1 X168.521 Y103.534 E18.43998 F1200
G1 X168.507 Y103.508 E18.44035 F1200
G1 X168.198 Y102.990 E18.44907 F1200
G1 X168.067 Y102.822 E18.45230 F1200
G1 X168.049 Y102.802 E18.45267 F1200
G1 X167.753 Y102.502 E18.45905 F1200
G1 X167.504 Y102.302 E18.46374 F1200
G1 X167.484 Y102.288 E18.46406 F1200
G1 X167.004 Y101.985 E18.47223 F1200
G1 X166.851 Y101.912 E18.47477 F1200
G1 X166.829 Y101.903 E18.47509 F1200
G1 X166.392 Y101.749 E18.48197 F1200
G1 X166.269 Y101.718 E18.48386 F1200
G1 X166.246 Y101.713 E18.48419 F1200
G1 X165.811 Y101.647 E18.49087 F1200
G1 X165.567 Y101.636 E18.49451 F1200
G1 X165.542 Y101.637 E18.49485 F1200
G1 X164.987 Y101.675 E18.50321 F1200
G1 X164.746 Y101.718 E18.50691 F1200
G1 X164.718 Y101.724 E18.50730 F1200
G1 X164.359 Y101.836 E18.51307 F1200
G1 X163.938 Y102.028 E18.51987 F1200
G1 X163.916 Y102.040 E18.52019 F1200
G1 X163.482 Y102.306 E18.52749 F1200
G1 X163.307 Y102.445 E18.53085 F1200
G1 X163.290 Y102.460 E18.53116 F1200
G1 X162.993 Y102.748 E18.53735 F1200
G1 X162.867 Y102.895 E18.54027 F1200
G1 X162.853 Y102.912 E18.54059 F1200
G1 X162.690 Y103.141 E18.54483 F1200
G1 X162.533 Y103.411 E18.54942 F1200
G1 X162.522 Y103.434 E18.54977 F1200
G1 X162.350 Y103.826 E18.55622 F1200
G1 X162.216 Y104.233 E18.56295 F1200
G1 X162.208 Y104.262 E18.56340 F1200
G1 X162.199 Y104.307 E18.56408 F1200
G1 X162.140 Y105.020 E18.57443 F1200
G1 X162.139 Y105.044 E18.57475 F1200
G1 X162.145 Y105.279 E18.57821 F1200
G1 X162.223 Y105.745 E18.58512 F1200
G1 X162.228 Y105.768 E18.58543 F1200
G1 X162.329 Y106.125 E18.59086 F1200
G1 X162.471 Y106.464 E18.59629 F1200
G1 X162.480 Y106.482 E18.59656 F1200
G1 X162.666 Y106.831 E18.60222 F1200
G1 X162.700 Y106.879 E18.60309 F1200
G1 X162.712 Y106.895 E18.60338 F1200
G1 X163.162 Y107.425 E18.61339 F1200
G1 X163.180 Y107.444 E18.61376 F1200
G1 X163.242 Y107.503 E18.61503 F1200
G1 X163.639 Y107.806 E18.62290 F1200
G1 X163.809 Y107.911 E18.62589 F1200
G1 X163.832 Y107.924 E18.62626 F1200
G1 X164.312 Y108.150 E18.63416 F1200
G1 X164.478 Y108.207 E18.63677 F1200
G1 X164.505 Y108.215 E18.63717 F1200
G1 X165.049 Y108.328 E18.64575 F1200
G1 X165.425 Y108.363 E18.65156 F1200
G1 X165.454 Y108.364 E18.65196 F1200
G1 X165.774 Y108.351 E18.65679 F1200
G1 X166.247 Y108.276 E18.66382 F1200
G1 X166.271 Y108.270 E18.66414 F1200
G1 X166.641 Y108.165 E18.66974 F1200
G1 X166.966 Y108.020 E18.67490 F1200
G1 X166.987 Y108.009 E18.67519 F1200
G1 X167.523 Y107.691 E18.68405 F1200
G1 X167.637 Y107.603 E18.68621 F1200
G1 X167.656 Y107.587 E18.68655 F1200
G1 X168.005 Y107.250 E18.69384 F1200
G1 X168.151 Y107.081 E18.69724 F1200
G1 X168.166 Y107.062 E18.69758 F1200
G1 X168.309 Y106.858 E18.70134 F1200
G1 X168.482 Y106.554 E18.70648 F1200
G1 X168.491 Y106.537 E18.70673 F1200
G1 X168.656 Y106.176 E18.71254 F1200
G1 X168.729 Y105.965 E18.71590 F1200
G1 X168.735 Y105.943 E18.71622 F1200
G1 X168.795 Y105.691 E18.72014 F1200
G1 X168.845 Y105.280 E18.72613 F1200
G1 X168.847 Y105.258 E18.72641 F1200
G1 X168.854 Y104.720 E18.73420 F1200
;MACROLAYER:2
;LAYER:2
M532 L2
; Inset XP 
G1 F1500 E10.73420
G0 Z0.450 F1500
G0 X126.575 Y106.854 F7200
G1 F1500 E18.73420
G1 X126.515 Y106.834 E18.73818 F1440
G1 X126.366 Y106.790 E18.74802 F1440
G1 X126.364 Y106.789 E18.74815 F1440
G1 X126.320 Y106.778 E18.75101 F1440
G1 X126.043 Y106.720 E18.76908 F1440
G1 X125.972 Y106.709 E18.77361 F1440
G1 X125.971 Y106.708 E18.77368 F1440
G1 X125.824 Y106.693 E18.78304 F1440
G1 X125.610 Y106.678 E18.79676 F1440
G1 X125.573 Y106.676 E18.79912 F1440
G1 X125.571 E18.79924 F1440
G1 X125.421 Y106.677 E18.80880 F1440
G1 X125.250 Y106.686 E18.81966 F1440
G1 X125.249 E18.81972 F1440
G1 X125.055 Y106.706 E18.83208 F1440
G1 X124.941 Y106.722 E18.83939 F1440
G1 X124.939 Y106.723 E18.83952 F1440
G1 X124.872 Y106.735 E18.84385 F1440
G1 X124.675 Y106.778 E18.85663 F1440
G1 X124.648 Y106.786 E18.85841 F1440
G1 X124.647 E18.85848 F1440
G1 X124.402 Y106.863 E18.87476 F1440
G1 X124.276 Y106.910 E18.88328 F1440
G1 X124.274 E18.88341 F1440
G1 X124.103 Y106.983 E18.89515 F1440
G1 X124.083 Y106.992 E18.89649 F1440
G1 E18.89649 F1440
G1 X123.955 Y107.056 E18.90560 F1440
G1 X123.878 Y107.098 E18.91112 F1440
G1 X123.877 E18.91118 F1440
G1 X123.700 Y107.204 E18.92426 F1440
G1 X123.654 Y107.234 E18.92769 F1440
G1 X123.653 Y107.235 E18.92775 F1440
G1 X123.496 Y107.347 E18.93994 F1440
G1 X123.443 Y107.387 E18.94411 F1440
G1 Y107.388 E18.94418 F1440
G1 X123.274 Y107.530 E18.95817 F1440
G1 X123.196 Y107.601 E18.96486 F1440
G1 X123.195 Y107.602 E18.96493 F1440
G1 X123.175 Y107.622 E18.96670 F1440
G1 X122.981 Y107.831 E18.98483 F1440
G1 X122.928 Y107.894 E18.99002 F1440
G1 X122.927 Y107.895 E18.99009 F1440
G1 X122.743 Y108.140 E19.00944 F1440
G1 X122.723 Y108.170 E19.01172 F1440
G1 X122.722 Y108.171 E19.01179 F1440
G1 X122.647 Y108.293 E19.02088 F1440
G1 X122.587 Y108.398 E19.02849 F1440
G1 Y108.399 E19.02855 F1440
G1 X122.519 Y108.528 E19.03772 F1440
G1 X122.480 Y108.610 E19.04342 F1440
G1 Y108.611 E19.04348 F1440
G1 X122.426 Y108.736 E19.05214 F1440
G1 X122.355 Y108.921 E19.06473 F1440
G1 Y108.922 E19.06479 F1440
G1 X122.334 Y108.984 E19.06890 F1440
G1 X122.292 Y109.125 E19.07819 F1440
G1 X122.291 Y109.127 E19.07832 F1440
G1 X122.276 Y109.184 E19.08198 F1440
G1 X122.232 Y109.388 E19.09522 F1440
G1 X122.231 Y109.390 E19.09534 F1440
G1 X122.222 Y109.446 E19.09891 F1440
G1 X122.192 Y109.677 E19.11373 F1440
G1 X122.185 Y109.744 E19.11799 F1440
G1 Y109.745 E19.11805 F1440
G1 X122.177 Y109.889 E19.12721 F1440
G1 X122.175 Y109.954 E19.13135 F1440
G1 Y109.955 E19.13141 F1440
G1 X122.177 Y110.070 E19.13874 F1440
G1 X122.183 Y110.248 E19.15006 F1440
G1 X122.184 Y110.249 E19.15013 F1440
G1 E19.15013 F1440
G1 X122.206 Y110.448 E19.16285 F1440
G1 X122.224 Y110.568 E19.17054 F1440
G1 Y110.570 E19.17067 F1440
G1 X122.235 Y110.627 E19.17436 F1440
G1 X122.278 Y110.812 E19.18648 F1440
G1 X122.315 Y110.949 E19.19545 F1440
G1 Y110.950 E19.19551 F1440
G1 X122.363 Y111.098 E19.20533 F1440
G1 X122.386 Y111.163 E19.20962 F1440
G1 X122.387 Y111.164 E19.20968 F1440
G1 X122.485 Y111.395 E19.22562 F1440
G1 X122.553 Y111.540 E19.23584 F1440
G1 X122.555 Y111.545 E19.23615 F1440
G1 X122.556 Y111.547 E19.23628 F1440
G1 X122.704 Y111.799 E19.25482 F1440
G1 X122.737 Y111.849 E19.25856 F1440
G1 X122.738 Y111.851 E19.25869 F1440
G1 X122.855 Y112.012 E19.27132 F1440
G1 X122.962 Y112.147 E19.28226 F1440
G1 X122.963 Y112.148 E19.28233 F1440
G1 X123.020 Y112.213 E19.28781 F1440
G1 X123.122 Y112.321 E19.29728 F1440
G1 X123.201 Y112.400 E19.30432 F1440
G1 X123.202 Y112.401 E19.30439 F1440
G1 X123.333 Y112.519 E19.31556 F1440
G1 X123.466 Y112.628 E19.32635 F1440
G1 X123.467 Y112.629 E19.32642 F1440
G1 X123.622 Y112.741 E19.33852 F1440
G1 X123.722 Y112.808 E19.34612 F1440
G1 X123.723 Y112.809 E19.34618 F1440
G1 X123.807 Y112.859 E19.35235 F1440
G1 X123.956 Y112.943 E19.36319 F1440
G1 X123.958 E19.36332 F1440
G1 X124.022 Y112.976 E19.36789 F1440
G1 X124.236 Y113.074 E19.38289 F1440
G1 X124.269 Y113.088 E19.38512 F1440
G1 X124.271 E19.38524 F1440
G1 X124.485 Y113.163 E19.39962 F1440
G1 X124.650 Y113.214 E19.41056 F1440
G1 X124.652 Y113.215 E19.41069 F1440
G1 X124.679 Y113.221 E19.41239 F1440
G1 X124.931 Y113.274 E19.42871 F1440
G1 X124.967 Y113.280 E19.43099 F1440
G1 X124.968 E19.43106 F1440
G1 X125.280 Y113.316 E19.45087 F1440
G1 X125.281 E19.45094 F1440
G1 X125.318 Y113.319 E19.45327 F1440
G1 X125.466 Y113.323 E19.46270 F1440
G1 X125.568 Y113.322 E19.46918 F1440
G1 X125.569 E19.46924 F1440
G1 X125.763 Y113.312 E19.48154 F1440
G1 X125.827 Y113.307 E19.48559 F1440
G1 X125.828 E19.48565 F1440
G1 X125.950 Y113.293 E19.49340 F1440
G1 X126.067 Y113.276 E19.50090 F1440
G1 X126.069 Y113.275 E19.50103 F1440
G1 X126.124 Y113.265 E19.50453 F1440
G1 X126.315 Y113.221 E19.51705 F1440
G1 X126.391 Y113.201 E19.52200 F1440
G1 X126.392 Y113.200 E19.52206 F1440
G1 X126.596 Y113.138 E19.53548 F1440
G1 X126.597 Y113.137 E19.53554 F1440
G1 X126.607 Y113.134 E19.53617 F1440
G1 X126.868 Y113.029 E19.55394 F1440
G1 X126.869 E19.55401 F1440
G1 X126.896 Y113.016 E19.55585 F1440
G1 X127.045 Y112.941 E19.56643 F1440
G1 X127.175 Y112.870 E19.57584 F1440
G1 X127.176 E19.57590 F1440
G1 X127.293 Y112.796 E19.58468 F1440
G1 X127.467 Y112.679 E19.59792 F1440
G1 X127.468 Y112.678 E19.59799 F1440
G1 X127.517 Y112.641 E19.60185 F1440
G1 X127.756 Y112.441 E19.62159 F1440
G1 X127.761 Y112.437 E19.62197 F1440
G1 X127.762 Y112.435 E19.62210 F1440
G1 X127.982 Y112.207 E19.64228 F1440
G1 X128.069 Y112.108 E19.65064 F1440
G1 X128.070 Y112.107 E19.65070 F1440
G1 X128.153 Y112 E19.65931 F1440
G1 X128.275 Y111.831 E19.67259 F1440
G1 X128.276 Y111.829 E19.67272 F1440
G1 Y111.828 E19.67278 F1440
G1 X128.386 Y111.649 E19.68605 F1440
G1 X128.412 Y111.601 E19.68947 F1440
G1 E19.68947 F1440
G1 X128.514 Y111.397 E19.70383 F1440
G1 E19.70390 F1440
G1 X128.543 Y111.336 E19.70814 F1440
G1 X128.597 Y111.205 E19.71706 F1440
G1 Y111.204 E19.71712 F1440
G1 X128.641 Y111.085 E19.72509 F1440
G1 X128.691 Y110.931 E19.73529 F1440
G1 Y110.930 E19.73535 F1440
G1 X128.712 Y110.853 E19.74035 F1440
G1 X128.761 Y110.636 E19.75439 F1440
G1 Y110.635 E19.75445 F1440
G1 X128.783 Y110.507 E19.76261 F1440
G1 X128.805 Y110.339 E19.77342 F1440
G1 X128.816 Y110.223 E19.78080 F1440
G1 Y110.222 E19.78086 F1440
G1 X128.823 Y110.070 E19.79047 F1440
G1 X128.822 Y109.931 E19.79928 F1440
G1 Y109.930 E19.79934 F1440
G1 X128.813 Y109.735 E19.81172 F1440
G1 X128.808 Y109.672 E19.81573 F1440
G1 Y109.671 E19.81579 F1440
G1 X128.793 Y109.550 E19.82350 F1440
G1 X128.776 Y109.442 E19.83044 F1440
G1 Y109.441 E19.83050 F1440
G1 X128.753 Y109.319 E19.83839 F1440
G1 X128.727 Y109.205 E19.84574 F1440
G1 Y109.204 E19.84580 F1440
G1 X128.694 Y109.083 E19.85374 F1440
G1 X128.620 Y108.851 E19.86916 F1440
G1 Y108.850 E19.86923 F1440
G1 X128.609 Y108.822 E19.87113 F1440
G1 X128.508 Y108.585 E19.88735 F1440
G1 X128.507 Y108.584 E19.88742 F1440
G1 X128.481 Y108.529 E19.89122 F1440
G1 X128.401 Y108.378 E19.90199 F1440
G1 Y108.377 E19.90205 F1440
G1 X128.352 Y108.293 E19.90821 F1440
G1 X128.253 Y108.136 E19.92000 F1440
G1 Y108.134 E19.92013 F1440
G1 X128.246 Y108.125 E19.92076 F1440
G1 X128.079 Y107.909 E19.93830 F1440
G1 X127.908 Y107.708 E19.95513 F1440
G1 X127.907 Y107.707 E19.95519 F1440
G1 X127.876 Y107.675 E19.95797 F1440
G1 X127.670 Y107.480 E19.97594 F1440
G1 X127.669 Y107.479 E19.97600 F1440
G1 E19.97600 F1440
G1 X127.444 Y107.305 E19.99393 F1440
G1 X127.443 Y107.304 E19.99399 F1440
G1 X127.368 Y107.251 E19.99974 F1440
G1 X127.273 Y107.188 E20.00690 F1440
G1 X127.272 E20.00697 F1440
G1 X127.200 Y107.144 E20.01229 F1440
G1 X127.028 Y107.048 E20.02471 F1440
G1 X127.027 E20.02477 F1440
G1 X126.971 Y107.019 E20.02875 F1440
G1 X126.834 Y106.955 E20.03829 F1440
G1 X126.833 Y106.954 E20.03836 F1440
G1 X126.764 Y106.925 E20.04305 F1440
G1 X126.575 Y106.855 E20.05581 F1440
G1 Y106.854 E20.05587 F1440
; Inset 0 
G1 F1500 E12.05587
G0 X128.758 Y109.958 F7200
G1 F1500 E20.05587
G0 X128.360 Y109.949 F7200
G1 X128.347 Y109.724 E20.06766 F1140
G1 X128.321 Y109.526 E20.07808 F1140
G1 X128.281 Y109.329 E20.08861 F1140
G1 X128.187 Y109.019 E20.10553 F1140
G1 X128.091 Y108.788 E20.11863 F1140
G1 X128.001 Y108.611 E20.12900 F1140
G1 X127.882 Y108.415 E20.14099 F1140
G1 X127.576 Y108.032 E20.16666 F1140
G1 X127.374 Y107.838 E20.18133 F1140
G1 X127.179 Y107.684 E20.19432 F1140
G1 X127.034 Y107.586 E20.20349 F1140
G1 X126.820 Y107.462 E20.21643 F1140
G1 X126.658 Y107.384 E20.22581 F1140
G1 X126.431 Y107.295 E20.23854 F1140
G1 X126.259 Y107.242 E20.24791 F1140
G1 X125.921 Y107.170 E20.26598 F1140
G1 X125.547 Y107.140 E20.28563 F1140
G1 X125.296 Y107.146 E20.29878 F1140
G1 X125.027 Y107.179 E20.31297 F1140
G1 X124.781 Y107.231 E20.32612 F1140
G1 X124.451 Y107.339 E20.34430 F1140
G1 X124.287 Y107.410 E20.35362 F1140
G1 X124.111 Y107.499 E20.36394 F1140
G1 X123.919 Y107.616 E20.37568 F1140
G1 X123.738 Y107.747 E20.38736 F1140
G1 X123.528 Y107.927 E20.40182 F1140
G1 X123.293 Y108.180 E20.41989 F1140
G1 X123.115 Y108.420 E20.43550 F1140
G1 X122.997 Y108.615 E20.44739 F1140
G1 X122.906 Y108.795 E20.45792 F1140
G1 X122.795 Y109.068 E20.47332 F1140
G1 X122.742 Y109.239 E20.48270 F1140
G1 X122.691 Y109.460 E20.49454 F1140
G1 X122.649 Y109.777 E20.51125 F1140
G1 X122.640 Y109.953 E20.52047 F1140
G1 X122.646 Y110.204 E20.53362 F1140
G1 X122.679 Y110.475 E20.54792 F1140
G1 X122.758 Y110.814 E20.56615 F1140
G1 X122.815 Y110.986 E20.57563 F1140
G1 X122.963 Y111.322 E20.59486 F1140
G1 X123.116 Y111.582 E20.61062 F1140
G1 X123.310 Y111.840 E20.62749 F1140
G1 X123.516 Y112.060 E20.64326 F1140
G1 X123.741 Y112.257 E20.65892 F1140
G1 X123.963 Y112.412 E20.67307 F1140
G1 X124.163 Y112.528 E20.68517 F1140
G1 X124.431 Y112.653 E20.70062 F1140
G1 X124.760 Y112.764 E20.71880 F1140
G1 X125.033 Y112.822 E20.73341 F1140
G1 X125.302 Y112.854 E20.74756 F1140
G1 X125.551 Y112.860 E20.76060 F1140
G1 X125.776 Y112.847 E20.77239 F1140
G1 X125.976 Y112.821 E20.78292 F1140
G1 X126.264 Y112.756 E20.79837 F1140
G1 X126.435 Y112.703 E20.80775 F1140
G1 X126.667 Y112.612 E20.82079 F1140
G1 X126.934 Y112.475 E20.83651 F1140
G1 X127.184 Y112.313 E20.85206 F1140
G1 X127.435 Y112.107 E20.86904 F1140
G1 X127.706 Y111.821 E20.88968 F1140
G1 X127.885 Y111.580 E20.90539 F1140
G1 X128.003 Y111.385 E20.91728 F1140
G1 X128.093 Y111.207 E20.92771 F1140
G1 X128.163 Y111.045 E20.93693 F1140
G1 X128.244 Y110.810 E20.94992 F1140
G1 X128.305 Y110.563 E20.96323 F1140
G1 X128.354 Y110.200 E20.98240 F1140
G1 X128.360 Y109.949 E20.99555 F1140
G0 X129.289 Y109.906 F7200
G1 Y110.092 E21.00529 F1140
G1 X129.272 Y110.370 E21.01985 F1140
G1 X129.244 Y110.588 E21.03133 F1140
G1 X129.206 Y110.794 E21.04227 F1140
G1 X129.163 Y110.973 E21.05191 F1140
G1 X129.081 Y111.240 E21.06653 F1140
G1 X128.964 Y111.538 E21.08329 F1140
G1 X128.797 Y111.870 E21.10273 F1140
G1 X128.660 Y112.094 E21.11645 F1140
G1 X128.533 Y112.274 E21.12798 F1140
G1 X128.320 Y112.533 E21.14552 F1140
G1 X128.079 Y112.777 E21.16344 F1140
G1 X127.967 Y112.878 E21.17130 F1140
G1 X127.786 Y113.023 E21.18340 F1140
G1 X127.560 Y113.182 E21.19786 F1140
G1 X127.258 Y113.358 E21.21614 F1140
G1 X127.076 Y113.447 E21.22672 F1140
G1 X126.764 Y113.573 E21.24432 F1140
G1 X126.445 Y113.671 E21.26177 F1140
G1 X126.218 Y113.722 E21.27392 F1140
G1 X126 Y113.757 E21.28544 F1140
G1 X125.799 Y113.778 E21.29603 F1140
G1 X125.465 Y113.790 E21.31352 F1140
G1 X125.275 Y113.783 E21.32347 F1140
G1 X124.867 Y113.737 E21.34495 F1140
G1 X124.556 Y113.671 E21.36156 F1140
G1 X124.355 Y113.613 E21.37251 F1140
G1 X124.050 Y113.502 E21.38948 F1140
G1 X123.814 Y113.395 E21.40305 F1140
G1 X123.570 Y113.262 E21.41756 F1140
G1 X123.358 Y113.127 E21.43071 F1140
G1 X123.034 Y112.878 E21.45208 F1140
G1 X122.793 Y112.653 E21.46931 F1140
G1 X122.680 Y112.533 E21.47791 F1140
G1 X122.477 Y112.286 E21.49462 F1140
G1 X122.317 Y112.058 E21.50918 F1140
G1 X122.141 Y111.756 E21.52746 F1140
G1 X122.053 Y111.576 E21.53794 F1140
G1 X121.927 Y111.264 E21.55554 F1140
G1 X121.828 Y110.940 E21.57325 F1140
G1 X121.778 Y110.717 E21.58519 F1140
G1 X121.743 Y110.500 E21.59666 F1140
G1 X121.721 Y110.292 E21.60761 F1140
G1 X121.711 Y110.094 E21.61798 F1140
G1 X121.712 Y109.874 E21.62951 F1140
G1 X121.728 Y109.631 E21.64224 F1140
G1 X121.762 Y109.370 E21.65601 F1140
G1 X121.829 Y109.056 E21.67283 F1140
G1 X121.887 Y108.855 E21.68378 F1140
G1 X121.998 Y108.550 E21.70075 F1140
G1 X122.105 Y108.315 E21.71426 F1140
G1 X122.238 Y108.070 E21.72883 F1140
G1 X122.370 Y107.862 E21.74171 F1140
G1 X122.620 Y107.536 E21.76319 F1140
G1 X122.846 Y107.295 E21.78048 F1140
G1 X122.967 Y107.180 E21.78917 F1140
G1 X123.214 Y106.977 E21.80589 F1140
G1 X123.442 Y106.817 E21.82045 F1140
G1 X123.742 Y106.642 E21.83863 F1140
G1 X123.924 Y106.553 E21.84921 F1140
G1 X124.236 Y106.427 E21.86681 F1140
G1 X124.555 Y106.329 E21.88425 F1140
G1 X124.783 Y106.278 E21.89646 F1140
G1 X125 Y106.243 E21.90793 F1140
G1 X125.200 Y106.222 E21.91846 F1140
G1 X125.405 Y106.211 E21.92920 F1140
G1 X125.626 Y106.212 E21.94078 F1140
G1 X125.869 Y106.228 E21.95351 F1140
G1 X126.125 Y106.261 E21.96702 F1140
G1 X126.444 Y106.329 E21.98410 F1140
G1 X126.645 Y106.387 E21.99505 F1140
G1 X126.950 Y106.498 E22.01202 F1140
G1 X127.185 Y106.605 E22.02553 F1140
G1 X127.430 Y106.738 E22.04010 F1140
G1 X127.642 Y106.873 E22.05325 F1140
G1 X127.964 Y107.120 E22.07446 F1140
G1 X128.205 Y107.346 E22.09175 F1140
G1 X128.445 Y107.614 E22.11056 F1140
G1 X128.624 Y107.853 E22.12617 F1140
G1 X128.762 Y108.070 E22.13963 F1140
G1 X128.895 Y108.315 E22.15419 F1140
G1 X129.048 Y108.665 E22.17415 F1140
G1 X129.141 Y108.948 E22.18971 F1140
G1 X129.209 Y109.219 E22.20432 F1140
G1 X129.257 Y109.500 E22.21925 F1140
G1 X129.278 Y109.697 E22.22963 F1140
G1 X129.289 Y109.906 E22.24057 F1140
; Inset 0 
G0 X128.890 Y109.900 F7200
G1 F1500 E14.24057
G0 X138.782 Y105.102 F7200
G1 F1500 E22.24057
G0 X138.384 Y105.071 F7200
G1 X138.372 Y104.721 E22.25891 F1140
G1 X138.332 Y104.446 E22.27342 F1140
G1 X138.243 Y104.105 E22.29186 F1140
G1 X138.143 Y103.844 E22.30647 F1140
G1 X137.998 Y103.555 E22.32339 F1140
G1 X137.890 Y103.383 E22.33403 F1140
G1 X137.740 Y103.181 E22.34718 F1140
G1 X137.520 Y102.940 E22.36425 F1140
G1 X137.331 Y102.769 E22.37756 F1140
G1 X137.029 Y102.552 E22.39699 F1140
G1 X136.784 Y102.416 E22.41166 F1140
G1 X136.551 Y102.313 E22.42497 F1140
G1 X136.222 Y102.206 E22.44304 F1140
G1 X135.972 Y102.154 E22.45640 F1140
G1 X135.748 Y102.126 E22.46819 F1140
G1 X135.547 Y102.115 E22.47871 F1140
G1 X135.221 Y102.128 E22.49579 F1140
G1 X134.950 Y102.167 E22.51009 F1140
G1 X134.795 Y102.202 E22.51837 F1140
G1 X134.487 Y102.298 E22.53524 F1140
G1 X134.209 Y102.420 E22.55111 F1140
G1 X133.967 Y102.554 E22.56557 F1140
G1 X133.683 Y102.758 E22.58385 F1140
G1 X133.455 Y102.963 E22.59988 F1140
G1 X133.228 Y103.222 E22.61790 F1140
G1 X133.107 Y103.387 E22.62859 F1140
G1 X132.975 Y103.604 E22.64184 F1140
G1 X132.853 Y103.851 E22.65625 F1140
G1 X132.756 Y104.107 E22.67055 F1140
G1 X132.717 Y104.235 E22.67751 F1140
G1 X132.645 Y104.576 E22.69574 F1140
G1 X132.623 Y104.777 E22.70633 F1140
G1 X132.615 Y105.028 E22.71948 F1140
G1 X132.626 Y105.258 E22.73152 F1140
G1 X132.677 Y105.599 E22.74954 F1140
G1 X132.721 Y105.776 E22.75908 F1140
G1 X132.781 Y105.968 E22.76961 F1140
G1 X132.865 Y106.176 E22.78134 F1140
G1 X132.977 Y106.401 E22.79449 F1140
G1 X133.108 Y106.614 E22.80759 F1140
G1 X133.202 Y106.745 E22.81602 F1140
G1 X133.568 Y107.144 E22.84436 F1140
G1 X133.767 Y107.307 E22.85782 F1140
G1 X133.973 Y107.449 E22.87092 F1140
G1 X134.218 Y107.585 E22.88559 F1140
G1 X134.537 Y107.721 E22.90371 F1140
G1 X134.780 Y107.795 E22.91702 F1140
G1 X135.052 Y107.850 E22.93153 F1140
G1 X135.253 Y107.874 E22.94211 F1140
G1 X135.450 Y107.885 E22.95243 F1140
G1 X135.732 Y107.877 E22.96720 F1140
G1 X136.099 Y107.823 E22.98658 F1140
G1 X136.277 Y107.779 E22.99617 F1140
G1 X136.512 Y107.702 E23.00911 F1140
G1 X136.678 Y107.634 E23.01849 F1140
G1 X136.946 Y107.498 E23.03420 F1140
G1 X137.239 Y107.303 E23.05259 F1140
G1 X137.489 Y107.091 E23.06972 F1140
G1 X137.744 Y106.814 E23.08942 F1140
G1 X137.906 Y106.593 E23.10377 F1140
G1 X138.026 Y106.394 E23.11592 F1140
G1 X138.138 Y106.170 E23.12902 F1140
G1 X138.221 Y105.962 E23.14070 F1140
G1 X138.319 Y105.619 E23.15935 F1140
G1 X138.359 Y105.395 E23.17124 F1140
G1 X138.384 Y105.071 E23.18821 F1140
G0 X139.289 Y104.906 F7200
G1 X139.288 Y105.126 E23.19974 F1140
G1 X139.272 Y105.369 E23.21247 F1140
G1 X139.239 Y105.625 E23.22598 F1140
G1 X139.171 Y105.944 E23.24306 F1140
G1 X139.113 Y106.144 E23.25396 F1140
G1 X139.002 Y106.450 E23.27098 F1140
G1 X138.895 Y106.685 E23.28450 F1140
G1 X138.764 Y106.927 E23.29890 F1140
G1 X138.630 Y107.138 E23.31195 F1140
G1 X138.380 Y107.464 E23.33342 F1140
G1 X138.154 Y107.705 E23.35071 F1140
G1 X138.033 Y107.820 E23.35941 F1140
G1 X137.786 Y108.023 E23.37612 F1140
G1 X137.560 Y108.182 E23.39058 F1140
G1 X137.258 Y108.358 E23.40886 F1140
G1 X137.076 Y108.447 E23.41944 F1140
G1 X136.764 Y108.573 E23.43704 F1140
G1 X136.445 Y108.671 E23.45448 F1140
G1 X136.218 Y108.722 E23.46664 F1140
G1 X136 Y108.757 E23.47816 F1140
G1 X135.799 Y108.778 E23.48874 F1140
G1 X135.465 Y108.790 E23.50624 F1140
G1 X135.275 Y108.783 E23.51619 F1140
G1 X134.867 Y108.737 E23.53767 F1140
G1 X134.556 Y108.671 E23.55428 F1140
G1 X134.355 Y108.613 E23.56523 F1140
G1 X134.050 Y108.502 E23.58220 F1140
G1 X133.814 Y108.395 E23.59577 F1140
G1 X133.570 Y108.262 E23.61028 F1140
G1 X133.358 Y108.127 E23.62343 F1140
G1 X133.033 Y107.877 E23.64490 F1140
G1 X132.795 Y107.654 E23.66198 F1140
G1 X132.680 Y107.533 E23.67068 F1140
G1 X132.477 Y107.286 E23.68739 F1140
G1 X132.317 Y107.058 E23.70195 F1140
G1 X132.141 Y106.756 E23.72023 F1140
G1 X132.053 Y106.576 E23.73071 F1140
G1 X131.927 Y106.264 E23.74831 F1140
G1 X131.828 Y105.940 E23.76602 F1140
G1 X131.778 Y105.717 E23.77796 F1140
G1 X131.743 Y105.500 E23.78943 F1140
G1 X131.721 Y105.292 E23.80038 F1140
G1 X131.711 Y105.094 E23.81075 F1140
G1 X131.712 Y104.874 E23.82228 F1140
G1 X131.728 Y104.631 E23.83501 F1140
G1 X131.762 Y104.370 E23.84878 F1140
G1 X131.829 Y104.056 E23.86560 F1140
G1 X131.887 Y103.855 E23.87655 F1140
G1 X131.998 Y103.550 E23.89352 F1140
G1 X132.105 Y103.315 E23.90704 F1140
G1 X132.238 Y103.070 E23.92160 F1140
G1 X132.370 Y102.862 E23.93449 F1140
G1 X132.620 Y102.536 E23.95596 F1140
G1 X132.846 Y102.295 E23.97325 F1140
G1 X132.967 Y102.180 E23.98195 F1140
G1 X133.214 Y101.977 E23.99866 F1140
G1 X133.442 Y101.817 E24.01322 F1140
G1 X133.742 Y101.642 E24.03140 F1140
G1 X133.924 Y101.553 E24.04198 F1140
G1 X134.236 Y101.427 E24.05958 F1140
G1 X134.555 Y101.329 E24.07702 F1140
G1 X134.783 Y101.278 E24.08923 F1140
G1 X135 Y101.243 E24.10070 F1140
G1 X135.200 Y101.222 E24.11123 F1140
G1 X135.405 Y101.211 E24.12197 F1140
G1 X135.626 Y101.212 E24.13355 F1140
G1 X135.869 Y101.228 E24.14628 F1140
G1 X136.125 Y101.261 E24.15979 F1140
G1 X136.444 Y101.329 E24.17687 F1140
G1 X136.645 Y101.387 E24.18782 F1140
G1 X136.950 Y101.498 E24.20479 F1140
G1 X137.185 Y101.605 E24.21831 F1140
G1 X137.430 Y101.738 E24.23287 F1140
G1 X137.642 Y101.873 E24.24602 F1140
G1 X137.964 Y102.120 E24.26723 F1140
G1 X138.205 Y102.346 E24.28452 F1140
G1 X138.320 Y102.467 E24.29322 F1140
G1 X138.523 Y102.714 E24.30993 F1140
G1 X138.683 Y102.942 E24.32449 F1140
G1 X138.858 Y103.242 E24.34267 F1140
G1 X138.945 Y103.420 E24.35304 F1140
G1 X139.073 Y103.736 E24.37085 F1140
G1 X139.172 Y104.060 E24.38856 F1140
G1 X139.222 Y104.283 E24.40050 F1140
G1 X139.257 Y104.500 E24.41197 F1140
G1 X139.278 Y104.697 E24.42234 F1140
G1 X139.289 Y104.906 E24.43329 F1140
; Solid infill 
G0 X138.825 Y105.102 F7200
G1 X138.813 Y104.705 E24.45721 F1440
G1 X138.808 Y104.653 E24.46022 F1440
G1 X138.769 Y104.376 E24.47699 F1440
G1 X138.668 Y103.995 E24.50063 F1440
G1 X138.650 Y103.941 E24.50385 F1440
G1 X138.515 Y103.606 E24.52582 F1440
G1 X138.273 Y103.162 E24.55675 F1440
G1 X138.243 Y103.114 E24.56002 F1440
G1 X138.151 Y102.984 E24.56958 F1440
G1 X137.844 Y102.638 E24.59729 F1440
G1 X137.810 Y102.604 E24.60009 F1440
G1 X137.664 Y102.469 E24.61202 F1440
G1 X137.292 Y102.188 E24.64033 F1440
G1 X137.250 Y102.160 E24.64331 F1440
G1 X137.207 Y102.134 E24.64632 F1440
G1 X136.728 Y101.907 E24.67779 F1440
G1 X136.678 Y101.887 E24.68088 F1440
G1 X136.510 Y101.830 E24.69163 F1440
G1 X135.836 Y101.682 E24.73423 F1440
G1 X135.821 Y101.681 E24.73514 F1440
G1 X135.755 Y101.679 E24.73908 F1440
G1 X134.896 Y101.720 E24.79030 F1440
G1 X134.870 Y101.722 E24.79186 F1440
G1 X134.843 Y101.729 E24.79347 F1440
G1 X134.354 Y101.877 E24.82331 F1440
G1 X134.314 Y101.891 E24.82572 F1440
G1 X134.114 Y101.972 E24.83854 F1440
G1 X133.753 Y102.177 E24.86276 F1440
G1 X133.713 Y102.203 E24.86537 F1440
G1 X133.275 Y102.520 E24.89695 F1440
G1 X133.159 Y102.631 E24.90655 F1440
G1 X133.125 Y102.667 E24.90939 F1440
G1 X132.745 Y103.117 E24.94401 F1440
G1 X132.739 Y103.124 E24.94455 F1440
G1 X132.722 Y103.155 E24.94665 F1440
G1 X132.463 Y103.655 E24.97909 F1440
G1 X132.448 Y103.688 E24.98112 F1440
G1 X132.321 Y103.992 E25.00036 F1440
G1 X132.289 Y104.107 E25.00746 F1440
G1 X132.280 Y104.146 E25.00980 F1440
G1 X132.181 Y104.666 E25.04127 F1440
G1 X132.177 Y104.718 E25.04439 F1440
G1 X132.176 Y104.760 E25.04688 F1440
G1 X132.182 Y105.279 E25.07737 F1440
G1 X132.185 Y105.328 E25.08025 F1440
G1 X132.199 Y105.442 E25.08715 F1440
G1 X132.362 Y106.087 E25.12630 F1440
G1 X132.382 Y106.148 E25.12990 F1440
G1 X132.481 Y106.388 E25.14554 F1440
G1 X132.826 Y106.991 E25.18847 F1440
G1 X132.843 Y107.019 E25.19040 F1440
G1 X132.860 Y107.038 E25.19190 F1440
G1 X133.250 Y107.457 E25.22593 F1440
G1 X133.281 Y107.488 E25.22847 F1440
G1 X133.331 Y107.532 E25.23244 F1440
G1 X133.719 Y107.818 E25.26135 F1440
G1 X133.758 Y107.844 E25.26409 F1440
G1 X133.800 Y107.869 E25.26699 F1440
G1 X134.362 Y108.130 E25.30397 F1440
G1 X134.415 Y108.151 E25.30731 F1440
G1 X134.489 Y108.175 E25.31194 F1440
G1 X135.184 Y108.313 E25.35433 F1440
G1 X135.232 Y108.320 E25.35715 F1440
G1 X135.309 Y108.327 E25.36177 F1440
G1 X135.750 Y108.321 E25.38812 F1440
G1 X135.793 Y108.318 E25.39064 F1440
G1 X135.939 Y108.303 E25.39938 F1440
G1 X136.372 Y108.201 E25.42530 F1440
G1 X136.419 Y108.188 E25.42795 F1440
G1 X136.886 Y108.023 E25.45722 F1440
G1 X137.139 Y107.888 E25.47427 F1440
G1 X137.186 Y107.859 E25.47735 F1440
G1 X137.727 Y107.480 E25.51579 F1440
G1 X137.776 Y107.434 E25.51983 F1440
G1 X137.814 Y107.395 E25.52301 F1440
G1 X138.258 Y106.874 E25.56370 F1440
G1 X138.266 Y106.863 E25.56448 F1440
G1 X138.293 Y106.814 E25.56776 F1440
G1 X138.628 Y106.132 E25.61225 F1440
G1 X138.648 Y106.084 E25.61529 F1440
G1 X138.676 Y106.008 E25.62005 F1440
G1 X138.787 Y105.475 E25.65181 F1440
G1 X138.794 Y105.426 E25.65457 F1440
G1 X138.825 Y105.102 E25.67386 F1440
; Inset 0 
G1 F1500 E17.67386
G0 X148.808 Y104.922 F7200
G1 F1500 E25.67386
G0 X148.410 Y104.946 F7200
G1 X148.397 Y104.715 E25.68596 F1140
G1 X148.352 Y104.419 E25.70162 F1140
G1 X148.290 Y104.170 E25.71503 F1140
G1 X148.225 Y103.978 E25.72562 F1140
G1 X148.093 Y103.678 E25.74275 F1140
G1 X147.967 Y103.455 E25.75616 F1140
G1 X147.880 Y103.324 E25.76438 F1140
G1 X147.610 Y102.994 E25.78670 F1140
G1 X147.290 Y102.705 E25.80927 F1140
G1 X147.066 Y102.547 E25.82363 F1140
G1 X146.930 Y102.465 E25.83191 F1140
G1 X146.702 Y102.349 E25.84526 F1140
G1 X146.397 Y102.231 E25.86239 F1140
G1 X146.127 Y102.158 E25.87701 F1140
G1 X145.952 Y102.125 E25.88633 F1140
G1 X145.726 Y102.098 E25.89822 F1140
G1 X145.470 Y102.090 E25.91163 F1140
G1 X145.219 Y102.103 E25.92478 F1140
G1 X144.969 Y102.138 E25.93798 F1140
G1 X144.791 Y102.177 E25.94752 F1140
G1 X144.598 Y102.233 E25.95800 F1140
G1 X144.453 Y102.285 E25.96606 F1140
G1 X144.223 Y102.385 E25.97916 F1140
G1 X144.064 Y102.468 E25.98854 F1140
G1 X143.907 Y102.564 E25.99817 F1140
G1 X143.608 Y102.787 E26.01771 F1140
G1 X143.385 Y102.999 E26.03380 F1140
G1 X143.189 Y103.230 E26.04962 F1140
G1 X143.059 Y103.416 E26.06145 F1140
G1 X142.906 Y103.680 E26.07743 F1140
G1 X142.791 Y103.937 E26.09215 F1140
G1 X142.709 Y104.174 E26.10525 F1140
G1 X142.663 Y104.351 E26.11478 F1140
G1 X142.624 Y104.550 E26.12536 F1140
G1 X142.598 Y104.774 E26.13715 F1140
G1 X142.590 Y105.030 E26.15056 F1140
G1 X142.603 Y105.281 E26.16371 F1140
G1 X142.638 Y105.531 E26.17691 F1140
G1 X142.677 Y105.709 E26.18644 F1140
G1 X142.733 Y105.902 E26.19692 F1140
G1 X142.785 Y106.047 E26.20499 F1140
G1 X142.885 Y106.277 E26.21809 F1140
G1 X142.968 Y106.436 E26.22746 F1140
G1 X143.064 Y106.593 E26.23710 F1140
G1 X143.287 Y106.892 E26.25664 F1140
G1 X143.499 Y107.115 E26.27272 F1140
G1 X143.730 Y107.311 E26.28854 F1140
G1 X143.916 Y107.441 E26.30038 F1140
G1 X144.180 Y107.594 E26.31636 F1140
G1 X144.437 Y107.709 E26.33108 F1140
G1 X144.674 Y107.791 E26.34418 F1140
G1 X144.851 Y107.837 E26.35371 F1140
G1 X145.050 Y107.876 E26.36429 F1140
G1 X145.273 Y107.901 E26.37603 F1140
G1 X145.452 Y107.910 E26.38540 F1140
G1 X145.783 Y107.897 E26.40274 F1140
G1 X146.081 Y107.852 E26.41851 F1140
G1 X146.330 Y107.790 E26.43192 F1140
G1 X146.522 Y107.725 E26.44250 F1140
G1 X146.822 Y107.593 E26.45963 F1140
G1 X147.045 Y107.467 E26.47304 F1140
G1 X147.176 Y107.380 E26.48127 F1140
G1 X147.506 Y107.110 E26.50358 F1140
G1 X147.795 Y106.790 E26.52616 F1140
G1 X147.953 Y106.566 E26.54051 F1140
G1 X148.035 Y106.430 E26.54879 F1140
G1 X148.151 Y106.202 E26.56215 F1140
G1 X148.268 Y105.901 E26.57902 F1140
G1 X148.306 Y105.774 E26.58593 F1140
G1 X148.363 Y105.525 E26.59929 F1140
G1 X148.402 Y105.227 E26.61500 F1140
G1 X148.410 Y104.946 E26.62972 F1140
G0 X149.289 Y104.906 F7200
G1 X149.288 Y105.126 E26.64125 F1140
G1 X149.272 Y105.369 E26.65398 F1140
G1 X149.239 Y105.625 E26.66749 F1140
G1 X149.171 Y105.944 E26.68457 F1140
G1 X149.113 Y106.144 E26.69547 F1140
G1 X149.002 Y106.450 E26.71249 F1140
G1 X148.895 Y106.685 E26.72601 F1140
G1 X148.764 Y106.927 E26.74041 F1140
G1 X148.630 Y107.138 E26.75346 F1140
G1 X148.380 Y107.464 E26.77493 F1140
G1 X148.154 Y107.705 E26.79222 F1140
G1 X148.033 Y107.820 E26.80092 F1140
G1 X147.786 Y108.023 E26.81763 F1140
G1 X147.560 Y108.182 E26.83209 F1140
G1 X147.258 Y108.358 E26.85037 F1140
G1 X147.076 Y108.447 E26.86095 F1140
G1 X146.764 Y108.573 E26.87855 F1140
G1 X146.445 Y108.671 E26.89600 F1140
G1 X146.218 Y108.722 E26.90815 F1140
G1 X146 Y108.757 E26.91967 F1140
G1 X145.799 Y108.778 E26.93026 F1140
G1 X145.465 Y108.790 E26.94775 F1140
G1 X145.275 Y108.783 E26.95770 F1140
G1 X144.867 Y108.737 E26.97918 F1140
G1 X144.556 Y108.671 E26.99579 F1140
G1 X144.355 Y108.613 E27.00674 F1140
G1 X144.050 Y108.502 E27.02371 F1140
G1 X143.814 Y108.395 E27.03728 F1140
G1 X143.570 Y108.262 E27.05179 F1140
G1 X143.358 Y108.127 E27.06494 F1140
G1 X143.036 Y107.880 E27.08615 F1140
G1 X142.795 Y107.654 E27.10344 F1140
G1 X142.680 Y107.533 E27.11214 F1140
G1 X142.477 Y107.286 E27.12885 F1140
G1 X142.317 Y107.058 E27.14341 F1140
G1 X142.141 Y106.756 E27.16169 F1140
G1 X142.053 Y106.576 E27.17217 F1140
G1 X141.927 Y106.264 E27.18977 F1140
G1 X141.828 Y105.940 E27.20748 F1140
G1 X141.778 Y105.717 E27.21942 F1140
G1 X141.743 Y105.500 E27.23089 F1140
G1 X141.721 Y105.292 E27.24184 F1140
G1 X141.711 Y105.094 E27.25221 F1140
G1 X141.712 Y104.874 E27.26374 F1140
G1 X141.728 Y104.631 E27.27647 F1140
G1 X141.762 Y104.370 E27.29024 F1140
G1 X141.829 Y104.056 E27.30706 F1140
G1 X141.887 Y103.855 E27.31801 F1140
G1 X141.998 Y103.550 E27.33498 F1140
G1 X142.105 Y103.315 E27.34849 F1140
G1 X142.238 Y103.070 E27.36306 F1140
G1 X142.370 Y102.862 E27.37594 F1140
G1 X142.620 Y102.536 E27.39742 F1140
G1 X142.846 Y102.295 E27.41471 F1140
G1 X142.967 Y102.180 E27.42341 F1140
G1 X143.214 Y101.977 E27.44012 F1140
G1 X143.442 Y101.817 E27.45468 F1140
G1 X143.742 Y101.642 E27.47286 F1140
G1 X143.924 Y101.553 E27.48344 F1140
G1 X144.236 Y101.427 E27.50104 F1140
G1 X144.555 Y101.329 E27.51848 F1140
G1 X144.783 Y101.278 E27.53069 F1140
G1 X145 Y101.243 E27.54216 F1140
G1 X145.200 Y101.222 E27.55269 F1140
G1 X145.405 Y101.211 E27.56343 F1140
G1 X145.626 Y101.212 E27.57501 F1140
G1 X145.869 Y101.228 E27.58774 F1140
G1 X146.125 Y101.261 E27.60125 F1140
G1 X146.444 Y101.329 E27.61833 F1140
G1 X146.645 Y101.387 E27.62928 F1140
G1 X146.950 Y101.498 E27.64625 F1140
G1 X147.185 Y101.605 E27.65976 F1140
G1 X147.430 Y101.738 E27.67433 F1140
G1 X147.642 Y101.873 E27.68748 F1140
G1 X147.964 Y102.120 E27.70869 F1140
G1 X148.205 Y102.346 E27.72598 F1140
G1 X148.320 Y102.467 E27.73467 F1140
G1 X148.523 Y102.714 E27.75139 F1140
G1 X148.683 Y102.942 E27.76595 F1140
G1 X148.858 Y103.242 E27.78413 F1140
G1 X148.945 Y103.420 E27.79450 F1140
G1 X149.073 Y103.736 E27.81231 F1140
G1 X149.172 Y104.060 E27.83002 F1140
G1 X149.222 Y104.283 E27.84196 F1140
G1 X149.257 Y104.500 E27.85343 F1140
G1 X149.278 Y104.697 E27.86380 F1140
G1 X149.289 Y104.906 E27.87475 F1140
; Solid infill 
G0 X148.843 Y105.103 F7200
G1 X148.825 Y104.690 E27.89798 F1440
G1 X148.820 Y104.642 E27.90061 F1440
G1 X148.779 Y104.374 E27.91616 F1440
G1 X148.634 Y103.851 E27.94719 F1440
G1 X148.615 Y103.797 E27.95030 F1440
G1 X148.531 Y103.598 E27.96266 F1440
G1 X148.246 Y103.094 E27.99603 F1440
G1 X148.222 Y103.057 E27.99848 F1440
G1 X148.164 Y102.974 E28.00420 F1440
G1 X147.935 Y102.713 E28.02367 F1440
G1 X147.901 Y102.678 E28.02630 F1440
G1 X147.667 Y102.465 E28.04458 F1440
G1 X147.212 Y102.125 E28.07845 F1440
G1 X147.170 Y102.100 E28.08120 F1440
G1 X147.120 Y102.074 E28.08435 F1440
G1 X146.551 Y101.821 E28.11926 F1440
G1 X146.517 Y101.808 E28.12131 F1440
G1 X146.504 Y101.805 E28.12206 F1440
G1 X145.837 Y101.670 E28.16107 F1440
G1 X145.787 Y101.666 E28.16392 F1440
G1 X145.731 Y101.665 E28.16704 F1440
G1 X144.921 Y101.705 E28.21241 F1440
G1 X144.868 Y101.710 E28.21541 F1440
G1 X144.861 Y101.713 E28.21582 F1440
G1 X144.107 Y101.958 E28.26135 F1440
G1 X144.063 Y101.980 E28.26415 F1440
G1 X144.012 Y102.008 E28.26739 F1440
G1 X143.346 Y102.443 E28.31141 F1440
G1 X143.304 Y102.474 E28.31431 F1440
G1 X143.264 Y102.508 E28.31726 F1440
G1 X142.864 Y102.949 E28.35066 F1440
G1 X142.837 Y102.982 E28.35297 F1440
G1 X142.734 Y103.120 E28.36271 F1440
G1 X142.541 Y103.466 E28.38474 F1440
G1 X142.521 Y103.507 E28.38712 F1440
G1 X142.317 Y103.990 E28.41660 F1440
G1 X142.249 Y104.229 E28.43083 F1440
G1 X142.238 Y104.281 E28.43375 F1440
G1 X142.178 Y104.666 E28.45611 F1440
G1 X142.163 Y105.007 E28.47564 F1440
G1 Y105.058 E28.47842 F1440
G1 X142.191 Y105.443 E28.50052 F1440
G1 X142.262 Y105.788 E28.52037 F1440
G1 X142.277 Y105.840 E28.52323 F1440
G1 X142.467 Y106.394 E28.55621 F1440
G1 X142.579 Y106.620 E28.57070 F1440
G1 X142.604 Y106.663 E28.57339 F1440
G1 X142.837 Y107.023 E28.59757 F1440
G1 X142.946 Y107.156 E28.60730 F1440
G1 X142.976 Y107.190 E28.60978 F1440
G1 X143.322 Y107.537 E28.63752 F1440
G1 X143.445 Y107.639 E28.64660 F1440
G1 X143.480 Y107.665 E28.64900 F1440
G1 X143.795 Y107.877 E28.67060 F1440
G1 X143.963 Y107.967 E28.68139 F1440
G1 X144.006 Y107.987 E28.68397 F1440
G1 X144.487 Y108.181 E28.71363 F1440
G1 X144.730 Y108.247 E28.72790 F1440
G1 X144.778 Y108.257 E28.73056 F1440
G1 X145.309 Y108.338 E28.76063 F1440
G1 X145.424 Y108.343 E28.76718 F1440
G1 X145.471 Y108.342 E28.76981 F1440
G1 X145.941 Y108.312 E28.79672 F1440
G1 X146.145 Y108.273 E28.80844 F1440
G1 X146.184 Y108.264 E28.81059 F1440
G1 X146.656 Y108.127 E28.83698 F1440
G1 X146.698 Y108.113 E28.83935 F1440
G1 X146.892 Y108.035 E28.85118 F1440
G1 X147.399 Y107.735 E28.88417 F1440
G1 X147.434 Y107.712 E28.88632 F1440
G1 X147.736 Y107.491 E28.90685 F1440
G1 X147.790 Y107.438 E28.91110 F1440
G1 X147.825 Y107.401 E28.91388 F1440
G1 X148.258 Y106.875 E28.95338 F1440
G1 X148.391 Y106.661 E28.96775 F1440
G1 X148.418 Y106.610 E28.97081 F1440
G1 X148.686 Y106.011 E29.00738 F1440
G1 X148.715 Y105.911 E29.01328 F1440
G1 X148.726 Y105.865 E29.01586 F1440
G1 X148.827 Y105.284 E29.04796 F1440
G1 X148.832 Y105.244 E29.05015 F1440
G1 X148.843 Y105.103 E29.05813 F1440
; Inset 0 
G1 F1500 E21.05813
G0 X158.833 Y104.957 F7200
G1 F1500 E29.05813
G0 X158.435 Y104.946 F7200
G1 X158.424 Y104.741 E29.06887 F1140
G1 X158.384 Y104.459 E29.08375 F1140
G1 X158.307 Y104.140 E29.10093 F1140
G1 X158.240 Y103.948 E29.11157 F1140
G1 X158.169 Y103.778 E29.12120 F1140
G1 X158.052 Y103.549 E29.13467 F1140
G1 X157.859 Y103.252 E29.15321 F1140
G1 X157.645 Y102.995 E29.17071 F1140
G1 X157.349 Y102.720 E29.19187 F1140
G1 X157.122 Y102.554 E29.20659 F1140
G1 X156.966 Y102.457 E29.21618 F1140
G1 X156.807 Y102.372 E29.22561 F1140
G1 X156.595 Y102.276 E29.23776 F1140
G1 X156.331 Y102.184 E29.25238 F1140
G1 X156.081 Y102.123 E29.26584 F1140
G1 X155.856 Y102.086 E29.27778 F1140
G1 X155.550 Y102.065 E29.29381 F1140
G1 X155.266 Y102.073 E29.30869 F1140
G1 X155.014 Y102.105 E29.32200 F1140
G1 X154.810 Y102.147 E29.33289 F1140
G1 X154.613 Y102.202 E29.34358 F1140
G1 X154.373 Y102.289 E29.35694 F1140
G1 X154.054 Y102.445 E29.37553 F1140
G1 X153.854 Y102.570 E29.38784 F1140
G1 X153.536 Y102.818 E29.40895 F1140
G1 X153.369 Y102.982 E29.42121 F1140
G1 X153.185 Y103.195 E29.43593 F1140
G1 X153.053 Y103.379 E29.44777 F1140
G1 X152.957 Y103.534 E29.45731 F1140
G1 X152.872 Y103.693 E29.46673 F1140
G1 X152.776 Y103.905 E29.47889 F1140
G1 X152.684 Y104.170 E29.49356 F1140
G1 X152.605 Y104.516 E29.51210 F1140
G1 X152.573 Y104.774 E29.52567 F1140
G1 X152.565 Y105.029 E29.53903 F1140
G1 X152.576 Y105.257 E29.55097 F1140
G1 X152.605 Y105.486 E29.56302 F1140
G1 X152.646 Y105.686 E29.57370 F1140
G1 X152.710 Y105.911 E29.58591 F1140
G1 X152.839 Y106.241 E29.60445 F1140
G1 X152.948 Y106.450 E29.61676 F1140
G1 X153.171 Y106.787 E29.63793 F1140
G1 X153.354 Y107.004 E29.65275 F1140
G1 X153.557 Y107.201 E29.66753 F1140
G1 X153.717 Y107.332 E29.67832 F1140
G1 X153.902 Y107.462 E29.69016 F1140
G1 X154.102 Y107.581 E29.70231 F1140
G1 X154.330 Y107.692 E29.71556 F1140
G1 X154.524 Y107.769 E29.72646 F1140
G1 X154.842 Y107.860 E29.74374 F1140
G1 X155.070 Y107.904 E29.75590 F1140
G1 X155.271 Y107.926 E29.76648 F1140
G1 X155.449 Y107.935 E29.77580 F1140
G1 X155.683 Y107.930 E29.78806 F1140
G1 X156.009 Y107.891 E29.80524 F1140
G1 X156.165 Y107.859 E29.81357 F1140
G1 X156.409 Y107.791 E29.82683 F1140
G1 X156.625 Y107.711 E29.83888 F1140
G1 X156.811 Y107.626 E29.84956 F1140
G1 X156.971 Y107.541 E29.85904 F1140
G1 X157.146 Y107.431 E29.86983 F1140
G1 X157.425 Y107.217 E29.88822 F1140
G1 X157.544 Y107.107 E29.89671 F1140
G1 X157.784 Y106.845 E29.91530 F1140
G1 X157.961 Y106.599 E29.93118 F1140
G1 X158.081 Y106.398 E29.94344 F1140
G1 X158.195 Y106.165 E29.95700 F1140
G1 X158.314 Y105.835 E29.97534 F1140
G1 X158.350 Y105.705 E29.98236 F1140
G1 X158.404 Y105.431 E29.99697 F1140
G1 X158.427 Y105.227 E30.00771 F1140
G1 X158.435 Y104.946 E30.02243 F1140
G0 X159.289 Y104.906 F7200
G1 X159.288 Y105.126 E30.03396 F1140
G1 X159.272 Y105.369 E30.04669 F1140
G1 X159.239 Y105.625 E30.06020 F1140
G1 X159.171 Y105.944 E30.07728 F1140
G1 X159.113 Y106.144 E30.08817 F1140
G1 X159.002 Y106.450 E30.10520 F1140
G1 X158.895 Y106.685 E30.11871 F1140
G1 X158.764 Y106.927 E30.13312 F1140
G1 X158.630 Y107.138 E30.14616 F1140
G1 X158.381 Y107.462 E30.16754 F1140
G1 X158.154 Y107.705 E30.18493 F1140
G1 X158.033 Y107.820 E30.19362 F1140
G1 X157.786 Y108.023 E30.21034 F1140
G1 X157.560 Y108.182 E30.22479 F1140
G1 X157.258 Y108.358 E30.24308 F1140
G1 X157.076 Y108.447 E30.25366 F1140
G1 X156.764 Y108.573 E30.27126 F1140
G1 X156.445 Y108.671 E30.28870 F1140
G1 X156.218 Y108.722 E30.30086 F1140
G1 X156 Y108.757 E30.31238 F1140
G1 X155.799 Y108.778 E30.32296 F1140
G1 X155.465 Y108.790 E30.34046 F1140
G1 X155.275 Y108.783 E30.35041 F1140
G1 X154.867 Y108.737 E30.37189 F1140
G1 X154.556 Y108.671 E30.38850 F1140
G1 X154.355 Y108.613 E30.39944 F1140
G1 X154.050 Y108.502 E30.41642 F1140
G1 X153.814 Y108.395 E30.42998 F1140
G1 X153.570 Y108.262 E30.44450 F1140
G1 X153.358 Y108.127 E30.45764 F1140
G1 X153.036 Y107.880 E30.47886 F1140
G1 X152.795 Y107.654 E30.49615 F1140
G1 X152.680 Y107.533 E30.50484 F1140
G1 X152.477 Y107.286 E30.52155 F1140
G1 X152.317 Y107.058 E30.53612 F1140
G1 X152.141 Y106.756 E30.55440 F1140
G1 X152.053 Y106.576 E30.56488 F1140
G1 X151.927 Y106.264 E30.58248 F1140
G1 X151.828 Y105.940 E30.60018 F1140
G1 X151.778 Y105.717 E30.61213 F1140
G1 X151.743 Y105.500 E30.62360 F1140
G1 X151.721 Y105.292 E30.63455 F1140
G1 X151.711 Y105.094 E30.64492 F1140
G1 X151.712 Y104.874 E30.65644 F1140
G1 X151.728 Y104.631 E30.66917 F1140
G1 X151.762 Y104.370 E30.68295 F1140
G1 X151.829 Y104.056 E30.69977 F1140
G1 X151.887 Y103.855 E30.71071 F1140
G1 X151.998 Y103.549 E30.72774 F1140
G1 X152.105 Y103.315 E30.74120 F1140
G1 X152.238 Y103.070 E30.75577 F1140
G1 X152.370 Y102.862 E30.76865 F1140
G1 X152.620 Y102.536 E30.79013 F1140
G1 X152.846 Y102.295 E30.80742 F1140
G1 X152.967 Y102.180 E30.81611 F1140
G1 X153.214 Y101.977 E30.83282 F1140
G1 X153.442 Y101.817 E30.84739 F1140
G1 X153.742 Y101.642 E30.86556 F1140
G1 X153.924 Y101.553 E30.87615 F1140
G1 X154.236 Y101.427 E30.89375 F1140
G1 X154.555 Y101.329 E30.91119 F1140
G1 X154.783 Y101.278 E30.92340 F1140
G1 X155 Y101.243 E30.93487 F1140
G1 X155.200 Y101.222 E30.94540 F1140
G1 X155.405 Y101.211 E30.95614 F1140
G1 X155.626 Y101.212 E30.96771 F1140
G1 X155.869 Y101.228 E30.98044 F1140
G1 X156.125 Y101.261 E30.99396 F1140
G1 X156.444 Y101.329 E31.01104 F1140
G1 X156.645 Y101.387 E31.02198 F1140
G1 X156.950 Y101.498 E31.03896 F1140
G1 X157.185 Y101.605 E31.05247 F1140
G1 X157.430 Y101.738 E31.06704 F1140
G1 X157.642 Y101.873 E31.08018 F1140
G1 X157.964 Y102.120 E31.10140 F1140
G1 X158.205 Y102.346 E31.11869 F1140
G1 X158.320 Y102.467 E31.12738 F1140
G1 X158.523 Y102.714 E31.14409 F1140
G1 X158.683 Y102.942 E31.15866 F1140
G1 X158.858 Y103.242 E31.17683 F1140
G1 X158.945 Y103.420 E31.18721 F1140
G1 X159.073 Y103.736 E31.20502 F1140
G1 X159.172 Y104.060 E31.22272 F1140
G1 X159.222 Y104.283 E31.23467 F1140
G1 X159.257 Y104.500 E31.24614 F1140
G1 X159.278 Y104.697 E31.25651 F1140
G1 X159.289 Y104.906 E31.26746 F1140
; Solid infill 
G0 X158.849 Y105.103 F7200
G1 X158.840 Y104.726 E31.28782 F1440
G1 X158.835 Y104.674 E31.29050 F1440
G1 X158.789 Y104.372 E31.30717 F1440
G1 X158.637 Y103.825 E31.33814 F1440
G1 X158.624 Y103.783 E31.34036 F1440
G1 X158.548 Y103.591 E31.35135 F1440
G1 X158.422 Y103.355 E31.36557 F1440
G1 X158.401 Y103.321 E31.36759 F1440
G1 X158.168 Y102.971 E31.39027 F1440
G1 X157.964 Y102.726 E31.40740 F1440
G1 X157.926 Y102.686 E31.41024 F1440
G1 X157.675 Y102.456 E31.42885 F1440
G1 X157.219 Y102.112 E31.46090 F1440
G1 X157.207 Y102.105 E31.46161 F1440
G1 X157.157 Y102.079 E31.46462 F1440
G1 X156.520 Y101.799 E31.50215 F1440
G1 X156.473 Y101.784 E31.50480 F1440
G1 X156.432 Y101.773 E31.50703 F1440
G1 X155.925 Y101.669 E31.53438 F1440
G1 X155.896 Y101.664 E31.53591 F1440
G1 X155.838 Y101.656 E31.53902 F1440
G1 X155.567 Y101.653 E31.55318 F1440
G1 X155.531 Y101.654 E31.55499 F1440
G1 X154.867 Y101.705 E31.59033 F1440
G1 X154.736 Y101.734 E31.59761 F1440
G1 X154.695 Y101.745 E31.59981 F1440
G1 X154.226 Y101.895 E31.62540 F1440
G1 X154.190 Y101.909 E31.62740 F1440
G1 X154.102 Y101.947 E31.63249 F1440
G1 X153.637 Y102.224 E31.66063 F1440
G1 X153.603 Y102.247 E31.66266 F1440
G1 X153.260 Y102.503 E31.68518 F1440
G1 X153.082 Y102.679 E31.69862 F1440
G1 X153.047 Y102.718 E31.70130 F1440
G1 X152.733 Y103.120 E31.72929 F1440
